%
(2025-46-17, 09:46:18, Florian Amoser)
(This is machine specific gcode for SPLICER)
(250217_focusvalidation0_0-10000.ngc)
(linenumbers: 10000)
(color: a)
(exposure time: 3200μs)
G90 G17
G21
G01 F5000
G0 X-10.0 Y140.0 Z70.0 A0.0 B0.0 C0.0 U0.0
M100
G93 G1 V152.752 F20000 M63 P0
G93 G1 Y140.096 V152.677 F20000 M62 P0
G93 G1 Y140.192 V152.602 F20000 M63 P0
G93 G1 Y140.288 V152.526 F20000 M62 P0
G93 G1 Y140.384 V152.451 F20000 M63 P0
G93 G1 Y140.48 V152.377 F20000 M62 P0
G93 G1 Y140.576 V152.302 F20000 M63 P0
G93 G1 Y140.672 V152.227 F20000 M62 P0
G93 G1 Y140.768 V152.152 F20000 M63 P0
G93 G1 Y140.864 V152.078 F20000 M62 P0
G93 G1 Y140.96 V152.003 F20000 M63 P0
G93 G1 Y141.056 V151.928 F20000 M62 P0
G93 G1 Y141.152 V151.854 F20000 M63 P0
G93 G1 Y141.248 V151.78 F20000 M62 P0
G93 G1 Y141.344 V151.705 F20000 M63 P0
G93 G1 Y141.44 V151.631 F20000 M62 P0
G93 G1 Y141.536 V151.557 F20000 M63 P0
G93 G1 Y141.632 V151.483 F20000 M62 P0
G93 G1 Y141.728 V151.408 F20000 M63 P0
G93 G1 Y141.824 V151.334 F20000 M62 P0
G93 G1 Y141.92 V151.26 F20000 M63 P0
G93 G1 Y142.016 V151.187 F20000 M62 P0
G93 G1 Y142.112 V151.113 F20000 M63 P0
G93 G1 Y142.208 V151.039 F20000 M62 P0
G93 G1 Y142.304 V150.965 F20000 M63 P0
G93 G1 Y142.4 V150.892 F20000 M62 P0
G93 G1 Y142.496 V150.818 F20000 M63 P0
G93 G1 Y142.592 V150.745 F20000 M62 P0
G93 G1 Y142.688 V150.671 F20000 M63 P0
G93 G1 Y142.784 V150.598 F20000 M62 P0
G93 G1 Y142.88 V150.524 F20000 M63 P0
G93 G1 Y142.976 V150.451 F20000 M62 P0
G93 G1 Y143.072 V150.378 F20000 M63 P0
G93 G1 Y143.168 V150.305 F20000 M62 P0
G93 G1 Y143.264 V150.232 F20000 M63 P0
G93 G1 Y143.36 V150.159 F20000 M62 P0
G93 G1 Y143.456 V150.086 F20000 M63 P0
G93 G1 Y143.552 V150.013 F20000 M62 P0
G93 G1 Y143.648 V149.94 F20000 M63 P0
G93 G1 Y143.744 V149.867 F20000 M62 P0
G93 G1 Y143.84 V149.795 F20000 M63 P0
G93 G1 Y143.936 V149.722 F20000 M62 P0
G93 G1 Y144.032 V149.65 F20000 M63 P0
G93 G1 Y144.128 V149.577 F20000 M62 P0
G93 G1 Y144.224 V149.505 F20000 M63 P0
G93 G1 Y144.32 V149.432 F20000 M62 P0
G93 G1 Y144.416 V149.36 F20000 M63 P0
G93 G1 Y144.512 V149.288 F20000 M62 P0
G93 G1 Y144.608 V149.215 F20000 M63 P0
G93 G1 Y144.704 V149.143 F20000 M62 P0
G93 G1 Y144.8 V149.071 F20000 M63 P0
G93 G1 Y144.896 V148.999 F20000 M62 P0
G93 G1 Y144.992 V148.927 F20000 M63 P0
G93 G1 Y145.088 V148.856 F20000 M62 P0
G93 G1 Y145.184 V148.784 F20000 M63 P0
G93 G1 Y145.28 V148.712 F20000 M62 P0
G93 G1 Y145.376 V148.64 F20000 M63 P0
G93 G1 Y145.472 V148.569 F20000 M62 P0
G93 G1 Y145.568 V148.497 F20000 M63 P0
G93 G1 Y145.664 V148.426 F20000 M62 P0
G93 G1 Y145.76 V148.354 F20000 M63 P0
G93 G1 Y145.856 V148.283 F20000 M62 P0
G93 G1 Y145.952 V148.211 F20000 M63 P0
G93 G1 Y146.048 V148.14 F20000 M62 P0
G93 G1 Y146.144 V148.069 F20000 M63 P0
G93 G1 Y146.24 V147.998 F20000 M62 P0
G93 G1 Y146.336 V147.927 F20000 M63 P0
G93 G1 Y146.432 V147.856 F20000 M62 P0
G93 G1 Y146.528 V147.785 F20000 M63 P0
G93 G1 Y146.624 V147.714 F20000 M62 P0
G93 G1 Y146.72 V147.643 F20000 M63 P0
G93 G1 Y146.816 V147.572 F20000 M62 P0
G93 G1 Y146.912 V147.502 F20000 M63 P0
G93 G1 Y147.008 V147.431 F20000 M62 P0
G93 G1 Y147.104 V147.361 F20000 M63 P0
G93 G1 Y147.2 V147.29 F20000 M62 P0
G93 G1 Y147.296 V147.22 F20000 M63 P0
G93 G1 Y147.392 V147.149 F20000 M62 P0
G93 G1 Y147.488 V147.079 F20000 M63 P0
G93 G1 Y147.584 V147.009 F20000 M62 P0
G93 G1 Y147.68 V146.938 F20000 M63 P0
G93 G1 Y147.776 V146.868 F20000 M62 P0
G93 G1 Y147.872 V146.798 F20000 M63 P0
G93 G1 Y147.968 V146.728 F20000 M62 P0
G93 G1 Y148.064 V146.658 F20000 M63 P0
G93 G1 Y148.16 V146.588 F20000 M62 P0
G93 G1 Y148.256 V146.519 F20000 M63 P0
G93 G1 Y148.352 V146.449 F20000 M62 P0
G93 G1 Y148.448 V146.379 F20000 M63 P0
G93 G1 Y148.544 V146.309 F20000 M62 P0
G93 G1 Y148.64 V146.24 F20000 M63 P0
G93 G1 Y148.736 V146.17 F20000 M62 P0
G93 G1 Y148.832 V146.101 F20000 M63 P0
G93 G1 Y148.928 V146.031 F20000 M62 P0
G93 G1 Y149.024 V145.962 F20000 M63 P0
G93 G1 Y149.12 V145.893 F20000 M62 P0
G93 G1 Y149.216 V145.824 F20000 M63 P0
G93 G1 Y149.312 V145.754 F20000 M62 P0
G93 G1 Y149.408 V145.685 F20000 M63 P0
G93 G1 Y149.504 V145.616 F20000 M62 P0
G93 G1 Y149.6 V145.547 F20000 M63 P0
G93 G1 Y149.696 V145.478 F20000 M62 P0
G93 G1 Y149.792 V145.41 F20000 M63 P0
G93 G1 Y149.888 V145.341 F20000 M62 P0
G93 G1 Y149.984 V145.272 F20000 M63 P0
G93 G1 Y150.08 V145.203 F20000 M62 P0
G93 G1 Y150.176 V145.135 F20000 M63 P0
G93 G1 Y150.272 V145.066 F20000 M62 P0
G93 G1 Y150.368 V144.998 F20000 M63 P0
G93 G1 Y150.464 V144.929 F20000 M62 P0
G93 G1 Y150.56 V144.861 F20000 M63 P0
G93 G1 Y150.656 V144.792 F20000 M62 P0
G93 G1 Y150.752 V144.724 F20000 M63 P0
G93 G1 Y150.848 V144.656 F20000 M62 P0
G93 G1 Y150.944 V144.588 F20000 M63 P0
G93 G1 Y151.04 V144.52 F20000 M62 P0
G93 G1 Y151.136 V144.452 F20000 M63 P0
G93 G1 Y151.232 V144.384 F20000 M62 P0
G93 G1 Y151.328 V144.316 F20000 M63 P0
G93 G1 Y151.424 V144.248 F20000 M62 P0
G93 G1 Y151.52 V144.18 F20000 M63 P0
G93 G1 Y151.616 V144.113 F20000 M62 P0
G93 G1 Y151.712 V144.045 F20000 M63 P0
G93 G1 Y151.808 V143.977 F20000 M62 P0
G93 G1 Y151.904 V143.91 F20000 M63 P0
G93 G1 Y152.0 V143.842 F20000 M62 P0
G93 G1 Y152.096 V143.775 F20000 M63 P0
G93 G1 Y152.192 V143.707 F20000 M62 P0
G93 G1 Y152.288 V143.64 F20000 M63 P0
G93 G1 Y152.384 V143.573 F20000 M62 P0
G93 G1 Y152.48 V143.506 F20000 M63 P0
G93 G1 Y152.576 V143.439 F20000 M62 P0
G93 G1 Y152.672 V143.371 F20000 M63 P0
G93 G1 Y152.768 V143.304 F20000 M62 P0
G93 G1 Y152.864 V143.237 F20000 M63 P0
G93 G1 Y152.96 V143.171 F20000 M62 P0
G93 G1 Y153.056 V143.104 F20000 M63 P0
G93 G1 Y153.152 V143.037 F20000 M62 P0
G93 G1 Y153.248 V142.97 F20000 M63 P0
G93 G1 Y153.344 V142.904 F20000 M62 P0
G93 G1 Y153.44 V142.837 F20000 M63 P0
G93 G1 Y153.536 V142.77 F20000 M62 P0
G93 G1 Y153.632 V142.704 F20000 M63 P0
G93 G1 Y153.728 V142.638 F20000 M62 P0
G93 G1 Y153.824 V142.571 F20000 M63 P0
G93 G1 Y153.92 V142.505 F20000 M62 P0
G93 G1 Y154.016 V142.439 F20000 M63 P0
G93 G1 Y154.112 V142.372 F20000 M62 P0
G93 G1 Y154.208 V142.306 F20000 M63 P0
G93 G1 Y154.304 V142.24 F20000 M62 P0
G93 G1 Y154.4 V142.174 F20000 M63 P0
G93 G1 Y154.496 V142.108 F20000 M62 P0
G93 G1 Y154.592 V142.042 F20000 M63 P0
G93 G1 Y154.688 V141.976 F20000 M62 P0
G93 G1 Y154.784 V141.911 F20000 M63 P0
G93 G1 Y154.88 V141.845 F20000 M62 P0
G93 G1 Y154.976 V141.779 F20000 M63 P0
G93 G1 Y155.072 V141.714 F20000 M62 P0
G93 G1 Y155.168 V141.648 F20000 M63 P0
G93 G1 Y155.264 V141.583 F20000 M62 P0
G93 G1 Y155.36 V141.517 F20000 M63 P0
G93 G1 Y155.456 V141.452 F20000 M62 P0
G93 G1 Y155.552 V141.386 F20000 M63 P0
G93 G1 Y155.648 V141.321 F20000 M62 P0
G93 G1 Y155.744 V141.256 F20000 M63 P0
G93 G1 Y155.84 V141.191 F20000 M62 P0
G93 G1 Y155.936 V141.126 F20000 M63 P0
G93 G1 Y156.032 V141.061 F20000 M62 P0
G93 G1 Y156.128 V140.996 F20000 M63 P0
G93 G1 Y156.224 V140.931 F20000 M62 P0
G93 G1 Y156.32 V140.866 F20000 M63 P0
G93 G1 Y156.416 V140.801 F20000 M62 P0
G93 G1 Y156.512 V140.736 F20000 M63 P0
G93 G1 Y156.608 V140.672 F20000 M62 P0
G93 G1 Y156.704 V140.607 F20000 M63 P0
G93 G1 Y156.8 V140.542 F20000 M62 P0
G93 G1 Y156.896 V140.478 F20000 M63 P0
G93 G1 Y156.992 V140.413 F20000 M62 P0
G93 G1 Y157.088 V140.349 F20000 M63 P0
G93 G1 Y157.184 V140.285 F20000 M62 P0
G93 G1 Y157.28 V140.22 F20000 M63 P0
G93 G1 Y157.376 V140.156 F20000 M62 P0
G93 G1 Y157.472 V140.092 F20000 M63 P0
G93 G1 Y157.568 V140.028 F20000 M62 P0
G93 G1 Y157.664 V139.964 F20000 M63 P0
G93 G1 Y157.76 V139.9 F20000 M62 P0
G93 G1 Y157.856 V139.836 F20000 M63 P0
G93 G1 Y157.952 V139.772 F20000 M62 P0
G93 G1 Y158.048 V139.708 F20000 M63 P0
G93 G1 Y158.144 V139.644 F20000 M62 P0
G93 G1 Y158.24 V139.581 F20000 M63 P0
G93 G1 Y158.336 V139.517 F20000 M62 P0
G93 G1 Y158.432 V139.453 F20000 M63 P0
G93 G1 Y158.528 V139.39 F20000 M62 P0
G93 G1 Y158.624 V139.326 F20000 M63 P0
G93 G1 Y158.72 V139.263 F20000 M62 P0
G93 G1 Y158.816 V139.199 F20000 M63 P0
G93 G1 Y158.912 V139.136 F20000 M62 P0
G93 G1 Y159.008 V139.073 F20000 M63 P0
G93 G1 Y159.104 V139.01 F20000 M62 P0
G93 G1 Y159.2 V138.946 F20000 M63 P0
G93 G1 Y159.296 V138.883 F20000 M62 P0
G93 G1 Y159.392 V138.82 F20000 M63 P0
G93 G1 Y159.488 V138.757 F20000 M62 P0
G93 G1 Y159.584 V138.694 F20000 M63 P0
G93 G1 Y159.68 V138.631 F20000 M62 P0
G93 G1 Y159.776 V138.569 F20000 M63 P0
G93 G1 Y159.872 V138.506 F20000 M62 P0
G93 G1 Y159.968 V138.443 F20000 M63 P0
G93 G1 Y160.064 V138.38 F20000 M62 P0
G93 G1 Y160.16 V138.318 F20000 M63 P0
G93 G1 Y160.256 V138.255 F20000 M62 P0
G93 G1 Y160.352 V138.193 F20000 M63 P0
G93 G1 Y160.448 V138.13 F20000 M62 P0
G93 G1 Y160.544 V138.068 F20000 M63 P0
G93 G1 Y160.64 V138.006 F20000 M62 P0
G93 G1 Y160.736 V137.943 F20000 M63 P0
G93 G1 Y160.832 V137.881 F20000 M62 P0
G93 G1 Y160.928 V137.819 F20000 M63 P0
G93 G1 Y161.024 V137.757 F20000 M62 P0
G93 G1 Y161.12 V137.695 F20000 M63 P0
G93 G1 Y161.216 V137.633 F20000 M62 P0
G93 G1 Y161.312 V137.571 F20000 M63 P0
G93 G1 Y161.408 V137.509 F20000 M62 P0
G93 G1 Y161.504 V137.447 F20000 M63 P0
G93 G1 Y161.6 V137.385 F20000 M62 P0
G93 G1 Y161.696 V137.324 F20000 M63 P0
G93 G1 Y161.792 V137.262 F20000 M62 P0
G93 G1 Y161.888 V137.2 F20000 M63 P0
G93 G1 Y161.984 V137.139 F20000 M62 P0
G93 G1 Y162.08 V137.077 F20000 M63 P0
G93 G1 Y162.176 V137.016 F20000 M62 P0
G93 G1 Y162.272 V136.954 F20000 M63 P0
G93 G1 Y162.368 V136.893 F20000 M62 P0
G93 G1 Y162.464 V136.832 F20000 M63 P0
G93 G1 Y162.56 V136.771 F20000 M62 P0
G93 G1 Y162.656 V136.709 F20000 M63 P0
G93 G1 Y162.752 V136.648 F20000 M62 P0
G93 G1 Y162.848 V136.587 F20000 M63 P0
G93 G1 Y162.944 V136.526 F20000 M62 P0
G93 G1 Y163.04 V136.465 F20000 M63 P0
G93 G1 Y163.136 V136.404 F20000 M62 P0
G93 G1 Y163.232 V136.343 F20000 M63 P0
G93 G1 Y163.328 V136.283 F20000 M62 P0
G93 G1 Y163.424 V136.222 F20000 M63 P0
G93 G1 Y163.52 V136.161 F20000 M62 P0
G93 G1 Y163.616 V136.101 F20000 M63 P0
G93 G1 Y163.712 V136.04 F20000 M62 P0
G93 G1 Y163.808 V135.979 F20000 M63 P0
G93 G1 Y163.904 V135.919 F20000 M62 P0
G93 G1 Y164.0 V135.859 F20000 M63 P0
G93 G1 Y164.096 V135.798 F20000 M62 P0
G93 G1 Y164.192 V135.738 F20000 M63 P0
G93 G1 Y164.288 V135.678 F20000 M62 P0
G93 G1 Y164.384 V135.617 F20000 M63 P0
G93 G1 Y164.48 V135.557 F20000 M62 P0
G93 G1 Y164.576 V135.497 F20000 M63 P0
G93 G1 Y164.672 V135.437 F20000 M62 P0
G93 G1 Y164.768 V135.377 F20000 M63 P0
G93 G1 Y164.864 V135.317 F20000 M62 P0
G93 G1 Y164.96 V135.257 F20000 M63 P0
G93 G1 Y165.056 V135.197 F20000 M62 P0
G93 G1 Y165.152 V135.138 F20000 M63 P0
G93 G1 Y165.248 V135.078 F20000 M62 P0
G93 G1 Y165.344 V135.018 F20000 M63 P0
G93 G1 Y165.44 V134.959 F20000 M62 P0
G93 G1 Y165.536 V134.899 F20000 M63 P0
G93 G1 Y165.632 V134.84 F20000 M62 P0
G93 G1 Y165.728 V134.78 F20000 M63 P0
G93 G1 Y165.824 V134.721 F20000 M62 P0
G93 G1 Y165.92 V134.661 F20000 M63 P0
G93 G1 Y166.016 V134.602 F20000 M62 P0
G93 G1 Y166.112 V134.543 F20000 M63 P0
G93 G1 Y166.208 V134.484 F20000 M62 P0
G93 G1 Y166.304 V134.425 F20000 M63 P0
G93 G1 Y166.4 V134.366 F20000 M62 P0
G93 G1 Y166.496 V134.306 F20000 M63 P0
G93 G1 Y166.592 V134.248 F20000 M62 P0
G93 G1 Y166.688 V134.189 F20000 M63 P0
G93 G1 Y166.784 V134.13 F20000 M62 P0
G93 G1 Y166.88 V134.071 F20000 M63 P0
G93 G1 Y166.976 V134.012 F20000 M62 P0
G93 G1 Y167.072 V133.953 F20000 M63 P0
G93 G1 Y167.168 V133.895 F20000 M62 P0
G93 G1 Y167.264 V133.836 F20000 M63 P0
G93 G1 Y167.36 V133.778 F20000 M62 P0
G93 G1 Y167.456 V133.719 F20000 M63 P0
G93 G1 Y167.552 V133.661 F20000 M62 P0
G93 G1 Y167.648 V133.602 F20000 M63 P0
G93 G1 Y167.744 V133.544 F20000 M62 P0
G93 G1 Y167.84 V133.486 F20000 M63 P0
G93 G1 Y167.936 V133.427 F20000 M62 P0
G93 G1 Y168.032 V133.369 F20000 M63 P0
G93 G1 Y168.128 V133.311 F20000 M62 P0
G93 G1 Y168.224 V133.253 F20000 M63 P0
G93 G1 Y168.32 V133.195 F20000 M62 P0
G93 G1 Y168.416 V133.137 F20000 M63 P0
G93 G1 Y168.512 V133.079 F20000 M62 P0
G93 G1 Y168.608 V133.021 F20000 M63 P0
G93 G1 Y168.704 V132.963 F20000 M62 P0
G93 G1 Y168.8 V132.906 F20000 M63 P0
G93 G1 Y168.896 V132.848 F20000 M62 P0
G93 G1 Y168.992 V132.79 F20000 M63 P0
G93 G1 Y169.088 V132.733 F20000 M62 P0
G93 G1 Y169.184 V132.675 F20000 M63 P0
G93 G1 Y169.28 V132.617 F20000 M62 P0
G93 G1 Y169.376 V132.56 F20000 M63 P0
G93 G1 Y169.472 V132.503 F20000 M62 P0
G93 G1 Y169.568 V132.445 F20000 M63 P0
G93 G1 Y169.664 V132.388 F20000 M62 P0
G93 G1 Y169.76 V132.331 F20000 M63 P0
G93 G1 Y169.856 V132.273 F20000 M62 P0
G93 G1 Y169.952 V132.216 F20000 M63 P0
G93 G1 Y170.048 V132.159 F20000 M62 P0
G93 G1 Y170.144 V132.102 F20000 M63 P0
G93 G1 Y170.24 V132.045 F20000 M62 P0
G93 G1 Y170.336 V131.988 F20000 M63 P0
G93 G1 Y170.432 V131.931 F20000 M62 P0
G93 G1 Y170.528 V131.874 F20000 M63 P0
G93 G1 Y170.624 V131.818 F20000 M62 P0
G93 G1 Y170.72 V131.761 F20000 M63 P0
G93 G1 Y170.816 V131.704 F20000 M62 P0
G93 G1 Y170.912 V131.648 F20000 M63 P0
G93 G1 Y171.008 V131.591 F20000 M62 P0
G93 G1 Y171.104 V131.534 F20000 M63 P0
G93 G1 Y171.2 V131.478 F20000 M62 P0
G93 G1 Y171.296 V131.422 F20000 M63 P0
G93 G1 Y171.392 V131.365 F20000 M62 P0
G93 G1 Y171.488 V131.309 F20000 M63 P0
G93 G1 Y171.584 V131.253 F20000 M62 P0
G93 G1 Y171.68 V131.196 F20000 M63 P0
G93 G1 Y171.776 V131.14 F20000 M62 P0
G93 G1 Y171.872 V131.084 F20000 M63 P0
G93 G1 Y171.968 V131.028 F20000 M62 P0
G93 G1 Y172.064 V130.972 F20000 M63 P0
G93 G1 Y172.16 V130.916 F20000 M62 P0
G93 G1 Y172.256 V130.86 F20000 M63 P0
G93 G1 Y172.352 V130.804 F20000 M62 P0
G93 G1 Y172.448 V130.748 F20000 M63 P0
G93 G1 Y172.544 V130.692 F20000 M62 P0
G93 G1 Y172.64 V130.637 F20000 M63 P0
G93 G1 Y172.736 V130.581 F20000 M62 P0
G93 G1 Y172.832 V130.525 F20000 M63 P0
G93 G1 Y172.928 V130.47 F20000 M62 P0
G93 G1 Y173.024 V130.414 F20000 M63 P0
G93 G1 Y173.12 V130.359 F20000 M62 P0
G93 G1 Y173.216 V130.303 F20000 M63 P0
G93 G1 Y173.312 V130.248 F20000 M62 P0
G93 G1 Y173.408 V130.193 F20000 M63 P0
G93 G1 Y173.504 V130.137 F20000 M62 P0
G93 G1 Y173.6 V130.082 F20000 M63 P0
G93 G1 Y173.696 V130.027 F20000 M62 P0
G93 G1 Y173.792 V129.972 F20000 M63 P0
G93 G1 Y173.888 V129.917 F20000 M62 P0
G93 G1 Y173.984 V129.862 F20000 M63 P0
G93 G1 Y174.08 V129.807 F20000 M62 P0
G93 G1 Y174.176 V129.752 F20000 M63 P0
G93 G1 Y174.272 V129.697 F20000 M62 P0
G93 G1 Y174.368 V129.642 F20000 M63 P0
G93 G1 Y174.464 V129.587 F20000 M62 P0
G93 G1 Y174.56 V129.533 F20000 M63 P0
G93 G1 Y174.656 V129.478 F20000 M62 P0
G93 G1 Y174.752 V129.423 F20000 M63 P0
G93 G1 Y174.848 V129.369 F20000 M62 P0
G93 G1 Y174.944 V129.314 F20000 M63 P0
G93 G1 Y175.04 V129.26 F20000 M62 P0
G93 G1 Y175.136 V129.205 F20000 M63 P0
G93 G1 Y175.232 V129.151 F20000 M62 P0
G93 G1 Y175.328 V129.097 F20000 M63 P0
G93 G1 Y175.424 V129.042 F20000 M62 P0
G93 G1 Y175.52 V128.988 F20000 M63 P0
G93 G1 Y175.616 V128.934 F20000 M62 P0
G93 G1 Y175.712 V128.88 F20000 M63 P0
G93 G1 Y175.808 V128.826 F20000 M62 P0
G93 G1 Y175.904 V128.772 F20000 M63 P0
G93 G1 Y176.0 V128.718 F20000 M62 P0
G93 G1 Y176.096 V128.664 F20000 M63 P0
G93 G1 Y176.192 V128.61 F20000 M62 P0
G93 G1 Y176.288 V128.556 F20000 M63 P0
G93 G1 Y176.384 V128.502 F20000 M62 P0
G93 G1 Y176.48 V128.448 F20000 M63 P0
G93 G1 Y176.576 V128.395 F20000 M62 P0
G93 G1 Y176.672 V128.341 F20000 M63 P0
G93 G1 Y176.768 V128.288 F20000 M62 P0
G93 G1 Y176.864 V128.234 F20000 M63 P0
G93 G1 Y176.96 V128.18 F20000 M62 P0
G93 G1 Y177.056 V128.127 F20000 M63 P0
G93 G1 Y177.152 V128.074 F20000 M62 P0
G93 G1 Y177.248 V128.02 F20000 M63 P0
G93 G1 Y177.344 V127.967 F20000 M62 P0
G93 G1 Y177.44 V127.914 F20000 M63 P0
G93 G1 Y177.536 V127.86 F20000 M62 P0
G93 G1 Y177.632 V127.807 F20000 M63 P0
G93 G1 Y177.728 V127.754 F20000 M62 P0
G93 G1 Y177.824 V127.701 F20000 M63 P0
G93 G1 Y177.92 V127.648 F20000 M62 P0
G93 G1 Y178.016 V127.595 F20000 M63 P0
G93 G1 Y178.112 V127.542 F20000 M62 P0
G93 G1 Y178.208 V127.489 F20000 M63 P0
G93 G1 Y178.304 V127.437 F20000 M62 P0
G93 G1 Y178.4 V127.384 F20000 M63 P0
G93 G1 Y178.496 V127.331 F20000 M62 P0
G93 G1 Y178.592 V127.278 F20000 M63 P0
G93 G1 Y178.688 V127.226 F20000 M62 P0
G93 G1 Y178.784 V127.173 F20000 M63 P0
G93 G1 Y178.88 V127.121 F20000 M62 P0
G93 G1 Y178.976 V127.068 F20000 M63 P0
G93 G1 Y179.072 V127.016 F20000 M62 P0
G93 G1 Y179.168 V126.963 F20000 M63 P0
G93 G1 Y179.264 V126.911 F20000 M62 P0
G93 G1 Y179.36 V126.859 F20000 M63 P0
G93 G1 Y179.456 V126.806 F20000 M62 P0
G93 G1 Y179.552 V126.754 F20000 M63 P0
G93 G1 Y179.648 V126.702 F20000 M62 P0
G93 G1 Y179.744 V126.65 F20000 M63 P0
G93 G1 Y179.84 V126.598 F20000 M62 P0
G93 G1 Y179.936 V126.546 F20000 M63 P0
G93 G1 Y180.032 V126.494 F20000 M62 P0
G93 G1 Y180.128 V126.442 F20000 M63 P0
G93 G1 Y180.224 V126.39 F20000 M62 P0
G93 G1 Y180.32 V126.338 F20000 M63 P0
G93 G1 Y180.416 V126.286 F20000 M62 P0
G93 G1 Y180.512 V126.235 F20000 M63 P0
G93 G1 Y180.608 V126.183 F20000 M62 P0
G93 G1 Y180.704 V126.131 F20000 M63 P0
G93 G1 Y180.8 V126.08 F20000 M62 P0
G93 G1 Y180.896 V126.028 F20000 M63 P0
G93 G1 Y180.992 V125.977 F20000 M62 P0
G93 G1 Y181.088 V125.925 F20000 M63 P0
G93 G1 Y181.184 V125.874 F20000 M62 P0
G93 G1 Y181.28 V125.823 F20000 M63 P0
G93 G1 Y181.376 V125.771 F20000 M62 P0
G93 G1 Y181.472 V125.72 F20000 M63 P0
G93 G1 Y181.568 V125.669 F20000 M62 P0
G93 G1 Y181.664 V125.618 F20000 M63 P0
G93 G1 Y181.76 V125.567 F20000 M62 P0
G93 G1 Y181.856 V125.515 F20000 M63 P0
G93 G1 Y181.952 V125.464 F20000 M62 P0
G93 G1 Y182.048 V125.413 F20000 M63 P0
G93 G1 Y182.144 V125.362 F20000 M62 P0
G93 G1 Y182.24 V125.312 F20000 M63 P0
G93 G1 Y182.336 V125.261 F20000 M62 P0
G93 G1 Y182.432 V125.21 F20000 M63 P0
G93 G1 Y182.528 V125.159 F20000 M62 P0
G93 G1 Y182.624 V125.109 F20000 M63 P0
G93 G1 Y182.72 V125.058 F20000 M62 P0
G93 G1 Y182.816 V125.007 F20000 M63 P0
G93 G1 Y182.912 V124.957 F20000 M62 P0
G93 G1 Y183.008 V124.906 F20000 M63 P0
G93 G1 Y183.104 V124.856 F20000 M62 P0
G93 G1 Y183.2 V124.805 F20000 M63 P0
G93 G1 Y183.296 V124.755 F20000 M62 P0
G93 G1 Y183.392 V124.705 F20000 M63 P0
G93 G1 Y183.488 V124.654 F20000 M62 P0
G93 G1 Y183.584 V124.604 F20000 M63 P0
G93 G1 Y183.68 V124.554 F20000 M62 P0
G93 G1 Y183.776 V124.504 F20000 M63 P0
G93 G1 Y183.872 V124.454 F20000 M62 P0
G93 G1 Y183.968 V124.404 F20000 M63 P0
G93 G1 Y184.064 V124.354 F20000 M62 P0
G93 G1 Y184.16 V124.304 F20000 M63 P0
G93 G1 Y184.256 V124.254 F20000 M62 P0
G93 G1 Y184.352 V124.204 F20000 M63 P0
G93 G1 Y184.448 V124.154 F20000 M62 P0
G93 G1 Y184.544 V124.104 F20000 M63 P0
G93 G1 Y184.64 V124.054 F20000 M62 P0
G93 G1 Y184.736 V124.005 F20000 M63 P0
G93 G1 Y184.832 V123.955 F20000 M62 P0
G93 G1 Y184.928 V123.906 F20000 M63 P0
G93 G1 Y185.024 V123.856 F20000 M62 P0
G93 G1 Y185.12 V123.806 F20000 M63 P0
G93 G1 Y185.216 V123.757 F20000 M62 P0
G93 G1 Y185.312 V123.708 F20000 M63 P0
G93 G1 Y185.408 V123.658 F20000 M62 P0
G93 G1 Y185.504 V123.609 F20000 M63 P0
G93 G1 Y185.6 V123.56 F20000 M62 P0
G93 G1 Y185.696 V123.51 F20000 M63 P0
G93 G1 Y185.792 V123.461 F20000 M62 P0
G93 G1 Y185.888 V123.412 F20000 M63 P0
G93 G1 Y185.984 V123.363 F20000 M62 P0
G93 G1 Y186.08 V123.314 F20000 M63 P0
G93 G1 Y186.176 V123.265 F20000 M62 P0
G93 G1 Y186.272 V123.216 F20000 M63 P0
G93 G1 Y186.368 V123.167 F20000 M62 P0
G93 G1 Y186.464 V123.118 F20000 M63 P0
G93 G1 Y186.56 V123.069 F20000 M62 P0
G93 G1 Y186.656 V123.02 F20000 M63 P0
G93 G1 Y186.752 V122.972 F20000 M62 P0
G93 G1 Y186.848 V122.923 F20000 M63 P0
G93 G1 Y186.944 V122.874 F20000 M62 P0
G93 G1 Y187.04 V122.826 F20000 M63 P0
G93 G1 Y187.136 V122.777 F20000 M62 P0
G93 G1 Y187.232 V122.729 F20000 M63 P0
G93 G1 Y187.328 V122.68 F20000 M62 P0
G93 G1 Y187.424 V122.632 F20000 M63 P0
G93 G1 Y187.52 V122.583 F20000 M62 P0
G93 G1 Y187.616 V122.535 F20000 M63 P0
G93 G1 Y187.712 V122.487 F20000 M62 P0
G93 G1 Y187.808 V122.439 F20000 M63 P0
G93 G1 Y187.904 V122.39 F20000 M62 P0
G93 G1 Y188.0 V122.342 F20000 M63 P0
G93 G1 Y188.096 V122.294 F20000 M62 P0
G93 G1 Y188.192 V122.246 F20000 M63 P0
G93 G1 Y188.288 V122.198 F20000 M62 P0
G93 G1 Y188.384 V122.15 F20000 M63 P0
G93 G1 Y188.48 V122.102 F20000 M62 P0
G93 G1 Y188.576 V122.054 F20000 M63 P0
G93 G1 Y188.672 V122.006 F20000 M62 P0
G93 G1 Y188.768 V121.959 F20000 M63 P0
G93 G1 Y188.864 V121.911 F20000 M62 P0
G93 G1 Y188.96 V121.863 F20000 M63 P0
G93 G1 Y189.056 V121.815 F20000 M62 P0
G93 G1 Y189.152 V121.768 F20000 M63 P0
G93 G1 Y189.248 V121.72 F20000 M62 P0
G93 G1 Y189.344 V121.673 F20000 M63 P0
G93 G1 Y189.44 V121.625 F20000 M62 P0
G93 G1 Y189.536 V121.578 F20000 M63 P0
G93 G1 Y189.632 V121.53 F20000 M62 P0
G93 G1 Y189.728 V121.483 F20000 M63 P0
G93 G1 Y189.824 V121.436 F20000 M62 P0
G93 G1 Y189.92 V121.388 F20000 M63 P0
G93 G1 Y190.016 V121.341 F20000 M62 P0
G93 G1 Y190.112 V121.294 F20000 M63 P0
G93 G1 Y190.208 V121.247 F20000 M62 P0
G93 G1 Y190.304 V121.2 F20000 M63 P0
G93 G1 Y190.4 V121.152 F20000 M62 P0
G93 G1 Y190.496 V121.105 F20000 M63 P0
G93 G1 Y190.592 V121.059 F20000 M62 P0
G93 G1 Y190.688 V121.012 F20000 M63 P0
G93 G1 Y190.784 V120.965 F20000 M62 P0
G93 G1 Y190.88 V120.918 F20000 M63 P0
G93 G1 Y190.976 V120.871 F20000 M62 P0
G93 G1 Y191.072 V120.824 F20000 M63 P0
G93 G1 Y191.168 V120.778 F20000 M62 P0
G93 G1 Y191.264 V120.731 F20000 M63 P0
G93 G1 Y191.36 V120.684 F20000 M62 P0
G93 G1 Y191.456 V120.638 F20000 M63 P0
G93 G1 Y191.552 V120.591 F20000 M62 P0
G93 G1 Y191.648 V120.545 F20000 M63 P0
G93 G1 Y191.744 V120.498 F20000 M62 P0
G93 G1 Y191.84 V120.452 F20000 M63 P0
G93 G1 Y191.936 V120.405 F20000 M62 P0
G93 G1 Y192.032 V120.359 F20000 M63 P0
G93 G1 Y192.128 V120.313 F20000 M62 P0
G93 G1 Y192.224 V120.267 F20000 M63 P0
G93 G1 Y192.32 V120.22 F20000 M62 P0
G93 G1 Y192.416 V120.174 F20000 M63 P0
G93 G1 Y192.512 V120.128 F20000 M62 P0
G93 G1 Y192.608 V120.082 F20000 M63 P0
G93 G1 Y192.704 V120.036 F20000 M62 P0
G93 G1 Y192.8 V119.99 F20000 M63 P0
G93 G1 Y192.896 V119.944 F20000 M62 P0
G93 G1 Y192.992 V119.898 F20000 M63 P0
G93 G1 Y193.088 V119.852 F20000 M62 P0
G93 G1 Y193.184 V119.806 F20000 M63 P0
G93 G1 Y193.28 V119.761 F20000 M62 P0
G93 G1 Y193.376 V119.715 F20000 M63 P0
G93 G1 Y193.472 V119.669 F20000 M62 P0
G93 G1 Y193.568 V119.624 F20000 M63 P0
G93 G1 Y193.664 V119.578 F20000 M62 P0
G93 G1 Y193.76 V119.532 F20000 M63 P0
G93 G1 Y193.856 V119.487 F20000 M62 P0
G93 G1 Y193.952 V119.441 F20000 M63 P0
G93 G1 Y194.048 V119.396 F20000 M62 P0
G93 G1 Y194.144 V119.351 F20000 M63 P0
G93 G1 Y194.24 V119.305 F20000 M62 P0
G93 G1 Y194.336 V119.26 F20000 M63 P0
G93 G1 Y194.432 V119.215 F20000 M62 P0
G93 G1 Y194.528 V119.169 F20000 M63 P0
G93 G1 Y194.624 V119.124 F20000 M62 P0
G93 G1 Y194.72 V119.079 F20000 M63 P0
G93 G1 Y194.816 V119.034 F20000 M62 P0
G93 G1 Y194.912 V118.989 F20000 M63 P0
G93 G1 Y195.008 V118.944 F20000 M62 P0
G93 G1 Y195.104 V118.899 F20000 M63 P0
G93 G1 Y195.2 V118.854 F20000 M62 P0
G93 G1 Y195.296 V118.809 F20000 M63 P0
G93 G1 Y195.392 V118.764 F20000 M62 P0
G93 G1 Y195.488 V118.72 F20000 M63 P0
G93 G1 Y195.584 V118.675 F20000 M62 P0
G93 G1 Y195.68 V118.63 F20000 M63 P0
G93 G1 Y195.776 V118.585 F20000 M62 P0
G93 G1 Y195.872 V118.541 F20000 M63 P0
G93 G1 Y195.968 V118.496 F20000 M62 P0
G93 G1 Y196.064 V118.452 F20000 M63 P0
G93 G1 Y196.16 V118.407 F20000 M62 P0
G93 G1 Y196.256 V118.363 F20000 M63 P0
G93 G1 Y196.352 V118.318 F20000 M62 P0
G93 G1 Y196.448 V118.274 F20000 M63 P0
G93 G1 Y196.544 V118.229 F20000 M62 P0
G93 G1 Y196.64 V118.185 F20000 M63 P0
G93 G1 Y196.736 V118.141 F20000 M62 P0
G93 G1 Y196.832 V118.097 F20000 M63 P0
G93 G1 Y196.928 V118.052 F20000 M62 P0
G93 G1 Y197.024 V118.008 F20000 M63 P0
G93 G1 Y197.12 V117.964 F20000 M62 P0
G93 G1 Y197.216 V117.92 F20000 M63 P0
G93 G1 Y197.312 V117.876 F20000 M62 P0
G93 G1 Y197.408 V117.832 F20000 M63 P0
G93 G1 Y197.504 V117.788 F20000 M62 P0
G93 G1 Y197.6 V117.744 F20000 M63 P0
G93 G1 Y197.696 V117.7 F20000 M62 P0
G93 G1 Y197.792 V117.657 F20000 M63 P0
G93 G1 Y197.888 V117.613 F20000 M62 P0
G93 G1 Y197.984 V117.569 F20000 M63 P0
G93 G1 Y198.08 V117.525 F20000 M62 P0
G93 G1 Y198.176 V117.482 F20000 M63 P0
G93 G1 Y198.272 V117.438 F20000 M62 P0
G93 G1 Y198.368 V117.394 F20000 M63 P0
G93 G1 Y198.464 V117.351 F20000 M62 P0
G93 G1 Y198.56 V117.307 F20000 M63 P0
G93 G1 Y198.656 V117.264 F20000 M62 P0
G93 G1 Y198.752 V117.221 F20000 M63 P0
G93 G1 Y198.848 V117.177 F20000 M62 P0
G93 G1 Y198.944 V117.134 F20000 M63 P0
G93 G1 Y199.04 V117.091 F20000 M62 P0
G93 G1 Y199.136 V117.047 F20000 M63 P0
G93 G1 Y199.232 V117.004 F20000 M62 P0
G93 G1 Y199.328 V116.961 F20000 M63 P0
G93 G1 Y199.424 V116.918 F20000 M62 P0
G93 G1 Y199.52 V116.875 F20000 M63 P0
G93 G1 Y199.616 V116.832 F20000 M62 P0
G93 G1 Y199.712 V116.789 F20000 M63 P0
G93 G1 Y199.808 V116.746 F20000 M62 P0
G93 G1 Y199.904 V116.703 F20000 M63 P0
G93 G1 Y200.0 V116.66 F20000 M62 P0
G93 G1 Y200.096 V116.617 F20000 M63 P0
G93 G1 Y200.192 V116.574 F20000 M62 P0
G93 G1 Y200.288 V116.532 F20000 M63 P0
G93 G1 Y200.384 V116.489 F20000 M62 P0
G93 G1 Y200.48 V116.446 F20000 M63 P0
G93 G1 Y200.576 V116.403 F20000 M62 P0
G93 G1 Y200.672 V116.361 F20000 M63 P0
G93 G1 Y200.768 V116.318 F20000 M62 P0
G93 G1 Y200.864 V116.276 F20000 M63 P0
G93 G1 Y200.96 V116.233 F20000 M62 P0
G93 G1 Y201.056 V116.191 F20000 M63 P0
G93 G1 Y201.152 V116.148 F20000 M62 P0
G93 G1 Y201.248 V116.106 F20000 M63 P0
G93 G1 Y201.344 V116.064 F20000 M62 P0
G93 G1 Y201.44 V116.021 F20000 M63 P0
G93 G1 Y201.536 V115.979 F20000 M62 P0
G93 G1 Y201.632 V115.937 F20000 M63 P0
G93 G1 Y201.728 V115.895 F20000 M62 P0
G93 G1 Y201.824 V115.853 F20000 M63 P0
G93 G1 Y201.92 V115.811 F20000 M62 P0
G93 G1 Y202.016 V115.769 F20000 M63 P0
G93 G1 Y202.112 V115.727 F20000 M62 P0
G93 G1 Y202.208 V115.685 F20000 M63 P0
G93 G1 Y202.304 V115.643 F20000 M62 P0
G93 G1 Y202.4 V115.601 F20000 M63 P0
G93 G1 Y202.496 V115.559 F20000 M62 P0
G93 G1 Y202.592 V115.517 F20000 M63 P0
G93 G1 Y202.688 V115.475 F20000 M62 P0
G93 G1 Y202.784 V115.434 F20000 M63 P0
G93 G1 Y202.88 V115.392 F20000 M62 P0
G93 G1 Y202.976 V115.35 F20000 M63 P0
G93 G1 Y203.072 V115.309 F20000 M62 P0
G93 G1 Y203.168 V115.267 F20000 M63 P0
G93 G1 Y203.264 V115.225 F20000 M62 P0
G93 G1 Y203.36 V115.184 F20000 M63 P0
G93 G1 Y203.456 V115.142 F20000 M62 P0
G93 G1 Y203.552 V115.101 F20000 M63 P0
G93 G1 Y203.648 V115.06 F20000 M62 P0
G93 G1 Y203.744 V115.018 F20000 M63 P0
G93 G1 Y203.84 V114.977 F20000 M62 P0
G93 G1 Y203.936 V114.936 F20000 M63 P0
G93 G1 Y204.032 V114.894 F20000 M62 P0
G93 G1 Y204.128 V114.853 F20000 M63 P0
G93 G1 Y204.224 V114.812 F20000 M62 P0
G93 G1 Y204.32 V114.771 F20000 M63 P0
G93 G1 Y204.416 V114.73 F20000 M62 P0
G93 G1 Y204.512 V114.689 F20000 M63 P0
G93 G1 Y204.608 V114.648 F20000 M62 P0
G93 G1 Y204.704 V114.607 F20000 M63 P0
G93 G1 Y204.8 V114.566 F20000 M62 P0
G93 G1 Y204.896 V114.525 F20000 M63 P0
G93 G1 Y204.992 V114.484 F20000 M62 P0
G93 G1 Y205.088 V114.443 F20000 M63 P0
G93 G1 Y205.184 V114.403 F20000 M62 P0
G93 G1 Y205.28 V114.362 F20000 M63 P0
G93 G1 Y205.376 V114.321 F20000 M62 P0
G93 G1 Y205.472 V114.281 F20000 M63 P0
G93 G1 Y205.568 V114.24 F20000 M62 P0
G93 G1 Y205.664 V114.199 F20000 M63 P0
G93 G1 Y205.76 V114.159 F20000 M62 P0
G93 G1 Y205.856 V114.118 F20000 M63 P0
G93 G1 Y205.952 V114.078 F20000 M62 P0
G93 G1 Y206.048 V114.037 F20000 M63 P0
G93 G1 Y206.144 V113.997 F20000 M62 P0
G93 G1 Y206.24 V113.957 F20000 M63 P0
G93 G1 Y206.336 V113.916 F20000 M62 P0
G93 G1 Y206.432 V113.876 F20000 M63 P0
G93 G1 Y206.528 V113.836 F20000 M62 P0
G93 G1 Y206.624 V113.796 F20000 M63 P0
G93 G1 Y206.72 V113.756 F20000 M62 P0
G93 G1 Y206.816 V113.715 F20000 M63 P0
G93 G1 Y206.912 V113.675 F20000 M62 P0
G93 G1 Y207.008 V113.635 F20000 M63 P0
G93 G1 Y207.104 V113.595 F20000 M62 P0
G93 G1 Y207.2 V113.555 F20000 M63 P0
G93 G1 Y207.296 V113.515 F20000 M62 P0
G93 G1 Y207.392 V113.475 F20000 M63 P0
G93 G1 Y207.488 V113.436 F20000 M62 P0
G93 G1 Y207.584 V113.396 F20000 M63 P0
G93 G1 Y207.68 V113.356 F20000 M62 P0
G93 G1 Y207.776 V113.316 F20000 M63 P0
G93 G1 Y207.872 V113.277 F20000 M62 P0
G93 G1 Y207.968 V113.237 F20000 M63 P0
G93 G1 Y208.064 V113.197 F20000 M62 P0
G93 G1 Y208.16 V113.158 F20000 M63 P0
G93 G1 Y208.256 V113.118 F20000 M62 P0
G93 G1 Y208.352 V113.079 F20000 M63 P0
G93 G1 Y208.448 V113.039 F20000 M62 P0
G93 G1 Y208.544 V113.0 F20000 M63 P0
G93 G1 Y208.64 V112.96 F20000 M62 P0
G93 G1 Y208.736 V112.921 F20000 M63 P0
G93 G1 Y208.832 V112.882 F20000 M62 P0
G93 G1 Y208.928 V112.842 F20000 M63 P0
G93 G1 Y209.024 V112.803 F20000 M62 P0
G93 G1 Y209.12 V112.764 F20000 M63 P0
G93 G1 Y209.216 V112.725 F20000 M62 P0
G93 G1 Y209.312 V112.685 F20000 M63 P0
G93 G1 Y209.408 V112.646 F20000 M62 P0
G93 G1 Y209.504 V112.607 F20000 M63 P0
G93 G1 Y209.6 V112.568 F20000 M62 P0
G93 G1 Y209.696 V112.529 F20000 M63 P0
G93 G1 Y209.792 V112.49 F20000 M62 P0
G93 G1 Y209.888 V112.451 F20000 M63 P0
G93 G1 Y209.984 V112.412 F20000 M62 P0
G93 G1 Y210.08 V112.374 F20000 M63 P0
G93 G1 Y210.176 V112.335 F20000 M62 P0
G93 G1 Y210.272 V112.296 F20000 M63 P0
G93 G1 Y210.368 V112.257 F20000 M62 P0
G93 G1 Y210.464 V112.218 F20000 M63 P0
G93 G1 Y210.56 V112.18 F20000 M62 P0
G93 G1 Y210.656 V112.141 F20000 M63 P0
G93 G1 Y210.752 V112.103 F20000 M62 P0
G93 G1 Y210.848 V112.064 F20000 M63 P0
G93 G1 Y210.944 V112.025 F20000 M62 P0
G93 G1 Y211.04 V111.987 F20000 M63 P0
G93 G1 Y211.136 V111.949 F20000 M62 P0
G93 G1 Y211.232 V111.91 F20000 M63 P0
G93 G1 Y211.328 V111.872 F20000 M62 P0
G93 G1 Y211.424 V111.833 F20000 M63 P0
G93 G1 Y211.52 V111.795 F20000 M62 P0
G93 G1 Y211.616 V111.757 F20000 M63 P0
G93 G1 Y211.712 V111.719 F20000 M62 P0
G93 G1 Y211.808 V111.68 F20000 M63 P0
G93 G1 Y211.904 V111.642 F20000 M62 P0
G93 G1 Y212.0 V111.604 F20000 M63 P0
G93 G1 Y212.096 V111.566 F20000 M62 P0
G93 G1 Y212.192 V111.528 F20000 M63 P0
G93 G1 Y212.288 V111.49 F20000 M62 P0
G93 G1 Y212.384 V111.452 F20000 M63 P0
G93 G1 Y212.48 V111.414 F20000 M62 P0
G93 G1 Y212.576 V111.376 F20000 M63 P0
G93 G1 Y212.672 V111.338 F20000 M62 P0
G93 G1 Y212.768 V111.3 F20000 M63 P0
G93 G1 Y212.864 V111.263 F20000 M62 P0
G93 G1 Y212.96 V111.225 F20000 M63 P0
G93 G1 Y213.056 V111.187 F20000 M62 P0
G93 G1 Y213.152 V111.149 F20000 M63 P0
G93 G1 Y213.248 V111.112 F20000 M62 P0
G93 G1 Y213.344 V111.074 F20000 M63 P0
G93 G1 Y213.44 V111.036 F20000 M62 P0
G93 G1 Y213.536 V110.999 F20000 M63 P0
G93 G1 Y213.632 V110.961 F20000 M62 P0
G93 G1 Y213.728 V110.924 F20000 M63 P0
G93 G1 Y213.824 V110.886 F20000 M62 P0
G93 G1 Y213.92 V110.849 F20000 M63 P0
G93 G1 Y214.016 V110.812 F20000 M62 P0
G93 G1 Y214.112 V110.774 F20000 M63 P0
G93 G1 Y214.208 V110.737 F20000 M62 P0
G93 G1 Y214.304 V110.7 F20000 M63 P0
G93 G1 Y214.4 V110.662 F20000 M62 P0
G93 G1 Y214.496 V110.625 F20000 M63 P0
G93 G1 Y214.592 V110.588 F20000 M62 P0
G93 G1 Y214.688 V110.551 F20000 M63 P0
G93 G1 Y214.784 V110.514 F20000 M62 P0
G93 G1 Y214.88 V110.477 F20000 M63 P0
G93 G1 Y214.976 V110.44 F20000 M62 P0
G93 G1 Y215.072 V110.403 F20000 M63 P0
G93 G1 Y215.168 V110.366 F20000 M62 P0
G93 G1 Y215.264 V110.329 F20000 M63 P0
G93 G1 Y215.36 V110.292 F20000 M62 P0
G93 G1 Y215.456 V110.255 F20000 M63 P0
G93 G1 Y215.552 V110.218 F20000 M62 P0
G93 G1 Y215.648 V110.182 F20000 M63 P0
G93 G1 Y215.744 V110.145 F20000 M62 P0
G93 G1 Y215.84 V110.108 F20000 M63 P0
G93 G1 Y215.936 V110.072 F20000 M62 P0
G93 G1 Y216.032 V110.035 F20000 M63 P0
G93 G1 Y216.128 V109.998 F20000 M62 P0
G93 G1 Y216.224 V109.962 F20000 M63 P0
G93 G1 Y216.32 V109.925 F20000 M62 P0
G93 G1 Y216.416 V109.889 F20000 M63 P0
G93 G1 Y216.512 V109.852 F20000 M62 P0
G93 G1 Y216.608 V109.816 F20000 M63 P0
G93 G1 Y216.704 V109.779 F20000 M62 P0
G93 G1 Y216.8 V109.743 F20000 M63 P0
G93 G1 Y216.896 V109.707 F20000 M62 P0
G93 G1 Y216.992 V109.67 F20000 M63 P0
G93 G1 Y217.088 V109.634 F20000 M62 P0
G93 G1 Y217.184 V109.598 F20000 M63 P0
G93 G1 Y217.28 V109.562 F20000 M62 P0
G93 G1 Y217.376 V109.526 F20000 M63 P0
G93 G1 Y217.472 V109.489 F20000 M62 P0
G93 G1 Y217.568 V109.453 F20000 M63 P0
G93 G1 Y217.664 V109.417 F20000 M62 P0
G93 G1 Y217.76 V109.381 F20000 M63 P0
G93 G1 Y217.856 V109.345 F20000 M62 P0
G93 G1 Y217.952 V109.309 F20000 M63 P0
G93 G1 Y218.048 V109.273 F20000 M62 P0
G93 G1 Y218.144 V109.238 F20000 M63 P0
G93 G1 Y218.24 V109.202 F20000 M62 P0
G93 G1 Y218.336 V109.166 F20000 M63 P0
G93 G1 Y218.432 V109.13 F20000 M62 P0
G93 G1 Y218.528 V109.094 F20000 M63 P0
G93 G1 Y218.624 V109.059 F20000 M62 P0
G93 G1 Y218.72 V109.023 F20000 M63 P0
G93 G1 Y218.816 V108.987 F20000 M62 P0
G93 G1 Y218.912 V108.952 F20000 M63 P0
G93 G1 Y219.008 V108.916 F20000 M62 P0
G93 G1 Y219.104 V108.881 F20000 M63 P0
G93 G1 Y219.2 V108.845 F20000 M62 P0
G93 G1 Y219.296 V108.81 F20000 M63 P0
G93 G1 Y219.392 V108.774 F20000 M62 P0
G93 G1 Y219.488 V108.739 F20000 M63 P0
G93 G1 Y219.584 V108.703 F20000 M62 P0
G93 G1 Y219.68 V108.668 F20000 M63 P0
G93 G1 Y219.776 V108.633 F20000 M62 P0
G93 G1 Y219.872 V108.598 F20000 M63 P0
G93 G1 Y219.968 V108.562 F20000 M62 P0
G93 G1 Y220.064 V108.527 F20000 M63 P0
G93 G1 Y220.16 V108.492 F20000 M62 P0
G93 G1 Y220.256 V108.457 F20000 M63 P0
G93 G1 Y220.352 V108.422 F20000 M62 P0
G93 G1 Y220.448 V108.387 F20000 M63 P0
G93 G1 Y220.544 V108.352 F20000 M62 P0
G93 G1 Y220.64 V108.317 F20000 M63 P0
G93 G1 Y220.736 V108.282 F20000 M62 P0
G93 G1 Y220.832 V108.247 F20000 M63 P0
G93 G1 Y220.928 V108.212 F20000 M62 P0
G93 G1 Y221.024 V108.177 F20000 M63 P0
G93 G1 Y221.12 V108.142 F20000 M62 P0
G93 G1 Y221.216 V108.107 F20000 M63 P0
G93 G1 Y221.312 V108.073 F20000 M62 P0
G93 G1 Y221.408 V108.038 F20000 M63 P0
G93 G1 Y221.504 V108.003 F20000 M62 P0
G93 G1 Y221.6 V107.968 F20000 M63 P0
G93 G1 Y221.696 V107.934 F20000 M62 P0
G93 G1 Y221.792 V107.899 F20000 M63 P0
G93 G1 Y221.888 V107.865 F20000 M62 P0
G93 G1 Y221.984 V107.83 F20000 M63 P0
G93 G1 Y222.08 V107.796 F20000 M62 P0
G93 G1 Y222.176 V107.761 F20000 M63 P0
G93 G1 Y222.272 V107.727 F20000 M62 P0
G93 G1 Y222.368 V107.692 F20000 M63 P0
G93 G1 Y222.464 V107.658 F20000 M62 P0
G93 G1 Y222.56 V107.624 F20000 M63 P0
G93 G1 Y222.656 V107.589 F20000 M62 P0
G93 G1 Y222.752 V107.555 F20000 M63 P0
G93 G1 Y222.848 V107.521 F20000 M62 P0
G93 G1 Y222.944 V107.487 F20000 M63 P0
G93 G1 Y223.04 V107.452 F20000 M62 P0
G93 G1 Y223.136 V107.418 F20000 M63 P0
G93 G1 Y223.232 V107.384 F20000 M62 P0
G93 G1 Y223.328 V107.35 F20000 M63 P0
G93 G1 Y223.424 V107.316 F20000 M62 P0
G93 G1 Y223.52 V107.282 F20000 M63 P0
G93 G1 Y223.616 V107.248 F20000 M62 P0
G93 G1 Y223.712 V107.214 F20000 M63 P0
G93 G1 Y223.808 V107.18 F20000 M62 P0
G93 G1 Y223.904 V107.146 F20000 M63 P0
G93 G1 Y224.0 V107.113 F20000 M62 P0
G93 G1 Y224.096 V107.079 F20000 M63 P0
G93 G1 Y224.192 V107.045 F20000 M62 P0
G93 G1 Y224.288 V107.011 F20000 M63 P0
G93 G1 Y224.384 V106.977 F20000 M62 P0
G93 G1 Y224.48 V106.944 F20000 M63 P0
G93 G1 Y224.576 V106.91 F20000 M62 P0
G93 G1 Y224.672 V106.876 F20000 M63 P0
G93 G1 Y224.768 V106.843 F20000 M62 P0
G93 G1 Y224.864 V106.809 F20000 M63 P0
G93 G1 Y224.96 V106.776 F20000 M62 P0
G93 G1 Y225.056 V106.742 F20000 M63 P0
G93 G1 Y225.152 V106.709 F20000 M62 P0
G93 G1 Y225.248 V106.675 F20000 M63 P0
G93 G1 Y225.344 V106.642 F20000 M62 P0
G93 G1 Y225.44 V106.609 F20000 M63 P0
G93 G1 Y225.536 V106.575 F20000 M62 P0
G93 G1 Y225.632 V106.542 F20000 M63 P0
G93 G1 Y225.728 V106.509 F20000 M62 P0
G93 G1 Y225.824 V106.476 F20000 M63 P0
G93 G1 Y225.92 V106.442 F20000 M62 P0
G93 G1 Y226.016 V106.409 F20000 M63 P0
G93 G1 Y226.112 V106.376 F20000 M62 P0
G93 G1 Y226.208 V106.343 F20000 M63 P0
G93 G1 Y226.304 V106.31 F20000 M62 P0
G93 G1 Y226.4 V106.277 F20000 M63 P0
G93 G1 Y226.496 V106.244 F20000 M62 P0
G93 G1 Y226.592 V106.211 F20000 M63 P0
G93 G1 Y226.688 V106.178 F20000 M62 P0
G93 G1 Y226.784 V106.145 F20000 M63 P0
G93 G1 Y226.88 V106.112 F20000 M62 P0
G93 G1 Y226.976 V106.079 F20000 M63 P0
G93 G1 Y227.072 V106.046 F20000 M62 P0
G93 G1 Y227.168 V106.014 F20000 M63 P0
G93 G1 Y227.264 V105.981 F20000 M62 P0
G93 G1 Y227.36 V105.948 F20000 M63 P0
G93 G1 Y227.456 V105.915 F20000 M62 P0
G93 G1 Y227.552 V105.883 F20000 M63 P0
G93 G1 Y227.648 V105.85 F20000 M62 P0
G93 G1 Y227.744 V105.818 F20000 M63 P0
G93 G1 Y227.84 V105.785 F20000 M62 P0
G93 G1 Y227.936 V105.752 F20000 M63 P0
G93 G1 Y228.032 V105.72 F20000 M62 P0
G93 G1 Y228.128 V105.687 F20000 M63 P0
G93 G1 Y228.224 V105.655 F20000 M62 P0
G93 G1 Y228.32 V105.623 F20000 M63 P0
G93 G1 Y228.416 V105.59 F20000 M62 P0
G93 G1 Y228.512 V105.558 F20000 M63 P0
G93 G1 Y228.608 V105.525 F20000 M62 P0
G93 G1 Y228.704 V105.493 F20000 M63 P0
G93 G1 Y228.8 V105.461 F20000 M62 P0
G93 G1 Y228.896 V105.429 F20000 M63 P0
G93 G1 Y228.992 V105.397 F20000 M62 P0
G93 G1 Y229.088 V105.364 F20000 M63 P0
G93 G1 Y229.184 V105.332 F20000 M62 P0
G93 G1 Y229.28 V105.3 F20000 M63 P0
G93 G1 Y229.376 V105.268 F20000 M62 P0
G93 G1 Y229.472 V105.236 F20000 M63 P0
G93 G1 Y229.568 V105.204 F20000 M62 P0
G93 G1 Y229.664 V105.172 F20000 M63 P0
G93 G1 Y229.76 V105.14 F20000 M62 P0
G93 G1 Y229.856 V105.108 F20000 M63 P0
G93 G1 Y229.952 V105.076 F20000 M62 P0
G93 G1 Y230.048 V105.044 F20000 M63 P0
G93 G1 Y230.144 V105.013 F20000 M62 P0
G93 G1 Y230.24 V104.981 F20000 M63 P0
G93 G1 Y230.336 V104.949 F20000 M62 P0
G93 G1 Y230.432 V104.917 F20000 M63 P0
G93 G1 Y230.528 V104.886 F20000 M62 P0
G93 G1 Y230.624 V104.854 F20000 M63 P0
G93 G1 Y230.72 V104.822 F20000 M62 P0
G93 G1 Y230.816 V104.791 F20000 M63 P0
G93 G1 Y230.912 V104.759 F20000 M62 P0
G93 G1 Y231.008 V104.727 F20000 M63 P0
G93 G1 Y231.104 V104.696 F20000 M62 P0
G93 G1 Y231.2 V104.664 F20000 M63 P0
G93 G1 Y231.296 V104.633 F20000 M62 P0
G93 G1 Y231.392 V104.602 F20000 M63 P0
G93 G1 Y231.488 V104.57 F20000 M62 P0
G93 G1 Y231.584 V104.539 F20000 M63 P0
G93 G1 Y231.68 V104.507 F20000 M62 P0
G93 G1 Y231.776 V104.476 F20000 M63 P0
G93 G1 Y231.872 V104.445 F20000 M62 P0
G93 G1 Y231.968 V104.414 F20000 M63 P0
G93 G1 Y232.064 V104.382 F20000 M62 P0
G93 G1 Y232.16 V104.351 F20000 M63 P0
G93 G1 Y232.256 V104.32 F20000 M62 P0
G93 G1 Y232.352 V104.289 F20000 M63 P0
G93 G1 Y232.448 V104.258 F20000 M62 P0
G93 G1 Y232.544 V104.227 F20000 M63 P0
G93 G1 Y232.64 V104.196 F20000 M62 P0
G93 G1 Y232.736 V104.165 F20000 M63 P0
G93 G1 Y232.832 V104.134 F20000 M62 P0
G93 G1 Y232.928 V104.103 F20000 M63 P0
G93 G1 Y233.024 V104.072 F20000 M62 P0
G93 G1 Y233.12 V104.041 F20000 M63 P0
G93 G1 Y233.216 V104.01 F20000 M62 P0
G93 G1 Y233.312 V103.979 F20000 M63 P0
G93 G1 Y233.408 V103.948 F20000 M62 P0
G93 G1 Y233.504 V103.918 F20000 M63 P0
G93 G1 Y233.6 V103.887 F20000 M62 P0
G93 G1 Y233.696 V103.856 F20000 M63 P0
G93 G1 Y233.792 V103.826 F20000 M62 P0
G93 G1 Y233.888 V103.795 F20000 M63 P0
G93 G1 Y233.984 V103.764 F20000 M62 P0
G93 G1 Y234.08 V103.734 F20000 M63 P0
G93 G1 Y234.176 V103.703 F20000 M62 P0
G93 G1 Y234.272 V103.673 F20000 M63 P0
G93 G1 Y234.368 V103.642 F20000 M62 P0
G93 G1 Y234.464 V103.612 F20000 M63 P0
G93 G1 Y234.56 V103.581 F20000 M62 P0
G93 G1 Y234.656 V103.551 F20000 M63 P0
G93 G1 Y234.752 V103.52 F20000 M62 P0
G93 G1 Y234.848 V103.49 F20000 M63 P0
G93 G1 Y234.944 V103.46 F20000 M62 P0
G93 G1 Y235.04 V103.429 F20000 M63 P0
G93 G1 Y235.136 V103.399 F20000 M62 P0
G93 G1 Y235.232 V103.369 F20000 M63 P0
G93 G1 Y235.328 V103.339 F20000 M62 P0
G93 G1 Y235.424 V103.309 F20000 M63 P0
G93 G1 Y235.52 V103.278 F20000 M62 P0
G93 G1 Y235.616 V103.248 F20000 M63 P0
G93 G1 Y235.712 V103.218 F20000 M62 P0
G93 G1 Y235.808 V103.188 F20000 M63 P0
G93 G1 Y235.904 V103.158 F20000 M62 P0
G93 G1 Y236.0 V103.128 F20000 M63 P0
G93 G1 Y236.096 V103.098 F20000 M62 P0
G93 G1 Y236.192 V103.068 F20000 M63 P0
G93 G1 Y236.288 V103.038 F20000 M62 P0
G93 G1 Y236.384 V103.008 F20000 M63 P0
G93 G1 Y236.48 V102.978 F20000 M62 P0
G93 G1 Y236.576 V102.949 F20000 M63 P0
G93 G1 Y236.672 V102.919 F20000 M62 P0
G93 G1 Y236.768 V102.889 F20000 M63 P0
G93 G1 Y236.864 V102.859 F20000 M62 P0
G93 G1 Y236.96 V102.83 F20000 M63 P0
G93 G1 Y237.056 V102.8 F20000 M62 P0
G93 G1 Y237.152 V102.77 F20000 M63 P0
G93 G1 Y237.248 V102.741 F20000 M62 P0
G93 G1 Y237.344 V102.711 F20000 M63 P0
G93 G1 Y237.44 V102.681 F20000 M62 P0
G93 G1 Y237.536 V102.652 F20000 M63 P0
G93 G1 Y237.632 V102.622 F20000 M62 P0
G93 G1 Y237.728 V102.593 F20000 M63 P0
G93 G1 Y237.824 V102.563 F20000 M62 P0
G93 G1 Y237.92 V102.534 F20000 M63 P0
G93 G1 Y238.016 V102.505 F20000 M62 P0
G93 G1 Y238.112 V102.475 F20000 M63 P0
G93 G1 Y238.208 V102.446 F20000 M62 P0
G93 G1 Y238.304 V102.417 F20000 M63 P0
G93 G1 Y238.4 V102.387 F20000 M62 P0
G93 G1 Y238.496 V102.358 F20000 M63 P0
G93 G1 Y238.592 V102.329 F20000 M62 P0
G93 G1 Y238.688 V102.3 F20000 M63 P0
G93 G1 Y238.784 V102.27 F20000 M62 P0
G93 G1 Y238.88 V102.241 F20000 M63 P0
G93 G1 Y238.976 V102.212 F20000 M62 P0
G93 G1 Y239.072 V102.183 F20000 M63 P0
G93 G1 Y239.168 V102.154 F20000 M62 P0
G93 G1 Y239.264 V102.125 F20000 M63 P0
G93 G1 Y239.36 V102.096 F20000 M62 P0
G93 G1 Y239.456 V102.067 F20000 M63 P0
G93 G1 Y239.552 V102.038 F20000 M62 P0
G93 G1 Y239.648 V102.009 F20000 M63 P0
G93 G1 Y239.744 V101.98 F20000 M62 P0
G93 G1 Y239.84 V101.951 F20000 M63 P0
G93 G1 Y239.936 V101.922 F20000 M62 P0
G93 G1 Y240.032 V101.894 F20000 M63 P0
G93 G1 Y240.128 V101.865 F20000 M62 P0
G93 G1 Y240.224 V101.836 F20000 M63 P0
G93 G1 Y240.32 V101.807 F20000 M62 P0
G93 G1 Y240.416 V101.779 F20000 M63 P0
G93 G1 Y240.512 V101.75 F20000 M62 P0
G93 G1 Y240.608 V101.721 F20000 M63 P0
G93 G1 Y240.704 V101.693 F20000 M62 P0
G93 G1 Y240.8 V101.664 F20000 M63 P0
G93 G1 Y240.896 V101.636 F20000 M62 P0
G93 G1 Y240.992 V101.607 F20000 M63 P0
G93 G1 Y241.088 V101.579 F20000 M62 P0
G93 G1 Y241.184 V101.55 F20000 M63 P0
G93 G1 Y241.28 V101.522 F20000 M62 P0
G93 G1 Y241.376 V101.493 F20000 M63 P0
G93 G1 Y241.472 V101.465 F20000 M62 P0
G93 G1 Y241.568 V101.437 F20000 M63 P0
G93 G1 Y241.664 V101.408 F20000 M62 P0
G93 G1 Y241.76 V101.38 F20000 M63 P0
G93 G1 Y241.856 V101.352 F20000 M62 P0
G93 G1 Y241.952 V101.323 F20000 M63 P0
G93 G1 Y242.048 V101.295 F20000 M62 P0
G93 G1 Y242.144 V101.267 F20000 M63 P0
G93 G1 Y242.24 V101.239 F20000 M62 P0
G93 G1 Y242.336 V101.211 F20000 M63 P0
G93 G1 Y242.432 V101.183 F20000 M62 P0
G93 G1 Y242.528 V101.154 F20000 M63 P0
G93 G1 Y242.624 V101.126 F20000 M62 P0
G93 G1 Y242.72 V101.098 F20000 M63 P0
G93 G1 Y242.816 V101.07 F20000 M62 P0
G93 G1 Y242.912 V101.042 F20000 M63 P0
G93 G1 Y243.008 V101.014 F20000 M62 P0
G93 G1 Y243.104 V100.986 F20000 M63 P0
G93 G1 Y243.2 V100.959 F20000 M62 P0
G93 G1 Y243.296 V100.931 F20000 M63 P0
G93 G1 Y243.392 V100.903 F20000 M62 P0
G93 G1 Y243.488 V100.875 F20000 M63 P0
G93 G1 Y243.584 V100.847 F20000 M62 P0
G93 G1 Y243.68 V100.819 F20000 M63 P0
G93 G1 Y243.776 V100.792 F20000 M62 P0
G93 G1 Y243.872 V100.764 F20000 M63 P0
G93 G1 Y243.968 V100.736 F20000 M62 P0
G93 G1 Y244.064 V100.709 F20000 M63 P0
G93 G1 Y244.16 V100.681 F20000 M62 P0
G93 G1 Y244.256 V100.653 F20000 M63 P0
G93 G1 Y244.352 V100.626 F20000 M62 P0
G93 G1 Y244.448 V100.598 F20000 M63 P0
G93 G1 Y244.544 V100.571 F20000 M62 P0
G93 G1 Y244.64 V100.543 F20000 M63 P0
G93 G1 Y244.736 V100.516 F20000 M62 P0
G93 G1 Y244.832 V100.488 F20000 M63 P0
G93 G1 Y244.928 V100.461 F20000 M62 P0
G93 G1 Y245.024 V100.434 F20000 M63 P0
G93 G1 Y245.12 V100.406 F20000 M62 P0
G93 G1 Y245.216 V100.379 F20000 M63 P0
G93 G1 Y245.312 V100.352 F20000 M62 P0
G93 G1 Y245.408 V100.324 F20000 M63 P0
G93 G1 Y245.504 V100.297 F20000 M62 P0
G93 G1 Y245.6 V100.27 F20000 M63 P0
G93 G1 Y245.696 V100.243 F20000 M62 P0
G93 G1 Y245.792 V100.215 F20000 M63 P0
G93 G1 Y245.888 V100.188 F20000 M62 P0
G93 G1 Y245.984 V100.161 F20000 M63 P0
G93 G1 Y246.08 V100.134 F20000 M62 P0
G93 G1 Y246.176 V100.107 F20000 M63 P0
G93 G1 Y246.272 V100.08 F20000 M62 P0
G93 G1 Y246.368 V100.053 F20000 M63 P0
G93 G1 Y246.464 V100.026 F20000 M62 P0
G93 G1 Y246.56 V99.999 F20000 M63 P0
G93 G1 Y246.656 V99.972 F20000 M62 P0
G93 G1 Y246.752 V99.945 F20000 M63 P0
G93 G1 Y246.848 V99.918 F20000 M62 P0
G93 G1 Y246.944 V99.891 F20000 M63 P0
G93 G1 Y247.04 V99.865 F20000 M62 P0
G93 G1 Y247.136 V99.838 F20000 M63 P0
G93 G1 Y247.232 V99.811 F20000 M62 P0
G93 G1 Y247.328 V99.784 F20000 M63 P0
G93 G1 Y247.424 V99.758 F20000 M62 P0
G93 G1 Y247.52 V99.731 F20000 M63 P0
G93 G1 Y247.616 V99.704 F20000 M62 P0
G93 G1 Y247.712 V99.678 F20000 M63 P0
G93 G1 Y247.808 V99.651 F20000 M62 P0
G93 G1 Y247.904 V99.624 F20000 M63 P0
G93 G1 Y248.0 V99.598 F20000 M62 P0
G93 G1 Y248.096 V99.571 F20000 M63 P0
G93 G1 Y248.192 V99.545 F20000 M62 P0
G93 G1 Y248.288 V99.518 F20000 M63 P0
G93 G1 Y248.384 V99.492 F20000 M62 P0
G93 G1 Y248.48 V99.465 F20000 M63 P0
G93 G1 Y248.576 V99.439 F20000 M62 P0
G93 G1 Y248.672 V99.412 F20000 M63 P0
G93 G1 Y248.768 V99.386 F20000 M62 P0
G93 G1 Y248.864 V99.36 F20000 M63 P0
G93 G1 Y248.96 V99.333 F20000 M62 P0
G93 G1 Y249.056 V99.307 F20000 M63 P0
G93 G1 Y249.152 V99.281 F20000 M62 P0
G93 G1 Y249.248 V99.255 F20000 M63 P0
G93 G1 Y249.344 V99.228 F20000 M62 P0
G93 G1 Y249.44 V99.202 F20000 M63 P0
G93 G1 Y249.536 V99.176 F20000 M62 P0
G93 G1 Y249.632 V99.15 F20000 M63 P0
G93 G1 Y249.728 V99.124 F20000 M62 P0
G93 G1 Y249.824 V99.098 F20000 M63 P0
G93 G1 Y249.92 V99.072 F20000 M62 P0
G93 G1 Y250.016 V99.046 F20000 M63 P0
G93 G1 Y250.112 V99.02 F20000 M62 P0
G93 G1 Y250.208 V98.994 F20000 M63 P0
G93 G1 Y250.304 V98.968 F20000 M62 P0
G93 G1 Y250.4 V98.942 F20000 M63 P0
G93 G1 Y250.496 V98.916 F20000 M62 P0
G93 G1 Y250.592 V98.89 F20000 M63 P0
G93 G1 Y250.688 V98.864 F20000 M62 P0
G93 G1 Y250.784 V98.838 F20000 M63 P0
G93 G1 Y250.88 V98.813 F20000 M62 P0
G93 G1 Y250.976 V98.787 F20000 M63 P0
G93 G1 Y251.072 V98.761 F20000 M62 P0
G93 G1 Y251.168 V98.735 F20000 M63 P0
G93 G1 Y251.264 V98.71 F20000 M62 P0
G93 G1 Y251.36 V98.684 F20000 M63 P0
G93 G1 Y251.456 V98.658 F20000 M62 P0
G93 G1 Y251.552 V98.633 F20000 M63 P0
G93 G1 Y251.648 V98.607 F20000 M62 P0
G93 G1 Y251.744 V98.581 F20000 M63 P0
G93 G1 Y251.84 V98.556 F20000 M62 P0
G93 G1 Y251.936 V98.53 F20000 M63 P0
G93 G1 Y252.032 V98.505 F20000 M62 P0
G93 G1 Y252.128 V98.479 F20000 M63 P0
G93 G1 Y252.224 V98.454 F20000 M62 P0
G93 G1 Y252.32 V98.429 F20000 M63 P0
G93 G1 Y252.416 V98.403 F20000 M62 P0
G93 G1 Y252.512 V98.378 F20000 M63 P0
G93 G1 Y252.608 V98.352 F20000 M62 P0
G93 G1 Y252.704 V98.327 F20000 M63 P0
G93 G1 Y252.8 V98.302 F20000 M62 P0
G93 G1 Y252.896 V98.276 F20000 M63 P0
G93 G1 Y252.992 V98.251 F20000 M62 P0
G93 G1 Y253.088 V98.226 F20000 M63 P0
G93 G1 Y253.184 V98.201 F20000 M62 P0
G93 G1 Y253.28 V98.176 F20000 M63 P0
G93 G1 Y253.376 V98.15 F20000 M62 P0
G93 G1 Y253.472 V98.125 F20000 M63 P0
G93 G1 Y253.568 V98.1 F20000 M62 P0
G93 G1 Y253.664 V98.075 F20000 M63 P0
G93 G1 Y253.76 V98.05 F20000 M62 P0
G93 G1 Y253.856 V98.025 F20000 M63 P0
G93 G1 Y253.952 V98.0 F20000 M62 P0
G93 G1 Y254.048 V97.975 F20000 M63 P0
G93 G1 Y254.144 V97.95 F20000 M62 P0
G93 G1 Y254.24 V97.925 F20000 M63 P0
G93 G1 Y254.336 V97.9 F20000 M62 P0
G93 G1 Y254.432 V97.875 F20000 M63 P0
G93 G1 Y254.528 V97.851 F20000 M62 P0
G93 G1 Y254.624 V97.826 F20000 M63 P0
G93 G1 Y254.72 V97.801 F20000 M62 P0
G93 G1 Y254.816 V97.776 F20000 M63 P0
G93 G1 Y254.912 V97.751 F20000 M62 P0
G93 G1 Y255.008 V97.727 F20000 M63 P0
G93 G1 Y255.104 V97.702 F20000 M62 P0
G93 G1 Y255.2 V97.677 F20000 M63 P0
G93 G1 Y255.296 V97.653 F20000 M62 P0
G93 G1 Y255.392 V97.628 F20000 M63 P0
G93 G1 Y255.488 V97.603 F20000 M62 P0
G93 G1 Y255.584 V97.579 F20000 M63 P0
G93 G1 Y255.68 V97.554 F20000 M62 P0
G93 G1 Y255.776 V97.53 F20000 M63 P0
G93 G1 Y255.872 V97.505 F20000 M62 P0
G93 G1 Y255.968 V97.481 F20000 M63 P0
G93 G1 Y256.064 V97.456 F20000 M62 P0
G93 G1 Y256.16 V97.432 F20000 M63 P0
G93 G1 Y256.256 V97.407 F20000 M62 P0
G93 G1 Y256.352 V97.383 F20000 M63 P0
G93 G1 Y256.448 V97.358 F20000 M62 P0
G93 G1 Y256.544 V97.334 F20000 M63 P0
G93 G1 Y256.64 V97.31 F20000 M62 P0
G93 G1 Y256.736 V97.285 F20000 M63 P0
G93 G1 Y256.832 V97.261 F20000 M62 P0
G93 G1 Y256.928 V97.237 F20000 M63 P0
G93 G1 Y257.024 V97.213 F20000 M62 P0
G93 G1 Y257.12 V97.188 F20000 M63 P0
G93 G1 Y257.216 V97.164 F20000 M62 P0
G93 G1 Y257.312 V97.14 F20000 M63 P0
G93 G1 Y257.408 V97.116 F20000 M62 P0
G93 G1 Y257.504 V97.092 F20000 M63 P0
G93 G1 Y257.6 V97.068 F20000 M62 P0
G93 G1 Y257.696 V97.044 F20000 M63 P0
G93 G1 Y257.792 V97.02 F20000 M62 P0
G93 G1 Y257.888 V96.996 F20000 M63 P0
G93 G1 Y257.984 V96.972 F20000 M62 P0
G93 G1 Y258.08 V96.948 F20000 M63 P0
G93 G1 Y258.176 V96.924 F20000 M62 P0
G93 G1 Y258.272 V96.9 F20000 M63 P0
G93 G1 Y258.368 V96.876 F20000 M62 P0
G93 G1 Y258.464 V96.852 F20000 M63 P0
G93 G1 Y258.56 V96.828 F20000 M62 P0
G93 G1 Y258.656 V96.804 F20000 M63 P0
G93 G1 Y258.752 V96.78 F20000 M62 P0
G93 G1 Y258.848 V96.757 F20000 M63 P0
G93 G1 Y258.944 V96.733 F20000 M62 P0
G93 G1 Y259.04 V96.709 F20000 M63 P0
G93 G1 Y259.136 V96.685 F20000 M62 P0
G93 G1 Y259.232 V96.662 F20000 M63 P0
G93 G1 Y259.328 V96.638 F20000 M62 P0
G93 G1 Y259.424 V96.614 F20000 M63 P0
G93 G1 Y259.52 V96.591 F20000 M62 P0
G93 G1 Y259.616 V96.567 F20000 M63 P0
G93 G1 Y259.712 V96.544 F20000 M62 P0
G93 G1 Y259.808 V96.52 F20000 M63 P0
G93 G1 Y259.904 V96.497 F20000 M62 P0
G93 G1 Y260.0 V96.473 F20000 M63 P0
G93 G1 Y260.096 V96.45 F20000 M62 P0
G93 G1 Y260.192 V96.426 F20000 M63 P0
G93 G1 Y260.288 V96.403 F20000 M62 P0
G93 G1 Y260.384 V96.379 F20000 M63 P0
G93 G1 Y260.48 V96.356 F20000 M62 P0
G93 G1 Y260.576 V96.332 F20000 M63 P0
G93 G1 Y260.672 V96.309 F20000 M62 P0
G93 G1 Y260.768 V96.286 F20000 M63 P0
G93 G1 Y260.864 V96.262 F20000 M62 P0
G93 G1 Y260.96 V96.239 F20000 M63 P0
G93 G1 Y261.056 V96.216 F20000 M62 P0
G93 G1 Y261.152 V96.193 F20000 M63 P0
G93 G1 Y261.248 V96.169 F20000 M62 P0
G93 G1 Y261.344 V96.146 F20000 M63 P0
G93 G1 Y261.44 V96.123 F20000 M62 P0
G93 G1 Y261.536 V96.1 F20000 M63 P0
G93 G1 Y261.632 V96.077 F20000 M62 P0
G93 G1 Y261.728 V96.054 F20000 M63 P0
G93 G1 Y261.824 V96.031 F20000 M62 P0
G93 G1 Y261.92 V96.008 F20000 M63 P0
G93 G1 Y262.016 V95.985 F20000 M62 P0
G93 G1 Y262.112 V95.962 F20000 M63 P0
G93 G1 Y262.208 V95.939 F20000 M62 P0
G93 G1 Y262.304 V95.916 F20000 M63 P0
G93 G1 Y262.4 V95.893 F20000 M62 P0
G93 G1 Y262.496 V95.87 F20000 M63 P0
G93 G1 Y262.592 V95.847 F20000 M62 P0
G93 G1 Y262.688 V95.824 F20000 M63 P0
G93 G1 Y262.784 V95.801 F20000 M62 P0
G93 G1 Y262.88 V95.778 F20000 M63 P0
G93 G1 Y262.976 V95.756 F20000 M62 P0
G93 G1 Y263.072 V95.733 F20000 M63 P0
G93 G1 Y263.168 V95.71 F20000 M62 P0
G93 G1 Y263.264 V95.687 F20000 M63 P0
G93 G1 Y263.36 V95.665 F20000 M62 P0
G93 G1 Y263.456 V95.642 F20000 M63 P0
G93 G1 Y263.552 V95.619 F20000 M62 P0
G93 G1 Y263.648 V95.597 F20000 M63 P0
G93 G1 Y263.744 V95.574 F20000 M62 P0
G93 G1 Y263.84 V95.551 F20000 M63 P0
G93 G1 Y263.936 V95.529 F20000 M62 P0
G93 G1 Y264.032 V95.506 F20000 M63 P0
G93 G1 Y264.128 V95.484 F20000 M62 P0
G93 G1 Y264.224 V95.461 F20000 M63 P0
G93 G1 Y264.32 V95.439 F20000 M62 P0
G93 G1 Y264.416 V95.416 F20000 M63 P0
G93 G1 Y264.512 V95.394 F20000 M62 P0
G93 G1 Y264.608 V95.371 F20000 M63 P0
G93 G1 Y264.704 V95.349 F20000 M62 P0
G93 G1 Y264.8 V95.327 F20000 M63 P0
G93 G1 Y264.896 V95.304 F20000 M62 P0
G93 G1 Y264.992 V95.282 F20000 M63 P0
G93 G1 Y265.088 V95.26 F20000 M62 P0
G93 G1 Y265.184 V95.237 F20000 M63 P0
G93 G1 Y265.28 V95.215 F20000 M62 P0
G93 G1 Y265.376 V95.193 F20000 M63 P0
G93 G1 Y265.472 V95.17 F20000 M62 P0
G93 G1 Y265.568 V95.148 F20000 M63 P0
G93 G1 Y265.664 V95.126 F20000 M62 P0
G93 G1 Y265.76 V95.104 F20000 M63 P0
G93 G1 Y265.856 V95.082 F20000 M62 P0
G93 G1 Y265.952 V95.06 F20000 M63 P0
G93 G1 Y266.048 V95.038 F20000 M62 P0
G93 G1 Y266.144 V95.016 F20000 M63 P0
G93 G1 Y266.24 V94.993 F20000 M62 P0
G93 G1 Y266.336 V94.971 F20000 M63 P0
G93 G1 Y266.432 V94.949 F20000 M62 P0
G93 G1 Y266.528 V94.927 F20000 M63 P0
G93 G1 Y266.624 V94.905 F20000 M62 P0
G93 G1 Y266.72 V94.884 F20000 M63 P0
G93 G1 Y266.816 V94.862 F20000 M62 P0
G93 G1 Y266.912 V94.84 F20000 M63 P0
G93 G1 Y267.008 V94.818 F20000 M62 P0
G93 G1 Y267.104 V94.796 F20000 M63 P0
G93 G1 Y267.2 V94.774 F20000 M62 P0
G93 G1 Y267.296 V94.752 F20000 M63 P0
G93 G1 Y267.392 V94.73 F20000 M62 P0
G93 G1 Y267.488 V94.709 F20000 M63 P0
G93 G1 Y267.584 V94.687 F20000 M62 P0
G93 G1 Y267.68 V94.665 F20000 M63 P0
G93 G1 Y267.776 V94.644 F20000 M62 P0
G93 G1 Y267.872 V94.622 F20000 M63 P0
G93 G1 Y267.968 V94.6 F20000 M62 P0
G93 G1 Y268.064 V94.579 F20000 M63 P0
G93 G1 Y268.16 V94.557 F20000 M62 P0
G93 G1 Y268.256 V94.535 F20000 M63 P0
G93 G1 Y268.352 V94.514 F20000 M62 P0
G93 G1 Y268.448 V94.492 F20000 M63 P0
G93 G1 Y268.544 V94.471 F20000 M62 P0
G93 G1 Y268.64 V94.449 F20000 M63 P0
G93 G1 Y268.736 V94.428 F20000 M62 P0
G93 G1 Y268.832 V94.406 F20000 M63 P0
G93 G1 Y268.928 V94.385 F20000 M62 P0
G93 G1 Y269.024 V94.363 F20000 M63 P0
G93 G1 Y269.12 V94.342 F20000 M62 P0
G93 G1 Y269.216 V94.32 F20000 M63 P0
G93 G1 Y269.312 V94.299 F20000 M62 P0
G93 G1 Y269.408 V94.278 F20000 M63 P0
G93 G1 Y269.504 V94.256 F20000 M62 P0
G93 G1 Y269.6 V94.235 F20000 M63 P0
G93 G1 Y269.696 V94.214 F20000 M62 P0
G93 G1 Y269.792 V94.193 F20000 M63 P0
G93 G1 Y269.888 V94.171 F20000 M62 P0
G93 G1 Y269.984 V94.15 F20000 M63 P0
G93 G1 Y270.08 V94.129 F20000 M62 P0
G93 G1 Y270.176 V94.108 F20000 M63 P0
G93 G1 Y270.272 V94.087 F20000 M62 P0
G93 G1 Y270.368 V94.065 F20000 M63 P0
G93 G1 Y270.464 V94.044 F20000 M62 P0
G93 G1 Y270.56 V94.023 F20000 M63 P0
G93 G1 Y270.656 V94.002 F20000 M62 P0
G93 G1 Y270.752 V93.981 F20000 M63 P0
G93 G1 Y270.848 V93.96 F20000 M62 P0
G93 G1 Y270.944 V93.939 F20000 M63 P0
G93 G1 Y271.04 V93.918 F20000 M62 P0
G93 G1 Y271.136 V93.897 F20000 M63 P0
G93 G1 Y271.232 V93.876 F20000 M62 P0
G93 G1 Y271.328 V93.855 F20000 M63 P0
G93 G1 Y271.424 V93.834 F20000 M62 P0
G93 G1 Y271.52 V93.813 F20000 M63 P0
G93 G1 Y271.616 V93.792 F20000 M62 P0
G93 G1 Y271.712 V93.772 F20000 M63 P0
G93 G1 Y271.808 V93.751 F20000 M62 P0
G93 G1 Y271.904 V93.73 F20000 M63 P0
G93 G1 Y272.0 V93.709 F20000 M62 P0
G93 G1 Y272.096 V93.688 F20000 M63 P0
G93 G1 Y272.192 V93.668 F20000 M62 P0
G93 G1 Y272.288 V93.647 F20000 M63 P0
G93 G1 Y272.384 V93.626 F20000 M62 P0
G93 G1 Y272.48 V93.606 F20000 M63 P0
G93 G1 Y272.576 V93.585 F20000 M62 P0
G93 G1 Y272.672 V93.564 F20000 M63 P0
G93 G1 Y272.768 V93.544 F20000 M62 P0
G93 G1 Y272.864 V93.523 F20000 M63 P0
G93 G1 Y272.96 V93.502 F20000 M62 P0
G93 G1 Y273.056 V93.482 F20000 M63 P0
G93 G1 Y273.152 V93.461 F20000 M62 P0
G93 G1 Y273.248 V93.441 F20000 M63 P0
G93 G1 Y273.344 V93.42 F20000 M62 P0
G93 G1 Y273.44 V93.4 F20000 M63 P0
G93 G1 Y273.536 V93.379 F20000 M62 P0
G93 G1 Y273.632 V93.359 F20000 M63 P0
G93 G1 Y273.728 V93.338 F20000 M62 P0
G93 G1 Y273.824 V93.318 F20000 M63 P0
G93 G1 Y273.92 V93.298 F20000 M62 P0
G93 G1 Y274.016 V93.277 F20000 M63 P0
G93 G1 Y274.112 V93.257 F20000 M62 P0
G93 G1 Y274.208 V93.237 F20000 M63 P0
G93 G1 Y274.304 V93.216 F20000 M62 P0
G93 G1 Y274.4 V93.196 F20000 M63 P0
G93 G1 Y274.496 V93.176 F20000 M62 P0
G93 G1 Y274.592 V93.156 F20000 M63 P0
G93 G1 Y274.688 V93.135 F20000 M62 P0
G93 G1 Y274.784 V93.115 F20000 M63 P0
G93 G1 Y274.88 V93.095 F20000 M62 P0
G93 G1 Y274.976 V93.075 F20000 M63 P0
G93 G1 Y275.072 V93.055 F20000 M62 P0
G93 G1 Y275.168 V93.035 F20000 M63 P0
G93 G1 Y275.264 V93.014 F20000 M62 P0
G93 G1 Y275.36 V92.994 F20000 M63 P0
G93 G1 Y275.456 V92.974 F20000 M62 P0
G93 G1 Y275.552 V92.954 F20000 M63 P0
G93 G1 Y275.648 V92.934 F20000 M62 P0
G93 G1 Y275.744 V92.914 F20000 M63 P0
G93 G1 Y275.84 V92.894 F20000 M62 P0
G93 G1 Y275.936 V92.874 F20000 M63 P0
G93 G1 Y276.032 V92.854 F20000 M62 P0
G93 G1 Y276.128 V92.834 F20000 M63 P0
G93 G1 Y276.224 V92.814 F20000 M62 P0
G93 G1 Y276.32 V92.795 F20000 M63 P0
G93 G1 Y276.416 V92.775 F20000 M62 P0
G93 G1 Y276.512 V92.755 F20000 M63 P0
G93 G1 Y276.608 V92.735 F20000 M62 P0
G93 G1 Y276.704 V92.715 F20000 M63 P0
G93 G1 Y276.8 V92.695 F20000 M62 P0
G93 G1 Y276.896 V92.676 F20000 M63 P0
G93 G1 Y276.992 V92.656 F20000 M62 P0
G93 G1 Y277.088 V92.636 F20000 M63 P0
G93 G1 Y277.184 V92.616 F20000 M62 P0
G93 G1 Y277.28 V92.597 F20000 M63 P0
G93 G1 Y277.376 V92.577 F20000 M62 P0
G93 G1 Y277.472 V92.557 F20000 M63 P0
G93 G1 Y277.568 V92.538 F20000 M62 P0
G93 G1 Y277.664 V92.518 F20000 M63 P0
G93 G1 Y277.76 V92.499 F20000 M62 P0
G93 G1 Y277.856 V92.479 F20000 M63 P0
G93 G1 Y277.952 V92.459 F20000 M62 P0
G93 G1 Y278.048 V92.44 F20000 M63 P0
G93 G1 Y278.144 V92.42 F20000 M62 P0
G93 G1 Y278.24 V92.401 F20000 M63 P0
G93 G1 Y278.336 V92.381 F20000 M62 P0
G93 G1 Y278.432 V92.362 F20000 M63 P0
G93 G1 Y278.528 V92.343 F20000 M62 P0
G93 G1 Y278.624 V92.323 F20000 M63 P0
G93 G1 Y278.72 V92.304 F20000 M62 P0
G93 G1 Y278.816 V92.284 F20000 M63 P0
G93 G1 Y278.912 V92.265 F20000 M62 P0
G93 G1 Y279.008 V92.246 F20000 M63 P0
G93 G1 Y279.104 V92.226 F20000 M62 P0
G93 G1 Y279.2 V92.207 F20000 M63 P0
G93 G1 Y279.296 V92.188 F20000 M62 P0
G93 G1 Y279.392 V92.168 F20000 M63 P0
G93 G1 Y279.488 V92.149 F20000 M62 P0
G93 G1 Y279.584 V92.13 F20000 M63 P0
G93 G1 Y279.68 V92.111 F20000 M62 P0
G93 G1 Y279.776 V92.092 F20000 M63 P0
G93 G1 Y279.872 V92.072 F20000 M62 P0
G93 G1 Y279.968 V92.053 F20000 M63 P0
G93 G1 Y280.064 V92.034 F20000 M62 P0
G93 G1 Y280.16 V92.015 F20000 M63 P0
G93 G1 Y280.256 V91.996 F20000 M62 P0
G93 G1 Y280.352 V91.977 F20000 M63 P0
G93 G1 Y280.448 V91.958 F20000 M62 P0
G93 G1 Y280.544 V91.939 F20000 M63 P0
G93 G1 Y280.64 V91.92 F20000 M62 P0
G93 G1 Y280.736 V91.901 F20000 M63 P0
G93 G1 Y280.832 V91.882 F20000 M62 P0
G93 G1 Y280.928 V91.863 F20000 M63 P0
G93 G1 Y281.024 V91.844 F20000 M62 P0
G93 G1 Y281.12 V91.825 F20000 M63 P0
G93 G1 Y281.216 V91.806 F20000 M62 P0
G93 G1 Y281.312 V91.787 F20000 M63 P0
G93 G1 Y281.408 V91.768 F20000 M62 P0
G93 G1 Y281.504 V91.749 F20000 M63 P0
G93 G1 Y281.6 V91.73 F20000 M62 P0
G93 G1 Y281.696 V91.712 F20000 M63 P0
G93 G1 Y281.792 V91.693 F20000 M62 P0
G93 G1 Y281.888 V91.674 F20000 M63 P0
G93 G1 Y281.984 V91.655 F20000 M62 P0
G93 G1 Y282.08 V91.637 F20000 M63 P0
G93 G1 Y282.176 V91.618 F20000 M62 P0
G93 G1 Y282.272 V91.599 F20000 M63 P0
G93 G1 Y282.368 V91.58 F20000 M62 P0
G93 G1 Y282.464 V91.562 F20000 M63 P0
G93 G1 Y282.56 V91.543 F20000 M62 P0
G93 G1 Y282.656 V91.524 F20000 M63 P0
G93 G1 Y282.752 V91.506 F20000 M62 P0
G93 G1 Y282.848 V91.487 F20000 M63 P0
G93 G1 Y282.944 V91.469 F20000 M62 P0
G93 G1 Y283.04 V91.45 F20000 M63 P0
G93 G1 Y283.136 V91.432 F20000 M62 P0
G93 G1 Y283.232 V91.413 F20000 M63 P0
G93 G1 Y283.328 V91.394 F20000 M62 P0
G93 G1 Y283.424 V91.376 F20000 M63 P0
G93 G1 Y283.52 V91.358 F20000 M62 P0
G93 G1 Y283.616 V91.339 F20000 M63 P0
G93 G1 Y283.712 V91.321 F20000 M62 P0
G93 G1 Y283.808 V91.302 F20000 M63 P0
G93 G1 Y283.904 V91.284 F20000 M62 P0
G93 G1 Y284.0 V91.265 F20000 M63 P0
G93 G1 Y284.096 V91.247 F20000 M62 P0
G93 G1 Y284.192 V91.229 F20000 M63 P0
G93 G1 Y284.288 V91.21 F20000 M62 P0
G93 G1 Y284.384 V91.192 F20000 M63 P0
G93 G1 Y284.48 V91.174 F20000 M62 P0
G93 G1 Y284.576 V91.156 F20000 M63 P0
G93 G1 Y284.672 V91.137 F20000 M62 P0
G93 G1 Y284.768 V91.119 F20000 M63 P0
G93 G1 Y284.864 V91.101 F20000 M62 P0
G93 G1 Y284.96 V91.083 F20000 M63 P0
G93 G1 Y285.056 V91.064 F20000 M62 P0
G93 G1 Y285.152 V91.046 F20000 M63 P0
G93 G1 Y285.248 V91.028 F20000 M62 P0
G93 G1 Y285.344 V91.01 F20000 M63 P0
G93 G1 Y285.44 V90.992 F20000 M62 P0
G93 G1 Y285.536 V90.974 F20000 M63 P0
G93 G1 Y285.632 V90.956 F20000 M62 P0
G93 G1 Y285.728 V90.938 F20000 M63 P0
G93 G1 Y285.824 V90.92 F20000 M62 P0
G93 G1 Y285.92 V90.902 F20000 M63 P0
G93 G1 Y286.016 V90.884 F20000 M62 P0
G93 G1 Y286.112 V90.866 F20000 M63 P0
G93 G1 Y286.208 V90.848 F20000 M62 P0
G93 G1 Y286.304 V90.83 F20000 M63 P0
G93 G1 Y286.4 V90.812 F20000 M62 P0
G93 G1 Y286.496 V90.794 F20000 M63 P0
G93 G1 Y286.592 V90.776 F20000 M62 P0
G93 G1 Y286.688 V90.758 F20000 M63 P0
G93 G1 Y286.784 V90.74 F20000 M62 P0
G93 G1 Y286.88 V90.722 F20000 M63 P0
G93 G1 Y286.976 V90.705 F20000 M62 P0
G93 G1 Y287.072 V90.687 F20000 M63 P0
G93 G1 Y287.168 V90.669 F20000 M62 P0
G93 G1 Y287.264 V90.651 F20000 M63 P0
G93 G1 Y287.36 V90.633 F20000 M62 P0
G93 G1 Y287.456 V90.616 F20000 M63 P0
G93 G1 Y287.552 V90.598 F20000 M62 P0
G93 G1 Y287.648 V90.58 F20000 M63 P0
G93 G1 Y287.744 V90.563 F20000 M62 P0
G93 G1 Y287.84 V90.545 F20000 M63 P0
G93 G1 Y287.936 V90.527 F20000 M62 P0
G93 G1 Y288.032 V90.51 F20000 M63 P0
G93 G1 Y288.128 V90.492 F20000 M62 P0
G93 G1 Y288.224 V90.474 F20000 M63 P0
G93 G1 Y288.32 V90.457 F20000 M62 P0
G93 G1 Y288.416 V90.439 F20000 M63 P0
G93 G1 Y288.512 V90.422 F20000 M62 P0
G93 G1 Y288.608 V90.404 F20000 M63 P0
G93 G1 Y288.704 V90.387 F20000 M62 P0
G93 G1 Y288.8 V90.369 F20000 M63 P0
G93 G1 Y288.896 V90.352 F20000 M62 P0
G93 G1 Y288.992 V90.334 F20000 M63 P0
G93 G1 Y289.088 V90.317 F20000 M62 P0
G93 G1 Y289.184 V90.299 F20000 M63 P0
G93 G1 Y289.28 V90.282 F20000 M62 P0
G93 G1 Y289.376 V90.264 F20000 M63 P0
G93 G1 Y289.472 V90.247 F20000 M62 P0
G93 G1 Y289.568 V90.23 F20000 M63 P0
G93 G1 Y289.664 V90.212 F20000 M62 P0
G93 G1 Y289.76 V90.195 F20000 M63 P0
G93 G1 Y289.856 V90.178 F20000 M62 P0
G93 G1 Y289.952 V90.16 F20000 M63 P0
G93 G1 Y290.048 V90.143 F20000 M62 P0
G93 G1 Y290.144 V90.126 F20000 M63 P0
G93 G1 Y290.24 V90.109 F20000 M62 P0
G93 G1 Y290.336 V90.091 F20000 M63 P0
G93 G1 Y290.432 V90.074 F20000 M62 P0
G93 G1 Y290.528 V90.057 F20000 M63 P0
G93 G1 Y290.624 V90.04 F20000 M62 P0
G93 G1 Y290.72 V90.023 F20000 M63 P0
G93 G1 Y290.816 V90.006 F20000 M62 P0
G93 G1 Y290.912 V89.988 F20000 M63 P0
G93 G1 Y291.008 V89.971 F20000 M62 P0
G93 G1 Y291.104 V89.954 F20000 M63 P0
G93 G1 Y291.2 V89.937 F20000 M62 P0
G93 G1 Y291.296 V89.92 F20000 M63 P0
G93 G1 Y291.392 V89.903 F20000 M62 P0
G93 G1 Y291.488 V89.886 F20000 M63 P0
G93 G1 Y291.584 V89.869 F20000 M62 P0
G93 G1 Y291.68 V89.852 F20000 M63 P0
G93 G1 Y291.776 V89.835 F20000 M62 P0
G93 G1 Y291.872 V89.818 F20000 M63 P0
G93 G1 Y291.968 V89.801 F20000 M62 P0
G93 G1 Y292.064 V89.784 F20000 M63 P0
G93 G1 Y292.16 V89.767 F20000 M62 P0
G93 G1 Y292.256 V89.75 F20000 M63 P0
G93 G1 Y292.352 V89.734 F20000 M62 P0
G93 G1 Y292.448 V89.717 F20000 M63 P0
G93 G1 Y292.544 V89.7 F20000 M62 P0
G93 G1 Y292.64 V89.683 F20000 M63 P0
G93 G1 Y292.736 V89.666 F20000 M62 P0
G93 G1 Y292.832 V89.649 F20000 M63 P0
G93 G1 Y292.928 V89.633 F20000 M62 P0
G93 G1 Y293.024 V89.616 F20000 M63 P0
G93 G1 Y293.12 V89.599 F20000 M62 P0
G93 G1 Y293.216 V89.582 F20000 M63 P0
G93 G1 Y293.312 V89.566 F20000 M62 P0
G93 G1 Y293.408 V89.549 F20000 M63 P0
G93 G1 Y293.504 V89.532 F20000 M62 P0
G93 G1 Y293.6 V89.516 F20000 M63 P0
G93 G1 Y293.696 V89.499 F20000 M62 P0
G93 G1 Y293.792 V89.482 F20000 M63 P0
G93 G1 Y293.888 V89.466 F20000 M62 P0
G93 G1 Y293.984 V89.449 F20000 M63 P0
G93 G1 Y294.08 V89.433 F20000 M62 P0
G93 G1 Y294.176 V89.416 F20000 M63 P0
G93 G1 Y294.272 V89.4 F20000 M62 P0
G93 G1 Y294.368 V89.383 F20000 M63 P0
G93 G1 Y294.464 V89.367 F20000 M62 P0
G93 G1 Y294.56 V89.35 F20000 M63 P0
G93 G1 Y294.656 V89.334 F20000 M62 P0
G93 G1 Y294.752 V89.317 F20000 M63 P0
G93 G1 Y294.848 V89.301 F20000 M62 P0
G93 G1 Y294.944 V89.284 F20000 M63 P0
G93 G1 Y295.04 V89.268 F20000 M62 P0
G93 G1 Y295.136 V89.251 F20000 M63 P0
G93 G1 Y295.232 V89.235 F20000 M62 P0
G93 G1 Y295.328 V89.219 F20000 M63 P0
G93 G1 Y295.424 V89.202 F20000 M62 P0
G93 G1 Y295.52 V89.186 F20000 M63 P0
G93 G1 Y295.616 V89.17 F20000 M62 P0
G93 G1 Y295.712 V89.153 F20000 M63 P0
G93 G1 Y295.808 V89.137 F20000 M62 P0
G93 G1 Y295.904 V89.121 F20000 M63 P0
G93 G1 Y296.0 V89.104 F20000 M62 P0
G93 G1 Y296.096 V89.088 F20000 M63 P0
G93 G1 Y296.192 V89.072 F20000 M62 P0
G93 G1 Y296.288 V89.056 F20000 M63 P0
G93 G1 Y296.384 V89.04 F20000 M62 P0
G93 G1 Y296.48 V89.023 F20000 M63 P0
G93 G1 Y296.576 V89.007 F20000 M62 P0
G93 G1 Y296.672 V88.991 F20000 M63 P0
G93 G1 Y296.768 V88.975 F20000 M62 P0
G93 G1 Y296.864 V88.959 F20000 M63 P0
G93 G1 Y296.96 V88.943 F20000 M62 P0
G93 G1 Y297.056 V88.927 F20000 M63 P0
G93 G1 Y297.152 V88.911 F20000 M62 P0
G93 G1 Y297.248 V88.895 F20000 M63 P0
G93 G1 Y297.344 V88.879 F20000 M62 P0
G93 G1 Y297.44 V88.863 F20000 M63 P0
G93 G1 Y297.536 V88.847 F20000 M62 P0
G93 G1 Y297.632 V88.831 F20000 M63 P0
G93 G1 Y297.728 V88.815 F20000 M62 P0
G93 G1 Y297.824 V88.799 F20000 M63 P0
G93 G1 Y297.92 V88.783 F20000 M62 P0
G93 G1 Y298.016 V88.767 F20000 M63 P0
G93 G1 Y298.112 V88.751 F20000 M62 P0
G93 G1 Y298.208 V88.735 F20000 M63 P0
G93 G1 Y298.304 V88.719 F20000 M62 P0
G93 G1 Y298.4 V88.703 F20000 M63 P0
G93 G1 Y298.496 V88.687 F20000 M62 P0
G93 G1 Y298.592 V88.671 F20000 M63 P0
G93 G1 Y298.688 V88.656 F20000 M62 P0
G93 G1 Y298.784 V88.64 F20000 M63 P0
G93 G1 Y298.88 V88.624 F20000 M62 P0
G93 G1 Y298.976 V88.608 F20000 M63 P0
G93 G1 Y299.072 V88.593 F20000 M62 P0
G93 G1 Y299.168 V88.577 F20000 M63 P0
G93 G1 Y299.264 V88.561 F20000 M62 P0
G93 G1 Y299.36 V88.545 F20000 M63 P0
G93 G1 Y299.456 V88.53 F20000 M62 P0
G93 G1 Y299.552 V88.514 F20000 M63 P0
G93 G1 Y299.648 V88.498 F20000 M62 P0
G93 G1 Y299.744 V88.483 F20000 M63 P0
G93 G1 Y299.84 V88.467 F20000 M62 P0
G93 G1 Y299.936 V88.451 F20000 M63 P0
G93 G1 Y300.032 V88.436 F20000 M62 P0
G93 G1 Y300.128 V88.42 F20000 M63 P0
G93 G1 Y300.224 V88.405 F20000 M62 P0
G93 G1 Y300.32 V88.389 F20000 M63 P0
G93 G1 Y300.416 V88.374 F20000 M62 P0
G93 G1 Y300.512 V88.358 F20000 M63 P0
G93 G1 Y300.608 V88.343 F20000 M62 P0
G93 G1 Y300.704 V88.327 F20000 M63 P0
G93 G1 Y300.8 V88.312 F20000 M62 P0
G93 G1 Y300.896 V88.296 F20000 M63 P0
G93 G1 Y300.992 V88.281 F20000 M62 P0
G93 G1 Y301.088 V88.265 F20000 M63 P0
G93 G1 Y301.184 V88.25 F20000 M62 P0
G93 G1 Y301.28 V88.234 F20000 M63 P0
G93 G1 Y301.376 V88.219 F20000 M62 P0
G93 G1 Y301.472 V88.204 F20000 M63 P0
G93 G1 Y301.568 V88.188 F20000 M62 P0
G93 G1 Y301.664 V88.173 F20000 M63 P0
G93 G1 Y301.76 V88.158 F20000 M62 P0
G93 G1 Y301.856 V88.142 F20000 M63 P0
G93 G1 Y301.952 V88.127 F20000 M62 P0
G93 G1 Y302.048 V88.112 F20000 M63 P0
G93 G1 Y302.144 V88.096 F20000 M62 P0
G93 G1 Y302.24 V88.081 F20000 M63 P0
G93 G1 Y302.336 V88.066 F20000 M62 P0
G93 G1 Y302.432 V88.051 F20000 M63 P0
G93 G1 Y302.528 V88.035 F20000 M62 P0
G93 G1 Y302.624 V88.02 F20000 M63 P0
G93 G1 Y302.72 V88.005 F20000 M62 P0
G93 G1 Y302.816 V87.99 F20000 M63 P0
G93 G1 Y302.912 V87.975 F20000 M62 P0
G93 G1 Y303.008 V87.96 F20000 M63 P0
G93 G1 Y303.104 V87.945 F20000 M62 P0
G93 G1 Y303.2 V87.929 F20000 M63 P0
G93 G1 Y303.296 V87.914 F20000 M62 P0
G93 G1 Y303.392 V87.899 F20000 M63 P0
G93 G1 Y303.488 V87.884 F20000 M62 P0
G93 G1 Y303.584 V87.869 F20000 M63 P0
G93 G1 Y303.68 V87.854 F20000 M62 P0
G93 G1 Y303.776 V87.839 F20000 M63 P0
G93 G1 Y303.872 V87.824 F20000 M62 P0
G93 G1 Y303.968 V87.809 F20000 M63 P0
G93 G1 Y304.064 V87.794 F20000 M62 P0
G93 G1 Y304.16 V87.779 F20000 M63 P0
G93 G1 Y304.256 V87.764 F20000 M62 P0
G93 G1 Y304.352 V87.749 F20000 M63 P0
G93 G1 Y304.448 V87.734 F20000 M62 P0
G93 G1 Y304.544 V87.719 F20000 M63 P0
G93 G1 Y304.64 V87.705 F20000 M62 P0
G93 G1 Y304.736 V87.69 F20000 M63 P0
G93 G1 Y304.832 V87.675 F20000 M62 P0
G93 G1 Y304.928 V87.66 F20000 M63 P0
G93 G1 Y305.024 V87.645 F20000 M62 P0
G93 G1 Y305.12 V87.63 F20000 M63 P0
G93 G1 Y305.216 V87.615 F20000 M62 P0
G93 G1 Y305.312 V87.601 F20000 M63 P0
G93 G1 Y305.408 V87.586 F20000 M62 P0
G93 G1 Y305.504 V87.571 F20000 M63 P0
G93 G1 Y305.6 V87.556 F20000 M62 P0
G93 G1 Y305.696 V87.542 F20000 M63 P0
G93 G1 Y305.792 V87.527 F20000 M62 P0
G93 G1 Y305.888 V87.512 F20000 M63 P0
G93 G1 Y305.984 V87.498 F20000 M62 P0
G93 G1 Y306.08 V87.483 F20000 M63 P0
G93 G1 Y306.176 V87.468 F20000 M62 P0
G93 G1 Y306.272 V87.454 F20000 M63 P0
G93 G1 Y306.368 V87.439 F20000 M62 P0
G93 G1 Y306.464 V87.424 F20000 M63 P0
G93 G1 Y306.56 V87.41 F20000 M62 P0
G93 G1 Y306.656 V87.395 F20000 M63 P0
G93 G1 Y306.752 V87.381 F20000 M62 P0
G93 G1 Y306.848 V87.366 F20000 M63 P0
G93 G1 Y306.944 V87.351 F20000 M62 P0
G93 G1 Y307.04 V87.337 F20000 M63 P0
G93 G1 Y307.136 V87.322 F20000 M62 P0
G93 G1 Y307.232 V87.308 F20000 M63 P0
G93 G1 Y307.328 V87.293 F20000 M62 P0
G93 G1 Y307.424 V87.279 F20000 M63 P0
G93 G1 Y307.52 V87.264 F20000 M62 P0
G93 G1 Y307.616 V87.25 F20000 M63 P0
G93 G1 Y307.712 V87.236 F20000 M62 P0
G93 G1 Y307.808 V87.221 F20000 M63 P0
G93 G1 Y307.904 V87.207 F20000 M62 P0
G93 G1 Y308.0 V87.192 F20000 M63 P0
G93 G1 Y308.096 V87.178 F20000 M62 P0
G93 G1 Y308.192 V87.164 F20000 M63 P0
G93 G1 Y308.288 V87.149 F20000 M62 P0
G93 G1 Y308.384 V87.135 F20000 M63 P0
G93 G1 Y308.48 V87.121 F20000 M62 P0
G93 G1 Y308.576 V87.106 F20000 M63 P0
G93 G1 Y308.672 V87.092 F20000 M62 P0
G93 G1 Y308.768 V87.078 F20000 M63 P0
G93 G1 Y308.864 V87.063 F20000 M62 P0
G93 G1 Y308.96 V87.049 F20000 M63 P0
G93 G1 Y309.056 V87.035 F20000 M62 P0
G93 G1 Y309.152 V87.021 F20000 M63 P0
G93 G1 Y309.248 V87.007 F20000 M62 P0
G93 G1 Y309.344 V86.992 F20000 M63 P0
G93 G1 Y309.44 V86.978 F20000 M62 P0
G93 G1 Y309.536 V86.964 F20000 M63 P0
G93 G1 Y309.632 V86.95 F20000 M62 P0
G93 G1 Y309.728 V86.936 F20000 M63 P0
G93 G1 Y309.824 V86.922 F20000 M62 P0
G93 G1 Y309.92 V86.907 F20000 M63 P0
G93 G1 Y310.016 V86.893 F20000 M62 P0
G93 G1 Y310.112 V86.879 F20000 M63 P0
G93 G1 Y310.208 V86.865 F20000 M62 P0
G93 G1 Y310.304 V86.851 F20000 M63 P0
G93 G1 Y310.4 V86.837 F20000 M62 P0
G93 G1 Y310.496 V86.823 F20000 M63 P0
G93 G1 Y310.592 V86.809 F20000 M62 P0
G93 G1 Y310.688 V86.795 F20000 M63 P0
G93 G1 Y310.784 V86.781 F20000 M62 P0
G93 G1 Y310.88 V86.767 F20000 M63 P0
G93 G1 Y310.976 V86.753 F20000 M62 P0
G93 G1 Y311.072 V86.739 F20000 M63 P0
G93 G1 Y311.168 V86.725 F20000 M62 P0
G93 G1 Y311.264 V86.711 F20000 M63 P0
G93 G1 Y311.36 V86.697 F20000 M62 P0
G93 G1 Y311.456 V86.683 F20000 M63 P0
G93 G1 Y311.552 V86.67 F20000 M62 P0
G93 G1 Y311.648 V86.656 F20000 M63 P0
G93 G1 Y311.744 V86.642 F20000 M62 P0
G93 G1 Y311.84 V86.628 F20000 M63 P0
G93 G1 Y311.936 V86.614 F20000 M62 P0
G93 G1 Y312.032 V86.6 F20000 M63 P0
G93 G1 Y312.128 V86.587 F20000 M62 P0
G93 G1 Y312.224 V86.573 F20000 M63 P0
G93 G1 Y312.32 V86.559 F20000 M62 P0
G93 G1 Y312.416 V86.545 F20000 M63 P0
G93 G1 Y312.512 V86.531 F20000 M62 P0
G93 G1 Y312.608 V86.518 F20000 M63 P0
G93 G1 Y312.704 V86.504 F20000 M62 P0
G93 G1 Y312.8 V86.49 F20000 M63 P0
G93 G1 Y312.896 V86.477 F20000 M62 P0
G93 G1 Y312.992 V86.463 F20000 M63 P0
G93 G1 Y313.088 V86.449 F20000 M62 P0
G93 G1 Y313.184 V86.436 F20000 M63 P0
G93 G1 Y313.28 V86.422 F20000 M62 P0
G93 G1 Y313.376 V86.408 F20000 M63 P0
G93 G1 Y313.472 V86.395 F20000 M62 P0
G93 G1 Y313.568 V86.381 F20000 M63 P0
G93 G1 Y313.664 V86.367 F20000 M62 P0
G93 G1 Y313.76 V86.354 F20000 M63 P0
G93 G1 Y313.856 V86.34 F20000 M62 P0
G93 G1 Y313.952 V86.327 F20000 M63 P0
G93 G1 Y314.048 V86.313 F20000 M62 P0
G93 G1 Y314.144 V86.3 F20000 M63 P0
G93 G1 Y314.24 V86.286 F20000 M62 P0
G93 G1 Y314.336 V86.273 F20000 M63 P0
G93 G1 Y314.432 V86.259 F20000 M62 P0
G93 G1 Y314.528 V86.246 F20000 M63 P0
G93 G1 Y314.624 V86.232 F20000 M62 P0
G93 G1 Y314.72 V86.219 F20000 M63 P0
G93 G1 Y314.816 V86.205 F20000 M62 P0
G93 G1 Y314.912 V86.192 F20000 M63 P0
G93 G1 Y315.008 V86.178 F20000 M62 P0
G93 G1 Y315.104 V86.165 F20000 M63 P0
G93 G1 Y315.2 V86.152 F20000 M62 P0
G93 G1 Y315.296 V86.138 F20000 M63 P0
G93 G1 Y315.392 V86.125 F20000 M62 P0
G93 G1 Y315.488 V86.112 F20000 M63 P0
G93 G1 Y315.584 V86.098 F20000 M62 P0
G93 G1 Y315.68 V86.085 F20000 M63 P0
G93 G1 Y315.776 V86.072 F20000 M62 P0
G93 G1 Y315.872 V86.058 F20000 M63 P0
G93 G1 Y315.968 V86.045 F20000 M62 P0
G93 G1 Y316.064 V86.032 F20000 M63 P0
G93 G1 Y316.16 V86.019 F20000 M62 P0
G93 G1 Y316.256 V86.005 F20000 M63 P0
G93 G1 Y316.352 V85.992 F20000 M62 P0
G93 G1 Y316.448 V85.979 F20000 M63 P0
G93 G1 Y316.544 V85.966 F20000 M62 P0
G93 G1 Y316.64 V85.952 F20000 M63 P0
G93 G1 Y316.736 V85.939 F20000 M62 P0
G93 G1 Y316.832 V85.926 F20000 M63 P0
G93 G1 Y316.928 V85.913 F20000 M62 P0
G93 G1 Y317.024 V85.9 F20000 M63 P0
G93 G1 Y317.12 V85.887 F20000 M62 P0
G93 G1 Y317.216 V85.874 F20000 M63 P0
G93 G1 Y317.312 V85.86 F20000 M62 P0
G93 G1 Y317.408 V85.847 F20000 M63 P0
G93 G1 Y317.504 V85.834 F20000 M62 P0
G93 G1 Y317.6 V85.821 F20000 M63 P0
G93 G1 Y317.696 V85.808 F20000 M62 P0
G93 G1 Y317.792 V85.795 F20000 M63 P0
G93 G1 Y317.888 V85.782 F20000 M62 P0
G93 G1 Y317.984 V85.769 F20000 M63 P0
G93 G1 Y318.08 V85.756 F20000 M62 P0
G93 G1 Y318.176 V85.743 F20000 M63 P0
G93 G1 Y318.272 V85.73 F20000 M62 P0
G93 G1 Y318.368 V85.717 F20000 M63 P0
G93 G1 Y318.464 V85.704 F20000 M62 P0
G93 G1 Y318.56 V85.691 F20000 M63 P0
G93 G1 Y318.656 V85.678 F20000 M62 P0
G93 G1 Y318.752 V85.665 F20000 M63 P0
G93 G1 Y318.848 V85.652 F20000 M62 P0
G93 G1 Y318.944 V85.64 F20000 M63 P0
G93 G1 Y319.04 V85.627 F20000 M62 P0
G93 G1 Y319.136 V85.614 F20000 M63 P0
G93 G1 Y319.232 V85.601 F20000 M62 P0
G93 G1 Y319.328 V85.588 F20000 M63 P0
G93 G1 Y319.424 V85.575 F20000 M62 P0
G93 G1 Y319.52 V85.562 F20000 M63 P0
G93 G1 Y319.616 V85.55 F20000 M62 P0
G93 G1 Y319.712 V85.537 F20000 M63 P0
G93 G1 Y319.808 V85.524 F20000 M62 P0
G93 G1 Y319.904 V85.511 F20000 M63 P0
G93 G1 Y320.0 V85.498 F20000 M62 P0
G93 G1 Y320.096 V85.486 F20000 M63 P0
G93 G1 Y320.192 V85.473 F20000 M62 P0
G93 G1 Y320.288 V85.46 F20000 M63 P0
G93 G1 Y320.384 V85.448 F20000 M62 P0
G93 G1 Y320.48 V85.435 F20000 M63 P0
G93 G1 Y320.576 V85.422 F20000 M62 P0
G93 G1 Y320.672 V85.409 F20000 M63 P0
G93 G1 Y320.768 V85.397 F20000 M62 P0
G93 G1 Y320.864 V85.384 F20000 M63 P0
G93 G1 Y320.96 V85.372 F20000 M62 P0
G93 G1 Y321.056 V85.359 F20000 M63 P0
G93 G1 Y321.152 V85.346 F20000 M62 P0
G93 G1 Y321.248 V85.334 F20000 M63 P0
G93 G1 Y321.344 V85.321 F20000 M62 P0
G93 G1 Y321.44 V85.309 F20000 M63 P0
G93 G1 Y321.536 V85.296 F20000 M62 P0
G93 G1 Y321.632 V85.283 F20000 M63 P0
G93 G1 Y321.728 V85.271 F20000 M62 P0
G93 G1 Y321.824 V85.258 F20000 M63 P0
G93 G1 Y321.92 V85.246 F20000 M62 P0
G93 G1 Y322.016 V85.233 F20000 M63 P0
G93 G1 Y322.112 V85.221 F20000 M62 P0
G93 G1 Y322.208 V85.208 F20000 M63 P0
G93 G1 Y322.304 V85.196 F20000 M62 P0
G93 G1 Y322.4 V85.183 F20000 M63 P0
G93 G1 Y322.496 V85.171 F20000 M62 P0
G93 G1 Y322.592 V85.158 F20000 M63 P0
G93 G1 Y322.688 V85.146 F20000 M62 P0
G93 G1 Y322.784 V85.134 F20000 M63 P0
G93 G1 Y322.88 V85.121 F20000 M62 P0
G93 G1 Y322.976 V85.109 F20000 M63 P0
G93 G1 Y323.072 V85.096 F20000 M62 P0
G93 G1 Y323.168 V85.084 F20000 M63 P0
G93 G1 Y323.264 V85.072 F20000 M62 P0
G93 G1 Y323.36 V85.059 F20000 M63 P0
G93 G1 Y323.456 V85.047 F20000 M62 P0
G93 G1 Y323.552 V85.035 F20000 M63 P0
G93 G1 Y323.648 V85.022 F20000 M62 P0
G93 G1 Y323.744 V85.01 F20000 M63 P0
G93 G1 Y323.84 V84.998 F20000 M62 P0
G93 G1 Y323.936 V84.986 F20000 M63 P0
G93 G1 Y324.032 V84.973 F20000 M62 P0
G93 G1 Y324.128 V84.961 F20000 M63 P0
G93 G1 Y324.224 V84.949 F20000 M62 P0
G93 G1 Y324.32 V84.937 F20000 M63 P0
G93 G1 Y324.416 V84.924 F20000 M62 P0
G93 G1 Y324.512 V84.912 F20000 M63 P0
G93 G1 Y324.608 V84.9 F20000 M62 P0
G93 G1 Y324.704 V84.888 F20000 M63 P0
G93 G1 Y324.8 V84.876 F20000 M62 P0
G93 G1 Y324.896 V84.864 F20000 M63 P0
G93 G1 Y324.992 V84.851 F20000 M62 P0
G93 G1 Y325.088 V84.839 F20000 M63 P0
G93 G1 Y325.184 V84.827 F20000 M62 P0
G93 G1 Y325.28 V84.815 F20000 M63 P0
G93 G1 Y325.376 V84.803 F20000 M62 P0
G93 G1 Y325.472 V84.791 F20000 M63 P0
G93 G1 Y325.568 V84.779 F20000 M62 P0
G93 G1 Y325.664 V84.767 F20000 M63 P0
G93 G1 Y325.76 V84.755 F20000 M62 P0
G93 G1 Y325.856 V84.743 F20000 M63 P0
G93 G1 Y325.952 V84.731 F20000 M62 P0
G93 G1 Y326.048 V84.719 F20000 M63 P0
G93 G1 Y326.144 V84.707 F20000 M62 P0
G93 G1 Y326.24 V84.695 F20000 M63 P0
G93 G1 Y326.336 V84.683 F20000 M62 P0
G93 G1 Y326.432 V84.671 F20000 M63 P0
G93 G1 Y326.528 V84.659 F20000 M62 P0
G93 G1 Y326.624 V84.647 F20000 M63 P0
G93 G1 Y326.72 V84.635 F20000 M62 P0
G93 G1 Y326.816 V84.623 F20000 M63 P0
G93 G1 Y326.912 V84.611 F20000 M62 P0
G93 G1 Y327.008 V84.599 F20000 M63 P0
G93 G1 Y327.104 V84.587 F20000 M62 P0
G93 G1 Y327.2 V84.575 F20000 M63 P0
G93 G1 Y327.296 V84.563 F20000 M62 P0
G93 G1 Y327.392 V84.551 F20000 M63 P0
G93 G1 Y327.488 V84.54 F20000 M62 P0
G93 G1 Y327.584 V84.528 F20000 M63 P0
G93 G1 Y327.68 V84.516 F20000 M62 P0
G93 G1 Y327.776 V84.504 F20000 M63 P0
G93 G1 Y327.872 V84.492 F20000 M62 P0
G93 G1 Y327.968 V84.481 F20000 M63 P0
G93 G1 Y328.064 V84.469 F20000 M62 P0
G93 G1 Y328.16 V84.457 F20000 M63 P0
G93 G1 Y328.256 V84.445 F20000 M62 P0
G93 G1 Y328.352 V84.433 F20000 M63 P0
G93 G1 Y328.448 V84.422 F20000 M62 P0
G93 G1 Y328.544 V84.41 F20000 M63 P0
G93 G1 Y328.64 V84.398 F20000 M62 P0
G93 G1 Y328.736 V84.387 F20000 M63 P0
G93 G1 Y328.832 V84.375 F20000 M62 P0
G93 G1 Y328.928 V84.363 F20000 M63 P0
G93 G1 Y329.024 V84.351 F20000 M62 P0
G93 G1 Y329.12 V84.34 F20000 M63 P0
G93 G1 Y329.216 V84.328 F20000 M62 P0
G93 G1 Y329.312 V84.317 F20000 M63 P0
G93 G1 Y329.408 V84.305 F20000 M62 P0
G93 G1 Y329.504 V84.293 F20000 M63 P0
G93 G1 Y329.6 V84.282 F20000 M62 P0
G93 G1 Y329.696 V84.27 F20000 M63 P0
G93 G1 Y329.792 V84.258 F20000 M62 P0
G93 G1 Y329.888 V84.247 F20000 M63 P0
G93 G1 Y329.984 V84.235 F20000 M62 P0
G93 G1 Y330.08 V84.224 F20000 M63 P0
G93 G1 Y330.176 V84.212 F20000 M62 P0
G93 G1 Y330.272 V84.201 F20000 M63 P0
G93 G1 Y330.368 V84.189 F20000 M62 P0
G93 G1 Y330.464 V84.178 F20000 M63 P0
G93 G1 Y330.56 V84.166 F20000 M62 P0
G93 G1 Y330.656 V84.155 F20000 M63 P0
G93 G1 Y330.752 V84.143 F20000 M62 P0
G93 G1 Y330.848 V84.132 F20000 M63 P0
G93 G1 Y330.944 V84.12 F20000 M62 P0
G93 G1 Y331.04 V84.109 F20000 M63 P0
G93 G1 Y331.136 V84.097 F20000 M62 P0
G93 G1 Y331.232 V84.086 F20000 M63 P0
G93 G1 Y331.328 V84.075 F20000 M62 P0
G93 G1 Y331.424 V84.063 F20000 M63 P0
G93 G1 Y331.52 V84.052 F20000 M62 P0
G93 G1 Y331.616 V84.04 F20000 M63 P0
G93 G1 Y331.712 V84.029 F20000 M62 P0
G93 G1 Y331.808 V84.018 F20000 M63 P0
G93 G1 Y331.904 V84.006 F20000 M62 P0
G93 G1 Y332.0 V83.995 F20000 M63 P0
G93 G1 Y332.096 V83.984 F20000 M62 P0
G93 G1 Y332.192 V83.972 F20000 M63 P0
G93 G1 Y332.288 V83.961 F20000 M62 P0
G93 G1 Y332.384 V83.95 F20000 M63 P0
G93 G1 Y332.48 V83.938 F20000 M62 P0
G93 G1 Y332.576 V83.927 F20000 M63 P0
G93 G1 Y332.672 V83.916 F20000 M62 P0
G93 G1 Y332.768 V83.905 F20000 M63 P0
G93 G1 Y332.864 V83.893 F20000 M62 P0
G93 G1 Y332.96 V83.882 F20000 M63 P0
G93 G1 Y333.056 V83.871 F20000 M62 P0
G93 G1 Y333.152 V83.86 F20000 M63 P0
G93 G1 Y333.248 V83.849 F20000 M62 P0
G93 G1 Y333.344 V83.837 F20000 M63 P0
G93 G1 Y333.44 V83.826 F20000 M62 P0
G93 G1 Y333.536 V83.815 F20000 M63 P0
G93 G1 Y333.632 V83.804 F20000 M62 P0
G93 G1 Y333.728 V83.793 F20000 M63 P0
G93 G1 Y333.824 V83.782 F20000 M62 P0
G93 G1 Y333.92 V83.77 F20000 M63 P0
G93 G1 Y334.016 V83.759 F20000 M62 P0
G93 G1 Y334.112 V83.748 F20000 M63 P0
G93 G1 Y334.208 V83.737 F20000 M62 P0
G93 G1 Y334.304 V83.726 F20000 M63 P0
G93 G1 Y334.4 V83.715 F20000 M62 P0
G93 G1 Y334.496 V83.704 F20000 M63 P0
G93 G1 Y334.592 V83.693 F20000 M62 P0
G93 G1 Y334.688 V83.682 F20000 M63 P0
G93 G1 Y334.784 V83.671 F20000 M62 P0
G93 G1 Y334.88 V83.66 F20000 M63 P0
G93 G1 Y334.976 V83.649 F20000 M62 P0
G93 G1 Y335.072 V83.638 F20000 M63 P0
G93 G1 Y335.168 V83.627 F20000 M62 P0
G93 G1 Y335.264 V83.616 F20000 M63 P0
G93 G1 Y335.36 V83.605 F20000 M62 P0
G93 G1 Y335.456 V83.594 F20000 M63 P0
G93 G1 Y335.552 V83.583 F20000 M62 P0
G93 G1 Y335.648 V83.572 F20000 M63 P0
G93 G1 Y335.744 V83.561 F20000 M62 P0
G93 G1 Y335.84 V83.55 F20000 M63 P0
G93 G1 Y335.936 V83.539 F20000 M62 P0
G93 G1 Y336.032 V83.528 F20000 M63 P0
G93 G1 Y336.128 V83.517 F20000 M62 P0
G93 G1 Y336.224 V83.506 F20000 M63 P0
G93 G1 Y336.32 V83.495 F20000 M62 P0
G93 G1 Y336.416 V83.485 F20000 M63 P0
G93 G1 Y336.512 V83.474 F20000 M62 P0
G93 G1 Y336.608 V83.463 F20000 M63 P0
G93 G1 Y336.704 V83.452 F20000 M62 P0
G93 G1 Y336.8 V83.441 F20000 M63 P0
G93 G1 Y336.896 V83.43 F20000 M62 P0
G93 G1 Y336.992 V83.42 F20000 M63 P0
G93 G1 Y337.088 V83.409 F20000 M62 P0
G93 G1 Y337.184 V83.398 F20000 M63 P0
G93 G1 Y337.28 V83.387 F20000 M62 P0
G93 G1 Y337.376 V83.376 F20000 M63 P0
G93 G1 Y337.472 V83.366 F20000 M62 P0
G93 G1 Y337.568 V83.355 F20000 M63 P0
G93 G1 Y337.664 V83.344 F20000 M62 P0
G93 G1 Y337.76 V83.333 F20000 M63 P0
G93 G1 Y337.856 V83.323 F20000 M62 P0
G93 G1 Y337.952 V83.312 F20000 M63 P0
G93 G1 Y338.048 V83.301 F20000 M62 P0
G93 G1 Y338.144 V83.291 F20000 M63 P0
G93 G1 Y338.24 V83.28 F20000 M62 P0
G93 G1 Y338.336 V83.269 F20000 M63 P0
G93 G1 Y338.432 V83.259 F20000 M62 P0
G93 G1 Y338.528 V83.248 F20000 M63 P0
G93 G1 Y338.624 V83.237 F20000 M62 P0
G93 G1 Y338.72 V83.227 F20000 M63 P0
G93 G1 Y338.816 V83.216 F20000 M62 P0
G93 G1 Y338.912 V83.206 F20000 M63 P0
G93 G1 Y339.008 V83.195 F20000 M62 P0
G93 G1 Y339.104 V83.184 F20000 M63 P0
G93 G1 Y339.2 V83.174 F20000 M62 P0
G93 G1 Y339.296 V83.163 F20000 M63 P0
G93 G1 Y339.392 V83.153 F20000 M62 P0
G93 G1 Y339.488 V83.142 F20000 M63 P0
G93 G1 Y339.584 V83.132 F20000 M62 P0
G93 G1 Y339.68 V83.121 F20000 M63 P0
G93 G1 Y339.776 V83.11 F20000 M62 P0
G93 G1 Y339.872 V83.1 F20000 M63 P0
G93 G1 Y339.968 V83.089 F20000 M62 P0
G93 G1 Y340.064 V83.079 F20000 M63 P0
G93 G1 Y340.16 V83.069 F20000 M62 P0
G93 G1 Y340.256 V83.058 F20000 M63 P0
G93 G1 Y340.352 V83.048 F20000 M62 P0
G93 G1 Y340.448 V83.037 F20000 M63 P0
G93 G1 Y340.544 V83.027 F20000 M62 P0
G93 G1 Y340.64 V83.016 F20000 M63 P0
G93 G1 Y340.736 V83.006 F20000 M62 P0
G93 G1 Y340.832 V82.995 F20000 M63 P0
G93 G1 Y340.928 V82.985 F20000 M62 P0
G93 G1 Y341.024 V82.975 F20000 M63 P0
G93 G1 Y341.12 V82.964 F20000 M62 P0
G93 G1 Y341.216 V82.954 F20000 M63 P0
G93 G1 Y341.312 V82.943 F20000 M62 P0
G93 G1 Y341.408 V82.933 F20000 M63 P0
G93 G1 Y341.504 V82.923 F20000 M62 P0
G93 G1 Y341.6 V82.912 F20000 M63 P0
G93 G1 Y341.696 V82.902 F20000 M62 P0
G93 G1 Y341.792 V82.892 F20000 M63 P0
G93 G1 Y341.888 V82.881 F20000 M62 P0
G93 G1 Y341.984 V82.871 F20000 M63 P0
G93 G1 Y342.08 V82.861 F20000 M62 P0
G93 G1 Y342.176 V82.851 F20000 M63 P0
G93 G1 Y342.272 V82.84 F20000 M62 P0
G93 G1 Y342.368 V82.83 F20000 M63 P0
G93 G1 Y342.464 V82.82 F20000 M62 P0
G93 G1 Y342.56 V82.81 F20000 M63 P0
G93 G1 Y342.656 V82.799 F20000 M62 P0
G93 G1 Y342.752 V82.789 F20000 M63 P0
G93 G1 Y342.848 V82.779 F20000 M62 P0
G93 G1 Y342.944 V82.769 F20000 M63 P0
G93 G1 Y343.04 V82.758 F20000 M62 P0
G93 G1 Y343.136 V82.748 F20000 M63 P0
G93 G1 Y343.232 V82.738 F20000 M62 P0
G93 G1 Y343.328 V82.728 F20000 M63 P0
G93 G1 Y343.424 V82.718 F20000 M62 P0
G93 G1 Y343.52 V82.708 F20000 M63 P0
G93 G1 Y343.616 V82.697 F20000 M62 P0
G93 G1 Y343.712 V82.687 F20000 M63 P0
G93 G1 Y343.808 V82.677 F20000 M62 P0
G93 G1 Y343.904 V82.667 F20000 M63 P0
G93 G1 Y344.0 V82.657 F20000 M62 P0
G93 G1 Y344.096 V82.647 F20000 M63 P0
G93 G1 Y344.192 V82.637 F20000 M62 P0
G93 G1 Y344.288 V82.627 F20000 M63 P0
G93 G1 Y344.384 V82.617 F20000 M62 P0
G93 G1 Y344.48 V82.607 F20000 M63 P0
G93 G1 Y344.576 V82.596 F20000 M62 P0
G93 G1 Y344.672 V82.586 F20000 M63 P0
G93 G1 Y344.768 V82.576 F20000 M62 P0
G93 G1 Y344.864 V82.566 F20000 M63 P0
G93 G1 Y344.96 V82.556 F20000 M62 P0
G93 G1 Y345.056 V82.546 F20000 M63 P0
G93 G1 Y345.152 V82.536 F20000 M62 P0
G93 G1 Y345.248 V82.526 F20000 M63 P0
G93 G1 Y345.344 V82.516 F20000 M62 P0
G93 G1 Y345.44 V82.506 F20000 M63 P0
G93 G1 Y345.536 V82.496 F20000 M62 P0
G93 G1 Y345.632 V82.486 F20000 M63 P0
G93 G1 Y345.728 V82.477 F20000 M62 P0
G93 G1 Y345.824 V82.467 F20000 M63 P0
G93 G1 Y345.92 V82.457 F20000 M62 P0
G93 G1 Y346.016 V82.447 F20000 M63 P0
G93 G1 Y346.112 V82.437 F20000 M62 P0
G93 G1 Y346.208 V82.427 F20000 M63 P0
G93 G1 Y346.304 V82.417 F20000 M62 P0
G93 G1 Y346.4 V82.407 F20000 M63 P0
G93 G1 Y346.496 V82.397 F20000 M62 P0
G93 G1 Y346.592 V82.387 F20000 M63 P0
G93 G1 Y346.688 V82.378 F20000 M62 P0
G93 G1 Y346.784 V82.368 F20000 M63 P0
G93 G1 Y346.88 V82.358 F20000 M62 P0
G93 G1 Y346.976 V82.348 F20000 M63 P0
G93 G1 Y347.072 V82.338 F20000 M62 P0
G93 G1 Y347.168 V82.328 F20000 M63 P0
G93 G1 Y347.264 V82.319 F20000 M62 P0
G93 G1 Y347.36 V82.309 F20000 M63 P0
G93 G1 Y347.456 V82.299 F20000 M62 P0
G93 G1 Y347.552 V82.289 F20000 M63 P0
G93 G1 Y347.648 V82.279 F20000 M62 P0
G93 G1 Y347.744 V82.27 F20000 M63 P0
G93 G1 Y347.84 V82.26 F20000 M62 P0
G93 G1 Y347.936 V82.25 F20000 M63 P0
G93 G1 Y348.032 V82.24 F20000 M62 P0
G93 G1 Y348.128 V82.231 F20000 M63 P0
G93 G1 Y348.224 V82.221 F20000 M62 P0
G93 G1 Y348.32 V82.211 F20000 M63 P0
G93 G1 Y348.416 V82.202 F20000 M62 P0
G93 G1 Y348.512 V82.192 F20000 M63 P0
G93 G1 Y348.608 V82.182 F20000 M62 P0
G93 G1 Y348.704 V82.173 F20000 M63 P0
G93 G1 Y348.8 V82.163 F20000 M62 P0
G93 G1 Y348.896 V82.153 F20000 M63 P0
G93 G1 Y348.992 V82.144 F20000 M62 P0
G93 G1 Y349.088 V82.134 F20000 M63 P0
G93 G1 Y349.184 V82.124 F20000 M62 P0
G93 G1 Y349.28 V82.115 F20000 M63 P0
G93 G1 Y349.376 V82.105 F20000 M62 P0
G93 G1 Y349.472 V82.096 F20000 M63 P0
G93 G1 Y349.568 V82.086 F20000 M62 P0
G93 G1 Y349.664 V82.076 F20000 M63 P0
G93 G1 Y349.76 V82.067 F20000 M62 P0
G93 G1 Y349.856 V82.057 F20000 M63 P0
G93 G1 Y349.952 V82.048 F20000 M62 P0
G93 G1 Y350.048 V82.038 F20000 M63 P0
G93 G1 Y350.144 V82.029 F20000 M62 P0
G93 G1 Y350.24 V82.019 F20000 M63 P0
G93 G1 Y350.336 V82.009 F20000 M62 P0
G93 G1 Y350.432 V82.0 F20000 M63 P0
G93 G1 Y350.528 V81.99 F20000 M62 P0
G93 G1 Y350.624 V81.981 F20000 M63 P0
G93 G1 Y350.72 V81.971 F20000 M62 P0
G93 G1 Y350.816 V81.962 F20000 M63 P0
G93 G1 Y350.912 V81.952 F20000 M62 P0
G93 G1 Y351.008 V81.943 F20000 M63 P0
G93 G1 Y351.104 V81.934 F20000 M62 P0
G93 G1 Y351.2 V81.924 F20000 M63 P0
G93 G1 Y351.296 V81.915 F20000 M62 P0
G93 G1 Y351.392 V81.905 F20000 M63 P0
G93 G1 Y351.488 V81.896 F20000 M62 P0
G93 G1 Y351.584 V81.886 F20000 M63 P0
G93 G1 Y351.68 V81.877 F20000 M62 P0
G93 G1 Y351.776 V81.868 F20000 M63 P0
G93 G1 Y351.872 V81.858 F20000 M62 P0
G93 G1 Y351.968 V81.849 F20000 M63 P0
G93 G1 Y352.064 V81.839 F20000 M62 P0
G93 G1 Y352.16 V81.83 F20000 M63 P0
G93 G1 Y352.256 V81.821 F20000 M62 P0
G93 G1 Y352.352 V81.811 F20000 M63 P0
G93 G1 Y352.448 V81.802 F20000 M62 P0
G93 G1 Y352.544 V81.793 F20000 M63 P0
G93 G1 Y352.64 V81.783 F20000 M62 P0
G93 G1 Y352.736 V81.774 F20000 M63 P0
G93 G1 Y352.832 V81.765 F20000 M62 P0
G93 G1 Y352.928 V81.755 F20000 M63 P0
G93 G1 Y353.024 V81.746 F20000 M62 P0
G93 G1 Y353.12 V81.737 F20000 M63 P0
G93 G1 Y353.216 V81.728 F20000 M62 P0
G93 G1 Y353.312 V81.718 F20000 M63 P0
G93 G1 Y353.408 V81.709 F20000 M62 P0
G93 G1 Y353.504 V81.7 F20000 M63 P0
G93 G1 Y353.6 V81.691 F20000 M62 P0
G93 G1 Y353.696 V81.681 F20000 M63 P0
G93 G1 Y353.792 V81.672 F20000 M62 P0
G93 G1 Y353.888 V81.663 F20000 M63 P0
G93 G1 Y353.984 V81.654 F20000 M62 P0
G93 G1 Y354.08 V81.644 F20000 M63 P0
G93 G1 Y354.176 V81.635 F20000 M62 P0
G93 G1 Y354.272 V81.626 F20000 M63 P0
G93 G1 Y354.368 V81.617 F20000 M62 P0
G93 G1 Y354.464 V81.608 F20000 M63 P0
G93 G1 Y354.56 V81.599 F20000 M62 P0
G93 G1 Y354.656 V81.589 F20000 M63 P0
G93 G1 Y354.752 V81.58 F20000 M62 P0
G93 G1 Y354.848 V81.571 F20000 M63 P0
G93 G1 Y354.944 V81.562 F20000 M62 P0
G93 G1 Y355.04 V81.553 F20000 M63 P0
G93 G1 Y355.136 V81.544 F20000 M62 P0
G93 G1 Y355.232 V81.535 F20000 M63 P0
G93 G1 Y355.328 V81.525 F20000 M62 P0
G93 G1 Y355.424 V81.516 F20000 M63 P0
G93 G1 Y355.52 V81.507 F20000 M62 P0
G93 G1 Y355.616 V81.498 F20000 M63 P0
G93 G1 Y355.712 V81.489 F20000 M62 P0
G93 G1 Y355.808 V81.48 F20000 M63 P0
G93 G1 Y355.904 V81.471 F20000 M62 P0
G93 G1 Y356.0 V81.462 F20000 M63 P0
G93 G1 Y356.096 V81.453 F20000 M62 P0
G93 G1 Y356.192 V81.444 F20000 M63 P0
G93 G1 Y356.288 V81.435 F20000 M62 P0
G93 G1 Y356.384 V81.426 F20000 M63 P0
G93 G1 Y356.48 V81.417 F20000 M62 P0
G93 G1 Y356.576 V81.408 F20000 M63 P0
G93 G1 Y356.672 V81.399 F20000 M62 P0
G93 G1 Y356.768 V81.39 F20000 M63 P0
G93 G1 Y356.864 V81.381 F20000 M62 P0
G93 G1 Y356.96 V81.372 F20000 M63 P0
G93 G1 Y357.056 V81.363 F20000 M62 P0
G93 G1 Y357.152 V81.354 F20000 M63 P0
G93 G1 Y357.248 V81.345 F20000 M62 P0
G93 G1 Y357.344 V81.336 F20000 M63 P0
G93 G1 Y357.44 V81.327 F20000 M62 P0
G93 G1 Y357.536 V81.318 F20000 M63 P0
G93 G1 Y357.632 V81.309 F20000 M62 P0
G93 G1 Y357.728 V81.301 F20000 M63 P0
G93 G1 Y357.824 V81.292 F20000 M62 P0
G93 G1 Y357.92 V81.283 F20000 M63 P0
G93 G1 Y358.016 V81.274 F20000 M62 P0
G93 G1 Y358.112 V81.265 F20000 M63 P0
G93 G1 Y358.208 V81.256 F20000 M62 P0
G93 G1 Y358.304 V81.247 F20000 M63 P0
G93 G1 Y358.4 V81.238 F20000 M62 P0
G93 G1 Y358.496 V81.23 F20000 M63 P0
G93 G1 Y358.592 V81.221 F20000 M62 P0
G93 G1 Y358.688 V81.212 F20000 M63 P0
G93 G1 Y358.784 V81.203 F20000 M62 P0
G93 G1 Y358.88 V81.194 F20000 M63 P0
G93 G1 Y358.976 V81.185 F20000 M62 P0
G93 G1 Y359.072 V81.177 F20000 M63 P0
G93 G1 Y359.168 V81.168 F20000 M62 P0
G93 G1 Y359.264 V81.159 F20000 M63 P0
G93 G1 Y359.36 V81.15 F20000 M62 P0
G93 G1 Y359.456 V81.142 F20000 M63 P0
G93 G1 Y359.552 V81.133 F20000 M62 P0
G93 G1 Y359.648 V81.124 F20000 M63 P0
G93 G1 Y359.744 V81.115 F20000 M62 P0
G93 G1 Y359.84 V81.107 F20000 M63 P0
G93 G1 Y359.936 V81.098 F20000 M62 P0
G93 G1 Y360.032 V81.089 F20000 M63 P0
G93 G1 Y360.128 V81.08 F20000 M62 P0
G93 G1 Y360.224 V81.072 F20000 M63 P0
G93 G1 Y360.32 V81.063 F20000 M62 P0
G93 G1 Y360.416 V81.054 F20000 M63 P0
G93 G1 Y360.512 V81.046 F20000 M62 P0
G93 G1 Y360.608 V81.037 F20000 M63 P0
G93 G1 Y360.704 V81.028 F20000 M62 P0
G93 G1 Y360.8 V81.02 F20000 M63 P0
G93 G1 Y360.896 V81.011 F20000 M62 P0
G93 G1 Y360.992 V81.002 F20000 M63 P0
G93 G1 Y361.088 V80.994 F20000 M62 P0
G93 G1 Y361.184 V80.985 F20000 M63 P0
G93 G1 Y361.28 V80.976 F20000 M62 P0
G93 G1 Y361.376 V80.968 F20000 M63 P0
G93 G1 Y361.472 V80.959 F20000 M62 P0
G93 G1 Y361.568 V80.951 F20000 M63 P0
G93 G1 Y361.664 V80.942 F20000 M62 P0
G93 G1 Y361.76 V80.933 F20000 M63 P0
G93 G1 Y361.856 V80.925 F20000 M62 P0
G93 G1 Y361.952 V80.916 F20000 M63 P0
G93 G1 Y362.048 V80.908 F20000 M62 P0
G93 G1 Y362.144 V80.899 F20000 M63 P0
G93 G1 Y362.24 V80.89 F20000 M62 P0
G93 G1 Y362.336 V80.882 F20000 M63 P0
G93 G1 Y362.432 V80.873 F20000 M62 P0
G93 G1 Y362.528 V80.865 F20000 M63 P0
G93 G1 Y362.624 V80.856 F20000 M62 P0
G93 G1 Y362.72 V80.848 F20000 M63 P0
G93 G1 Y362.816 V80.839 F20000 M62 P0
G93 G1 Y362.912 V80.831 F20000 M63 P0
G93 G1 Y363.008 V80.822 F20000 M62 P0
G93 G1 Y363.104 V80.814 F20000 M63 P0
G93 G1 Y363.2 V80.805 F20000 M62 P0
G93 G1 Y363.296 V80.797 F20000 M63 P0
G93 G1 Y363.392 V80.788 F20000 M62 P0
G93 G1 Y363.488 V80.78 F20000 M63 P0
G93 G1 Y363.584 V80.771 F20000 M62 P0
G93 G1 Y363.68 V80.763 F20000 M63 P0
G93 G1 Y363.776 V80.755 F20000 M62 P0
G93 G1 Y363.872 V80.746 F20000 M63 P0
G93 G1 Y363.968 V80.738 F20000 M62 P0
G93 G1 Y364.064 V80.729 F20000 M63 P0
G93 G1 Y364.16 V80.721 F20000 M62 P0
G93 G1 Y364.256 V80.713 F20000 M63 P0
G93 G1 Y364.352 V80.704 F20000 M62 P0
G93 G1 Y364.448 V80.696 F20000 M63 P0
G93 G1 Y364.544 V80.687 F20000 M62 P0
G93 G1 Y364.64 V80.679 F20000 M63 P0
G93 G1 Y364.736 V80.671 F20000 M62 P0
G93 G1 Y364.832 V80.662 F20000 M63 P0
G93 G1 Y364.928 V80.654 F20000 M62 P0
G93 G1 Y365.024 V80.646 F20000 M63 P0
G93 G1 Y365.12 V80.637 F20000 M62 P0
G93 G1 Y365.216 V80.629 F20000 M63 P0
G93 G1 Y365.312 V80.621 F20000 M62 P0
G93 G1 Y365.408 V80.612 F20000 M63 P0
G93 G1 Y365.504 V80.604 F20000 M62 P0
G93 G1 Y365.6 V80.596 F20000 M63 P0
G93 G1 Y365.696 V80.587 F20000 M62 P0
G93 G1 Y365.792 V80.579 F20000 M63 P0
G93 G1 Y365.888 V80.571 F20000 M62 P0
G93 G1 Y365.984 V80.562 F20000 M63 P0
G93 G1 Y366.08 V80.554 F20000 M62 P0
G93 G1 Y366.176 V80.546 F20000 M63 P0
G93 G1 Y366.272 V80.538 F20000 M62 P0
G93 G1 Y366.368 V80.529 F20000 M63 P0
G93 G1 Y366.464 V80.521 F20000 M62 P0
G93 G1 Y366.56 V80.513 F20000 M63 P0
G93 G1 Y366.656 V80.505 F20000 M62 P0
G93 G1 Y366.752 V80.497 F20000 M63 P0
G93 G1 Y366.848 V80.488 F20000 M62 P0
G93 G1 Y366.944 V80.48 F20000 M63 P0
G93 G1 Y367.04 V80.472 F20000 M62 P0
G93 G1 Y367.136 V80.464 F20000 M63 P0
G93 G1 Y367.232 V80.456 F20000 M62 P0
G93 G1 Y367.328 V80.447 F20000 M63 P0
G93 G1 Y367.424 V80.439 F20000 M62 P0
G93 G1 Y367.52 V80.431 F20000 M63 P0
G93 G1 Y367.616 V80.423 F20000 M62 P0
G93 G1 Y367.712 V80.415 F20000 M63 P0
G93 G1 Y367.808 V80.407 F20000 M62 P0
G93 G1 Y367.904 V80.398 F20000 M63 P0
G93 G1 Y368.0 V80.39 F20000 M62 P0
G93 G1 Y368.096 V80.382 F20000 M63 P0
G93 G1 Y368.192 V80.374 F20000 M62 P0
G93 G1 Y368.288 V80.366 F20000 M63 P0
G93 G1 Y368.384 V80.358 F20000 M62 P0
G93 G1 Y368.48 V80.35 F20000 M63 P0
G93 G1 Y368.576 V80.342 F20000 M62 P0
G93 G1 Y368.672 V80.334 F20000 M63 P0
G93 G1 Y368.768 V80.325 F20000 M62 P0
G93 G1 Y368.864 V80.317 F20000 M63 P0
G93 G1 Y368.96 V80.309 F20000 M62 P0
G93 G1 Y369.056 V80.301 F20000 M63 P0
G93 G1 Y369.152 V80.293 F20000 M62 P0
G93 G1 Y369.248 V80.285 F20000 M63 P0
G93 G1 Y369.344 V80.277 F20000 M62 P0
G93 G1 Y369.44 V80.269 F20000 M63 P0
G93 G1 Y369.536 V80.261 F20000 M62 P0
G93 G1 Y369.632 V80.253 F20000 M63 P0
G93 G1 Y369.728 V80.245 F20000 M62 P0
G93 G1 Y369.824 V80.237 F20000 M63 P0
G93 G1 Y369.92 V80.229 F20000 M62 P0
G93 G1 Y370.016 V80.221 F20000 M63 P0
G93 G1 Y370.112 V80.213 F20000 M62 P0
G93 G1 Y370.208 V80.205 F20000 M63 P0
G93 G1 Y370.304 V80.197 F20000 M62 P0
G93 G1 Y370.4 V80.189 F20000 M63 P0
G93 G1 Y370.496 V80.181 F20000 M62 P0
G93 G1 Y370.592 V80.173 F20000 M63 P0
G93 G1 Y370.688 V80.165 F20000 M62 P0
G93 G1 Y370.784 V80.157 F20000 M63 P0
G93 G1 Y370.88 V80.149 F20000 M62 P0
G93 G1 Y370.976 V80.141 F20000 M63 P0
G93 G1 Y371.072 V80.134 F20000 M62 P0
G93 G1 Y371.168 V80.126 F20000 M63 P0
G93 G1 Y371.264 V80.118 F20000 M62 P0
G93 G1 Y371.36 V80.11 F20000 M63 P0
G93 G1 Y371.456 V80.102 F20000 M62 P0
G93 G1 Y371.552 V80.094 F20000 M63 P0
G93 G1 Y371.648 V80.086 F20000 M62 P0
G93 G1 Y371.744 V80.078 F20000 M63 P0
G93 G1 Y371.84 V80.07 F20000 M62 P0
G93 G1 Y371.936 V80.063 F20000 M63 P0
G93 G1 Y372.032 V80.055 F20000 M62 P0
G93 G1 Y372.128 V80.047 F20000 M63 P0
G93 G1 Y372.224 V80.039 F20000 M62 P0
G93 G1 Y372.32 V80.031 F20000 M63 P0
G93 G1 Y372.416 V80.023 F20000 M62 P0
G93 G1 Y372.512 V80.015 F20000 M63 P0
G93 G1 Y372.608 V80.008 F20000 M62 P0
G93 G1 Y372.704 V80.0 F20000 M63 P0
G93 G1 Y372.8 V79.992 F20000 M62 P0
G93 G1 Y372.896 V79.984 F20000 M63 P0
G93 G1 Y372.992 V79.976 F20000 M62 P0
G93 G1 Y373.088 V79.969 F20000 M63 P0
G93 G1 Y373.184 V79.961 F20000 M62 P0
G93 G1 Y373.28 V79.953 F20000 M63 P0
G93 G1 Y373.376 V79.945 F20000 M62 P0
G93 G1 Y373.472 V79.938 F20000 M63 P0
G93 G1 Y373.568 V79.93 F20000 M62 P0
G93 G1 Y373.664 V79.922 F20000 M63 P0
G93 G1 Y373.76 V79.914 F20000 M62 P0
G93 G1 Y373.856 V79.907 F20000 M63 P0
G93 G1 Y373.952 V79.899 F20000 M62 P0
G93 G1 Y374.048 V79.891 F20000 M63 P0
G93 G1 Y374.144 V79.883 F20000 M62 P0
G93 G1 Y374.24 V79.876 F20000 M63 P0
G93 G1 Y374.336 V79.868 F20000 M62 P0
G93 G1 Y374.432 V79.86 F20000 M63 P0
G93 G1 Y374.528 V79.853 F20000 M62 P0
G93 G1 Y374.624 V79.845 F20000 M63 P0
G93 G1 Y374.72 V79.837 F20000 M62 P0
G93 G1 Y374.816 V79.83 F20000 M63 P0
G93 G1 Y374.912 V79.822 F20000 M62 P0
G93 G1 Y375.008 V79.814 F20000 M63 P0
G93 G1 Y375.104 V79.807 F20000 M62 P0
G93 G1 Y375.2 V79.799 F20000 M63 P0
G93 G1 Y375.296 V79.791 F20000 M62 P0
G93 G1 Y375.392 V79.784 F20000 M63 P0
G93 G1 Y375.488 V79.776 F20000 M62 P0
G93 G1 Y375.584 V79.768 F20000 M63 P0
G93 G1 Y375.68 V79.761 F20000 M62 P0
G93 G1 Y375.776 V79.753 F20000 M63 P0
G93 G1 Y375.872 V79.746 F20000 M62 P0
G93 G1 Y375.968 V79.738 F20000 M63 P0
G93 G1 Y376.064 V79.73 F20000 M62 P0
G93 G1 Y376.16 V79.723 F20000 M63 P0
G93 G1 Y376.256 V79.715 F20000 M62 P0
G93 G1 Y376.352 V79.708 F20000 M63 P0
G93 G1 Y376.448 V79.7 F20000 M62 P0
G93 G1 Y376.544 V79.692 F20000 M63 P0
G93 G1 Y376.64 V79.685 F20000 M62 P0
G93 G1 Y376.736 V79.677 F20000 M63 P0
G93 G1 Y376.832 V79.67 F20000 M62 P0
G93 G1 Y376.928 V79.662 F20000 M63 P0
G93 G1 Y377.024 V79.655 F20000 M62 P0
G93 G1 Y377.12 V79.647 F20000 M63 P0
G93 G1 Y377.216 V79.64 F20000 M62 P0
G93 G1 Y377.312 V79.632 F20000 M63 P0
G93 G1 Y377.408 V79.625 F20000 M62 P0
G93 G1 Y377.504 V79.617 F20000 M63 P0
G93 G1 Y377.6 V79.61 F20000 M62 P0
G93 G1 Y377.696 V79.602 F20000 M63 P0
G93 G1 Y377.792 V79.595 F20000 M62 P0
G93 G1 Y377.888 V79.587 F20000 M63 P0
G93 G1 Y377.984 V79.58 F20000 M62 P0
G93 G1 Y378.08 V79.572 F20000 M63 P0
G93 G1 Y378.176 V79.565 F20000 M62 P0
G93 G1 Y378.272 V79.557 F20000 M63 P0
G93 G1 Y378.368 V79.55 F20000 M62 P0
G93 G1 Y378.464 V79.542 F20000 M63 P0
G93 G1 Y378.56 V79.535 F20000 M62 P0
G93 G1 Y378.656 V79.528 F20000 M63 P0
G93 G1 Y378.752 V79.52 F20000 M62 P0
G93 G1 Y378.848 V79.513 F20000 M63 P0
G93 G1 Y378.944 V79.505 F20000 M62 P0
G93 G1 Y379.04 V79.498 F20000 M63 P0
G93 G1 Y379.136 V79.49 F20000 M62 P0
G93 G1 Y379.232 V79.483 F20000 M63 P0
G93 G1 Y379.328 V79.476 F20000 M62 P0
G93 G1 Y379.424 V79.468 F20000 M63 P0
G93 G1 Y379.52 V79.461 F20000 M62 P0
G93 G1 Y379.616 V79.454 F20000 M63 P0
G93 G1 Y379.712 V79.446 F20000 M62 P0
G93 G1 Y379.808 V79.439 F20000 M63 P0
G93 G1 Y379.904 V79.431 F20000 M62 P0
G93 G1 Y380.0 V79.424 F20000 M63 P0
G93 G1 Y380.096 V79.417 F20000 M62 P0
G93 G1 Y380.192 V79.409 F20000 M63 P0
G93 G1 Y380.288 V79.402 F20000 M62 P0
G93 G1 Y380.384 V79.395 F20000 M63 P0
G93 G1 Y380.48 V79.387 F20000 M62 P0
G93 G1 Y380.576 V79.38 F20000 M63 P0
G93 G1 Y380.672 V79.373 F20000 M62 P0
G93 G1 Y380.768 V79.365 F20000 M63 P0
G93 G1 Y380.864 V79.358 F20000 M62 P0
G93 G1 Y380.96 V79.351 F20000 M63 P0
G93 G1 Y381.056 V79.344 F20000 M62 P0
G93 G1 Y381.152 V79.336 F20000 M63 P0
G93 G1 Y381.248 V79.329 F20000 M62 P0
G93 G1 Y381.344 V79.322 F20000 M63 P0
G93 G1 Y381.44 V79.315 F20000 M62 P0
G93 G1 Y381.536 V79.307 F20000 M63 P0
G93 G1 Y381.632 V79.3 F20000 M62 P0
G93 G1 Y381.728 V79.293 F20000 M63 P0
G93 G1 Y381.824 V79.285 F20000 M62 P0
G93 G1 Y381.92 V79.278 F20000 M63 P0
G93 G1 Y382.016 V79.271 F20000 M62 P0
G93 G1 Y382.112 V79.264 F20000 M63 P0
G93 G1 Y382.208 V79.257 F20000 M62 P0
G93 G1 Y382.304 V79.249 F20000 M63 P0
G93 G1 Y382.4 V79.242 F20000 M62 P0
G93 G1 Y382.496 V79.235 F20000 M63 P0
G93 G1 Y382.592 V79.228 F20000 M62 P0
G93 G1 Y382.688 V79.221 F20000 M63 P0
G93 G1 Y382.784 V79.213 F20000 M62 P0
G93 G1 Y382.88 V79.206 F20000 M63 P0
G93 G1 Y382.976 V79.199 F20000 M62 P0
G93 G1 Y383.072 V79.192 F20000 M63 P0
G93 G1 Y383.168 V79.185 F20000 M62 P0
G93 G1 Y383.264 V79.177 F20000 M63 P0
G93 G1 Y383.36 V79.17 F20000 M62 P0
G93 G1 Y383.456 V79.163 F20000 M63 P0
G93 G1 Y383.552 V79.156 F20000 M62 P0
G93 G1 Y383.648 V79.149 F20000 M63 P0
G93 G1 Y383.744 V79.142 F20000 M62 P0
G93 G1 Y383.84 V79.135 F20000 M63 P0
G93 G1 Y383.936 V79.128 F20000 M62 P0
G93 G1 Y384.032 V79.12 F20000 M63 P0
G93 G1 Y384.128 V79.113 F20000 M62 P0
G93 G1 Y384.224 V79.106 F20000 M63 P0
G93 G1 Y384.32 V79.099 F20000 M62 P0
G93 G1 Y384.416 V79.092 F20000 M63 P0
G93 G1 Y384.512 V79.085 F20000 M62 P0
G93 G1 Y384.608 V79.078 F20000 M63 P0
G93 G1 Y384.704 V79.071 F20000 M62 P0
G93 G1 Y384.8 V79.064 F20000 M63 P0
G93 G1 Y384.896 V79.057 F20000 M62 P0
G93 G1 Y384.992 V79.05 F20000 M63 P0
G93 G1 Y385.088 V79.042 F20000 M62 P0
G93 G1 Y385.184 V79.035 F20000 M63 P0
G93 G1 Y385.28 V79.028 F20000 M62 P0
G93 G1 Y385.376 V79.021 F20000 M63 P0
G93 G1 Y385.472 V79.014 F20000 M62 P0
G93 G1 Y385.568 V79.007 F20000 M63 P0
G93 G1 Y385.664 V79.0 F20000 M62 P0
G93 G1 Y385.76 V78.993 F20000 M63 P0
G93 G1 Y385.856 V78.986 F20000 M62 P0
G93 G1 Y385.952 V78.979 F20000 M63 P0
G93 G1 Y386.048 V78.972 F20000 M62 P0
G93 G1 Y386.144 V78.965 F20000 M63 P0
G93 G1 Y386.24 V78.958 F20000 M62 P0
G93 G1 Y386.336 V78.951 F20000 M63 P0
G93 G1 Y386.432 V78.944 F20000 M62 P0
G93 G1 Y386.528 V78.937 F20000 M63 P0
G93 G1 Y386.624 V78.93 F20000 M62 P0
G93 G1 Y386.72 V78.923 F20000 M63 P0
G93 G1 Y386.816 V78.916 F20000 M62 P0
G93 G1 Y386.912 V78.909 F20000 M63 P0
G93 G1 Y387.008 V78.902 F20000 M62 P0
G93 G1 Y387.104 V78.895 F20000 M63 P0
G93 G1 Y387.2 V78.889 F20000 M62 P0
G93 G1 Y387.296 V78.882 F20000 M63 P0
G93 G1 Y387.392 V78.875 F20000 M62 P0
G93 G1 Y387.488 V78.868 F20000 M63 P0
G93 G1 Y387.584 V78.861 F20000 M62 P0
G93 G1 Y387.68 V78.854 F20000 M63 P0
G93 G1 Y387.776 V78.847 F20000 M62 P0
G93 G1 Y387.872 V78.84 F20000 M63 P0
G93 G1 Y387.968 V78.833 F20000 M62 P0
G93 G1 Y388.064 V78.826 F20000 M63 P0
G93 G1 Y388.16 V78.819 F20000 M62 P0
G93 G1 Y388.256 V78.813 F20000 M63 P0
G93 G1 Y388.352 V78.806 F20000 M62 P0
G93 G1 Y388.448 V78.799 F20000 M63 P0
G93 G1 Y388.544 V78.792 F20000 M62 P0
G93 G1 Y388.64 V78.785 F20000 M63 P0
G93 G1 Y388.736 V78.778 F20000 M62 P0
G93 G1 Y388.832 V78.771 F20000 M63 P0
G93 G1 Y388.928 V78.764 F20000 M62 P0
G93 G1 Y389.024 V78.758 F20000 M63 P0
G93 G1 Y389.12 V78.751 F20000 M62 P0
G93 G1 Y389.216 V78.744 F20000 M63 P0
G93 G1 Y389.312 V78.737 F20000 M62 P0
G93 G1 Y389.408 V78.73 F20000 M63 P0
G93 G1 Y389.504 V78.723 F20000 M62 P0
G93 G1 Y389.6 V78.717 F20000 M63 P0
G93 G1 Y389.696 V78.71 F20000 M62 P0
G93 G1 Y389.792 V78.703 F20000 M63 P0
G93 G1 Y389.888 V78.696 F20000 M62 P0
G93 G1 Y389.984 V78.689 F20000 M63 P0
G93 G1 Y390.08 V78.683 F20000 M62 P0
G93 G1 Y390.176 V78.676 F20000 M63 P0
G93 G1 Y390.272 V78.669 F20000 M62 P0
G93 G1 Y390.368 V78.662 F20000 M63 P0
G93 G1 Y390.464 V78.656 F20000 M62 P0
G93 G1 Y390.56 V78.649 F20000 M63 P0
G93 G1 Y390.656 V78.642 F20000 M62 P0
G93 G1 Y390.752 V78.635 F20000 M63 P0
G93 G1 Y390.848 V78.629 F20000 M62 P0
G93 G1 Y390.944 V78.622 F20000 M63 P0
G93 G1 Y391.04 V78.615 F20000 M62 P0
G93 G1 Y391.136 V78.608 F20000 M63 P0
G93 G1 Y391.232 V78.602 F20000 M62 P0
G93 G1 Y391.328 V78.595 F20000 M63 P0
G93 G1 Y391.424 V78.588 F20000 M62 P0
