%
(2025-33-14, 14:33:00, Florian Amoser)
(This is machine specific gcode for SPLICER)
(250214_looking-out-450_0-1500.ngc)
(linenumbers: 1500)
(color: a)
(exposure time: 3200μs)
G90 G17
G21
G01 F5000
G0 X-10.0 Y700.0 Z80.0 A-624.564 B0.0 C0.0 U0.0
M100
G93 G1 F20000 M63 P0
G93 G1 X0.01 F20000 M62 P0
G93 G1 X-0.01 F20000 M63 P0
G93 G1 X0.01 F20000 M62 P0
G93 G1 X-0.01 F20000 M63 P0
G93 G1 X0.01 F20000 M62 P0
G93 G1 X-0.01 F20000 M63 P0
G93 G1 X0.01 F20000 M62 P0
G93 G1 X-0.01 F20000 M63 P0
G93 G1 X0.01 F20000 M62 P0
G93 G1 X-0.01 F20000 M63 P0
G93 G1 X0.01 F20000 M62 P0
G93 G1 X-0.01 F20000 M63 P0
G93 G1 X0.01 F20000 M62 P0
G93 G1 X-0.01 F20000 M63 P0
G93 G1 X0.01 F20000 M62 P0
G93 G1 X-0.01 F20000 M63 P0
G93 G1 X0.01 F20000 M62 P0
G93 G1 X-0.01 F20000 M63 P0
G93 G1 X0.01 F20000 M62 P0
G93 G1 X-0.01 F20000 M63 P0
G93 G1 X0.01 F20000 M62 P0
G93 G1 X-0.01 F20000 M63 P0
G93 G1 X0.01 F20000 M62 P0
G93 G1 X-0.01 F20000 M63 P0
G93 G1 X0.01 F20000 M62 P0
G93 G1 X-0.01 F20000 M63 P0
G93 G1 X0.01 F20000 M62 P0
G93 G1 X-0.01 F20000 M63 P0
G93 G1 X0.01 F20000 M62 P0
G93 G1 X-0.01 F20000 M63 P0
G93 G1 X0.01 F20000 M62 P0
G93 G1 X-0.01 F20000 M63 P0
G93 G1 X0.01 F20000 M62 P0
G93 G1 X-0.01 F20000 M63 P0
G93 G1 X0.01 F20000 M62 P0
G93 G1 X-0.01 F20000 M63 P0
G93 G1 X0.01 F20000 M62 P0
G93 G1 X-0.01 F20000 M63 P0
G93 G1 X0.01 F20000 M62 P0
G93 G1 X-0.01 F20000 M63 P0
G93 G1 X0.01 F20000 M62 P0
G93 G1 X-0.01 F20000 M63 P0
G93 G1 X0.01 F20000 M62 P0
G93 G1 X-0.01 F20000 M63 P0
G93 G1 X0.01 F20000 M62 P0
G93 G1 X-0.01 F20000 M63 P0
G93 G1 X0.01 F20000 M62 P0
G93 G1 X-0.01 F20000 M63 P0
G93 G1 X0.01 F20000 M62 P0
G93 G1 X-0.01 F20000 M63 P0
G93 G1 X0.01 F20000 M62 P0
G93 G1 X-0.01 F20000 M63 P0
G93 G1 X0.01 F20000 M62 P0
G93 G1 X-0.01 F20000 M63 P0
G93 G1 X0.01 F20000 M62 P0
G93 G1 X-0.01 F20000 M63 P0
G93 G1 X0.01 F20000 M62 P0
G93 G1 X-0.01 F20000 M63 P0
G93 G1 X0.01 F20000 M62 P0
G93 G1 X-0.01 F20000 M63 P0
G93 G1 X0.01 F20000 M62 P0
G93 G1 X-0.01 F20000 M63 P0
G93 G1 X0.01 F20000 M62 P0
G93 G1 X-0.01 F20000 M63 P0
G93 G1 X0.01 F20000 M62 P0
G93 G1 X-0.01 F20000 M63 P0
G93 G1 X0.01 F20000 M62 P0
G93 G1 X-0.01 F20000 M63 P0
G93 G1 X0.01 F20000 M62 P0
G93 G1 X-0.01 F20000 M63 P0
G93 G1 X0.01 F20000 M62 P0
G93 G1 X-0.01 F20000 M63 P0
G93 G1 X0.01 F20000 M62 P0
G93 G1 X-0.01 F20000 M63 P0
G93 G1 X0.01 F20000 M62 P0
G93 G1 X-0.01 F20000 M63 P0
G93 G1 X0.01 F20000 M62 P0
G93 G1 X-0.01 F20000 M63 P0
G93 G1 X0.01 F20000 M62 P0
G93 G1 X-0.01 F20000 M63 P0
G93 G1 X0.01 F20000 M62 P0
G93 G1 X-0.01 F20000 M63 P0
G93 G1 X0.01 F20000 M62 P0
G93 G1 X-0.01 F20000 M63 P0
G93 G1 X0.01 F20000 M62 P0
G93 G1 X-0.01 F20000 M63 P0
G93 G1 X0.01 F20000 M62 P0
G93 G1 X-0.01 F20000 M63 P0
G93 G1 X0.01 F20000 M62 P0
G93 G1 X-0.01 F20000 M63 P0
G93 G1 X0.01 F20000 M62 P0
G93 G1 X-0.01 F20000 M63 P0
G93 G1 X0.01 F20000 M62 P0
G93 G1 X-0.01 F20000 M63 P0
G93 G1 X0.01 F20000 M62 P0
G93 G1 X-0.01 F20000 M63 P0
G93 G1 X0.01 F20000 M62 P0
G93 G1 X-0.01 F20000 M63 P0
G93 G1 X0.01 F20000 M62 P0
G93 G1 X-0.01 F20000 M63 P0
G93 G1 X0.01 F20000 M62 P0
G93 G1 X-0.01 F20000 M63 P0
G93 G1 X0.01 F20000 M62 P0
G93 G1 X-0.01 F20000 M63 P0
G93 G1 X0.01 F20000 M62 P0
G93 G1 X-0.01 F20000 M63 P0
G93 G1 X0.01 F20000 M62 P0
G93 G1 X-0.01 F20000 M63 P0
G93 G1 X0.01 F20000 M62 P0
G93 G1 X-0.01 F20000 M63 P0
G93 G1 X0.01 F20000 M62 P0
G93 G1 X-0.01 F20000 M63 P0
G93 G1 X0.01 F20000 M62 P0
G93 G1 X-0.01 F20000 M63 P0
G93 G1 X0.01 F20000 M62 P0
G93 G1 X-0.01 F20000 M63 P0
G93 G1 X0.01 F20000 M62 P0
G93 G1 X-0.01 F20000 M63 P0
G93 G1 X0.01 F20000 M62 P0
G93 G1 X-0.01 F20000 M63 P0
G93 G1 X0.01 F20000 M62 P0
G93 G1 X-0.01 F20000 M63 P0
G93 G1 X0.01 F20000 M62 P0
G93 G1 X-0.01 F20000 M63 P0
G93 G1 X0.01 F20000 M62 P0
G93 G1 X-0.01 F20000 M63 P0
G93 G1 X0.01 F20000 M62 P0
G93 G1 X-0.01 F20000 M63 P0
G93 G1 X0.01 F20000 M62 P0
G93 G1 X-0.01 F20000 M63 P0
G93 G1 X0.01 F20000 M62 P0
G93 G1 X-0.01 F20000 M63 P0
G93 G1 X0.01 F20000 M62 P0
G93 G1 X-0.01 F20000 M63 P0
G93 G1 X0.01 F20000 M62 P0
G93 G1 X-0.01 F20000 M63 P0
G93 G1 X0.01 F20000 M62 P0
G93 G1 X-0.01 F20000 M63 P0
G93 G1 X0.01 F20000 M62 P0
G93 G1 X-0.01 F20000 M63 P0
G93 G1 X0.01 F20000 M62 P0
G93 G1 X-0.01 F20000 M63 P0
G93 G1 X0.01 F20000 M62 P0
G93 G1 X-0.01 F20000 M63 P0
G93 G1 X0.01 F20000 M62 P0
G93 G1 X-0.01 F20000 M63 P0
G93 G1 X0.01 F20000 M62 P0
G93 G1 X-0.01 F20000 M63 P0
G93 G1 X0.01 F20000 M62 P0
G93 G1 X-0.01 F20000 M63 P0
G93 G1 X0.01 F20000 M62 P0
G93 G1 X-0.01 F20000 M63 P0
G93 G1 X0.01 F20000 M62 P0
G93 G1 X-0.01 F20000 M63 P0
G93 G1 X0.01 F20000 M62 P0
G93 G1 X-0.01 F20000 M63 P0
G93 G1 X0.01 F20000 M62 P0
G93 G1 X-0.01 F20000 M63 P0
G93 G1 X0.01 F20000 M62 P0
G93 G1 X-0.01 F20000 M63 P0
G93 G1 X0.01 F20000 M62 P0
G93 G1 X-0.01 F20000 M63 P0
G93 G1 X0.01 F20000 M62 P0
G93 G1 X-0.01 F20000 M63 P0
G93 G1 X0.01 F20000 M62 P0
G93 G1 X-0.01 F20000 M63 P0
G93 G1 X0.01 F20000 M62 P0
G93 G1 X-0.01 F20000 M63 P0
G93 G1 X0.01 F20000 M62 P0
G93 G1 X-0.01 F20000 M63 P0
G93 G1 X0.01 F20000 M62 P0
G93 G1 X-0.01 F20000 M63 P0
G93 G1 X0.01 F20000 M62 P0
G93 G1 X-0.01 F20000 M63 P0
G93 G1 X0.01 F20000 M62 P0
G93 G1 X-0.01 F20000 M63 P0
G93 G1 X0.01 F20000 M62 P0
G93 G1 X-0.01 F20000 M63 P0
G93 G1 X0.01 F20000 M62 P0
G93 G1 X-0.01 F20000 M63 P0
G93 G1 X0.01 F20000 M62 P0
G93 G1 X-0.01 F20000 M63 P0
G93 G1 X0.01 F20000 M62 P0
G93 G1 X-0.01 F20000 M63 P0
G93 G1 X0.01 F20000 M62 P0
G93 G1 X-0.01 F20000 M63 P0
G93 G1 X0.01 F20000 M62 P0
G93 G1 X-0.01 F20000 M63 P0
G93 G1 X0.01 F20000 M62 P0
G93 G1 X-0.01 F20000 M63 P0
G93 G1 X0.01 F20000 M62 P0
G93 G1 X-0.01 F20000 M63 P0
G93 G1 X0.01 F20000 M62 P0
G93 G1 X-0.01 F20000 M63 P0
G93 G1 X0.01 F20000 M62 P0
G93 G1 X-0.01 F20000 M63 P0
G93 G1 X0.01 F20000 M62 P0
G93 G1 X-0.01 F20000 M63 P0
G93 G1 X0.01 F20000 M62 P0
G93 G1 X-0.01 F20000 M63 P0
G93 G1 X0.01 F20000 M62 P0
G93 G1 X-0.01 F20000 M63 P0
G93 G1 X0.01 F20000 M62 P0
G93 G1 X-0.01 F20000 M63 P0
G93 G1 X0.01 F20000 M62 P0
G93 G1 X-0.01 F20000 M63 P0
G93 G1 X0.01 F20000 M62 P0
G93 G1 X-0.01 F20000 M63 P0
G93 G1 X0.01 F20000 M62 P0
G93 G1 X-0.01 F20000 M63 P0
G93 G1 X0.01 F20000 M62 P0
G93 G1 X-0.01 F20000 M63 P0
G93 G1 X0.01 F20000 M62 P0
G93 G1 X-0.01 F20000 M63 P0
G93 G1 X0.01 F20000 M62 P0
G93 G1 X-0.01 F20000 M63 P0
G93 G1 X0.01 F20000 M62 P0
G93 G1 X-0.01 F20000 M63 P0
G93 G1 X0.01 F20000 M62 P0
G93 G1 X-0.01 F20000 M63 P0
G93 G1 X0.01 F20000 M62 P0
G93 G1 X-0.01 F20000 M63 P0
G93 G1 X0.01 F20000 M62 P0
G93 G1 X-0.01 F20000 M63 P0
G93 G1 X0.01 F20000 M62 P0
G93 G1 X-0.01 F20000 M63 P0
G93 G1 X0.01 F20000 M62 P0
G93 G1 X-0.01 F20000 M63 P0
G93 G1 X0.01 F20000 M62 P0
G93 G1 X-0.01 F20000 M63 P0
G93 G1 X0.01 F20000 M62 P0
G93 G1 X-0.01 F20000 M63 P0
G93 G1 X0.01 F20000 M62 P0
G93 G1 X-0.01 F20000 M63 P0
G93 G1 X0.01 F20000 M62 P0
G93 G1 X-0.01 F20000 M63 P0
G93 G1 X0.01 F20000 M62 P0
G93 G1 X-0.01 F20000 M63 P0
G93 G1 X0.01 F20000 M62 P0
G93 G1 X-0.01 F20000 M63 P0
G93 G1 X0.01 F20000 M62 P0
G93 G1 X-0.01 F20000 M63 P0
G93 G1 X0.01 F20000 M62 P0
G93 G1 X-0.01 F20000 M63 P0
G93 G1 X0.01 F20000 M62 P0
G93 G1 X-0.01 F20000 M63 P0
G93 G1 X0.01 F20000 M62 P0
G93 G1 X-0.01 F20000 M63 P0
G93 G1 X0.01 F20000 M62 P0
G93 G1 X-0.01 F20000 M63 P0
G93 G1 X0.01 F20000 M62 P0
G93 G1 X-0.01 F20000 M63 P0
G93 G1 X0.01 F20000 M62 P0
G93 G1 X-0.01 F20000 M63 P0
G93 G1 X0.01 F20000 M62 P0
G93 G1 X-0.01 F20000 M63 P0
G93 G1 X0.01 F20000 M62 P0
G93 G1 X-0.01 F20000 M63 P0
G93 G1 X0.01 F20000 M62 P0
G93 G1 X-0.01 F20000 M63 P0
G93 G1 X0.01 F20000 M62 P0
G93 G1 X-0.01 F20000 M63 P0
G93 G1 X0.01 F20000 M62 P0
G93 G1 X-0.01 F20000 M63 P0
G93 G1 X0.01 F20000 M62 P0
G93 G1 X-0.01 F20000 M63 P0
G93 G1 X0.01 F20000 M62 P0
G93 G1 X-0.01 F20000 M63 P0
G93 G1 X0.01 F20000 M62 P0
G93 G1 X-0.01 F20000 M63 P0
G93 G1 X0.01 F20000 M62 P0
G93 G1 X-0.01 F20000 M63 P0
G93 G1 X0.01 F20000 M62 P0
G93 G1 X-0.01 F20000 M63 P0
G93 G1 X0.01 F20000 M62 P0
G93 G1 X-0.01 F20000 M63 P0
G93 G1 X0.01 F20000 M62 P0
G93 G1 X-0.01 F20000 M63 P0
G93 G1 X0.01 F20000 M62 P0
G93 G1 X-0.01 F20000 M63 P0
G93 G1 X0.01 F20000 M62 P0
G93 G1 X-0.01 F20000 M63 P0
G93 G1 X0.01 F20000 M62 P0
G93 G1 X-0.01 F20000 M63 P0
G93 G1 X0.01 F20000 M62 P0
G93 G1 X-0.01 F20000 M63 P0
G93 G1 X0.01 F20000 M62 P0
G93 G1 X-0.01 F20000 M63 P0
G93 G1 X0.01 F20000 M62 P0
G93 G1 X-0.01 F20000 M63 P0
G93 G1 X0.01 F20000 M62 P0
G93 G1 X-0.01 F20000 M63 P0
G93 G1 X0.01 F20000 M62 P0
G93 G1 X-0.01 F20000 M63 P0
G93 G1 X0.01 F20000 M62 P0
G93 G1 X-0.01 F20000 M63 P0
G93 G1 X0.01 F20000 M62 P0
G93 G1 X-0.01 F20000 M63 P0
G93 G1 X0.01 F20000 M62 P0
G93 G1 X-0.01 F20000 M63 P0
G93 G1 X0.01 F20000 M62 P0
G93 G1 X-0.01 F20000 M63 P0
G93 G1 X0.01 F20000 M62 P0
G93 G1 X-0.01 F20000 M63 P0
G93 G1 X0.01 F20000 M62 P0
G93 G1 X-0.01 F20000 M63 P0
G93 G1 X0.01 F20000 M62 P0
G93 G1 X-0.01 F20000 M63 P0
G93 G1 X0.01 F20000 M62 P0
G93 G1 X-0.01 F20000 M63 P0
G93 G1 X0.01 F20000 M62 P0
G93 G1 X-0.01 F20000 M63 P0
G93 G1 X0.01 F20000 M62 P0
G93 G1 X-0.01 F20000 M63 P0
G93 G1 X0.01 F20000 M62 P0
G93 G1 X-0.01 F20000 M63 P0
G93 G1 X0.01 F20000 M62 P0
G93 G1 X-0.01 F20000 M63 P0
G93 G1 X0.01 F20000 M62 P0
G93 G1 X-0.01 F20000 M63 P0
G93 G1 X0.01 F20000 M62 P0
G93 G1 X-0.01 F20000 M63 P0
G93 G1 X0.01 F20000 M62 P0
G93 G1 X-0.01 F20000 M63 P0
G93 G1 X0.01 F20000 M62 P0
G93 G1 X-0.01 F20000 M63 P0
G93 G1 X0.01 F20000 M62 P0
G93 G1 X-0.01 F20000 M63 P0
G93 G1 X0.01 F20000 M62 P0
G93 G1 X-0.01 F20000 M63 P0
G93 G1 X0.01 F20000 M62 P0
G93 G1 X-0.01 F20000 M63 P0
G93 G1 X0.01 F20000 M62 P0
G93 G1 X-0.01 F20000 M63 P0
G93 G1 X0.01 F20000 M62 P0
G93 G1 X-0.01 F20000 M63 P0
G93 G1 X0.01 F20000 M62 P0
G93 G1 X-0.01 F20000 M63 P0
G93 G1 X0.01 F20000 M62 P0
G93 G1 X-0.01 F20000 M63 P0
G93 G1 X0.01 F20000 M62 P0
G93 G1 X-0.01 F20000 M63 P0
G93 G1 X0.01 F20000 M62 P0
G93 G1 X-0.01 F20000 M63 P0
G93 G1 X0.01 F20000 M62 P0
G93 G1 X-0.01 F20000 M63 P0
G93 G1 X0.01 F20000 M62 P0
G93 G1 X-0.01 F20000 M63 P0
G93 G1 X0.01 F20000 M62 P0
G93 G1 X-0.01 F20000 M63 P0
G93 G1 X0.01 F20000 M62 P0
G93 G1 X-0.01 F20000 M63 P0
G93 G1 X0.01 F20000 M62 P0
G93 G1 X-0.01 F20000 M63 P0
G93 G1 X0.01 F20000 M62 P0
G93 G1 X-0.01 F20000 M63 P0
G93 G1 X0.01 F20000 M62 P0
G93 G1 X-0.01 F20000 M63 P0
G93 G1 X0.01 F20000 M62 P0
G93 G1 X-0.01 F20000 M63 P0
G93 G1 X0.01 F20000 M62 P0
G93 G1 X-0.01 F20000 M63 P0
G93 G1 X0.01 F20000 M62 P0
G93 G1 X-0.01 F20000 M63 P0
G93 G1 X0.01 F20000 M62 P0
G93 G1 X-0.01 F20000 M63 P0
G93 G1 X0.01 F20000 M62 P0
G93 G1 X-0.01 F20000 M63 P0
G93 G1 X0.01 F20000 M62 P0
G93 G1 X-0.01 F20000 M63 P0
G93 G1 X0.01 F20000 M62 P0
G93 G1 X-0.01 F20000 M63 P0
G93 G1 X0.01 F20000 M62 P0
G93 G1 X-0.01 F20000 M63 P0
G93 G1 X0.01 F20000 M62 P0
G93 G1 X-0.01 F20000 M63 P0
G93 G1 X0.01 F20000 M62 P0
G93 G1 X-0.01 F20000 M63 P0
G93 G1 X0.01 F20000 M62 P0
G93 G1 X-0.01 F20000 M63 P0
G93 G1 X0.01 F20000 M62 P0
G93 G1 X-0.01 F20000 M63 P0
G93 G1 X0.01 F20000 M62 P0
G93 G1 X-0.01 F20000 M63 P0
G93 G1 X0.01 F20000 M62 P0
G93 G1 X-0.01 F20000 M63 P0
G93 G1 X0.01 F20000 M62 P0
G93 G1 X-0.01 F20000 M63 P0
G93 G1 X0.01 F20000 M62 P0
G93 G1 X-0.01 F20000 M63 P0
G93 G1 X0.01 F20000 M62 P0
G93 G1 X-0.01 F20000 M63 P0
G93 G1 X0.01 F20000 M62 P0
G93 G1 X-0.01 F20000 M63 P0
G93 G1 X0.01 F20000 M62 P0
G93 G1 X-0.01 F20000 M63 P0
G93 G1 X0.01 F20000 M62 P0
G93 G1 X-0.01 F20000 M63 P0
G93 G1 X0.01 F20000 M62 P0
G93 G1 X-0.01 F20000 M63 P0
G93 G1 X0.01 F20000 M62 P0
G93 G1 X-0.01 F20000 M63 P0
G93 G1 X0.01 F20000 M62 P0
G93 G1 X-0.01 F20000 M63 P0
G93 G1 X0.01 F20000 M62 P0
G93 G1 X-0.01 F20000 M63 P0
G93 G1 X0.01 F20000 M62 P0
G93 G1 X-0.01 F20000 M63 P0
G93 G1 X0.01 F20000 M62 P0
G93 G1 X-0.01 F20000 M63 P0
G93 G1 X0.01 F20000 M62 P0
G93 G1 X-0.01 F20000 M63 P0
G93 G1 X0.01 F20000 M62 P0
G93 G1 X-0.01 F20000 M63 P0
G93 G1 X0.01 F20000 M62 P0
G93 G1 X-0.01 F20000 M63 P0
G93 G1 X0.01 F20000 M62 P0
G93 G1 X-0.01 F20000 M63 P0
G93 G1 X0.01 F20000 M62 P0
G93 G1 X-0.01 F20000 M63 P0
G93 G1 X0.01 F20000 M62 P0
G93 G1 X-0.01 F20000 M63 P0
G93 G1 X0.01 F20000 M62 P0
G93 G1 X-0.01 F20000 M63 P0
G93 G1 X0.01 F20000 M62 P0
G93 G1 X-0.01 F20000 M63 P0
G93 G1 X0.01 F20000 M62 P0
G93 G1 X-0.01 F20000 M63 P0
G93 G1 X0.01 F20000 M62 P0
G93 G1 X-0.01 F20000 M63 P0
G93 G1 X0.01 F20000 M62 P0
G93 G1 X-0.01 F20000 M63 P0
G93 G1 X0.01 F20000 M62 P0
G93 G1 X-0.01 F20000 M63 P0
G93 G1 X0.01 F20000 M62 P0
G93 G1 X-0.01 F20000 M63 P0
G93 G1 X0.01 F20000 M62 P0
G93 G1 X-0.01 F20000 M63 P0
G93 G1 X0.01 F20000 M62 P0
G93 G1 X-0.01 F20000 M63 P0
G93 G1 X0.01 F20000 M62 P0
G93 G1 X-0.01 F20000 M63 P0
G93 G1 X0.01 F20000 M62 P0
G93 G1 X-0.01 F20000 M63 P0
G93 G1 X0.01 F20000 M62 P0
G93 G1 X-0.01 F20000 M63 P0
G93 G1 X0.01 F20000 M62 P0
G93 G1 X-0.01 F20000 M63 P0
G93 G1 X0.01 F20000 M62 P0
G93 G1 X-0.01 F20000 M63 P0
G93 G1 X0.01 F20000 M62 P0
G93 G1 X-0.01 F20000 M63 P0
G93 G1 X0.01 F20000 M62 P0
G93 G1 X-0.01 F20000 M63 P0
G93 G1 X0.01 F20000 M62 P0
G93 G1 X-0.01 F20000 M63 P0
G93 G1 X0.01 F20000 M62 P0
G93 G1 X-0.01 F20000 M63 P0
G93 G1 X0.01 F20000 M62 P0
G93 G1 X-0.01 F20000 M63 P0
G93 G1 X0.01 F20000 M62 P0
G93 G1 X-0.01 F20000 M63 P0
G93 G1 X0.01 F20000 M62 P0
G93 G1 X-0.01 F20000 M63 P0
G93 G1 X0.01 F20000 M62 P0
G93 G1 X-0.01 F20000 M63 P0
G93 G1 X0.01 F20000 M62 P0
G93 G1 X-0.01 F20000 M63 P0
G93 G1 X0.01 F20000 M62 P0
G93 G1 X-0.01 F20000 M63 P0
G93 G1 X0.01 F20000 M62 P0
G93 G1 X-0.01 F20000 M63 P0
G93 G1 X0.01 F20000 M62 P0
G93 G1 X-0.01 F20000 M63 P0
G93 G1 X0.01 F20000 M62 P0
G93 G1 X-0.01 F20000 M63 P0
G93 G1 X0.01 F20000 M62 P0
G93 G1 X-0.01 F20000 M63 P0
G93 G1 X0.01 F20000 M62 P0
G93 G1 X-0.01 F20000 M63 P0
G93 G1 X0.01 F20000 M62 P0
G93 G1 X-0.01 F20000 M63 P0
G93 G1 X0.01 F20000 M62 P0
G93 G1 X-0.01 F20000 M63 P0
G93 G1 X0.01 F20000 M62 P0
G93 G1 X-0.01 F20000 M63 P0
G93 G1 X0.01 F20000 M62 P0
G93 G1 X-0.01 F20000 M63 P0
G93 G1 X0.01 F20000 M62 P0
G93 G1 X-0.01 F20000 M63 P0
G93 G1 X0.01 F20000 M62 P0
G93 G1 X-0.01 F20000 M63 P0
G93 G1 X0.01 F20000 M62 P0
G93 G1 X-0.01 F20000 M63 P0
G93 G1 X0.01 F20000 M62 P0
G93 G1 X-0.01 F20000 M63 P0
G93 G1 X0.01 F20000 M62 P0
G93 G1 X-0.01 F20000 M63 P0
G93 G1 X0.01 F20000 M62 P0
G93 G1 X-0.01 F20000 M63 P0
G93 G1 X0.01 F20000 M62 P0
G93 G1 X-0.01 F20000 M63 P0
G93 G1 X0.01 F20000 M62 P0
G93 G1 X-0.01 F20000 M63 P0
G93 G1 X0.01 F20000 M62 P0
G93 G1 X-0.01 F20000 M63 P0
G93 G1 X0.01 F20000 M62 P0
G93 G1 X-0.01 F20000 M63 P0
G93 G1 X0.01 F20000 M62 P0
G93 G1 X-0.01 F20000 M63 P0
G93 G1 X0.01 F20000 M62 P0
G93 G1 X-0.01 F20000 M63 P0
G93 G1 X0.01 F20000 M62 P0
G93 G1 X-0.01 F20000 M63 P0
G93 G1 X0.01 F20000 M62 P0
G93 G1 X-0.01 F20000 M63 P0
G93 G1 X0.01 F20000 M62 P0
G93 G1 X-0.01 F20000 M63 P0
G93 G1 X0.01 F20000 M62 P0
G93 G1 X-0.01 F20000 M63 P0
G93 G1 X0.01 F20000 M62 P0
G93 G1 X-0.01 F20000 M63 P0
G93 G1 X0.01 F20000 M62 P0
G93 G1 X-0.01 F20000 M63 P0
G93 G1 X0.01 F20000 M62 P0
G93 G1 X-0.01 F20000 M63 P0
G93 G1 X0.01 F20000 M62 P0
G93 G1 X-0.01 F20000 M63 P0
G93 G1 X0.01 F20000 M62 P0
G93 G1 X-0.01 F20000 M63 P0
G93 G1 X0.01 F20000 M62 P0
G93 G1 X-0.01 F20000 M63 P0
G93 G1 X0.01 F20000 M62 P0
G93 G1 X-0.01 F20000 M63 P0
G93 G1 X0.01 F20000 M62 P0
G93 G1 X-0.01 F20000 M63 P0
G93 G1 X0.01 F20000 M62 P0
G93 G1 X-0.01 F20000 M63 P0
G93 G1 X0.01 F20000 M62 P0
G93 G1 X-0.01 F20000 M63 P0
G93 G1 X0.01 F20000 M62 P0
G93 G1 X-0.01 F20000 M63 P0
G93 G1 X0.01 F20000 M62 P0
G93 G1 X-0.01 F20000 M63 P0
G93 G1 X0.01 F20000 M62 P0
G93 G1 X-0.01 F20000 M63 P0
G93 G1 X0.01 F20000 M62 P0
G93 G1 X-0.01 F20000 M63 P0
G93 G1 X0.01 F20000 M62 P0
G93 G1 X-0.01 F20000 M63 P0
G93 G1 X0.01 F20000 M62 P0
G93 G1 X-0.01 F20000 M63 P0
G93 G1 X0.01 F20000 M62 P0
G93 G1 X-0.01 F20000 M63 P0
G93 G1 X0.01 F20000 M62 P0
G93 G1 X-0.01 F20000 M63 P0
G93 G1 X0.01 F20000 M62 P0
G93 G1 X-0.01 F20000 M63 P0
G93 G1 X0.01 F20000 M62 P0
G93 G1 X-0.01 F20000 M63 P0
G93 G1 X0.01 F20000 M62 P0
G93 G1 X-0.01 F20000 M63 P0
G93 G1 X0.01 F20000 M62 P0
G93 G1 X-0.01 F20000 M63 P0
G93 G1 X0.01 F20000 M62 P0
G93 G1 X-0.01 F20000 M63 P0
G93 G1 X0.01 F20000 M62 P0
G93 G1 X-0.01 F20000 M63 P0
G93 G1 X0.01 F20000 M62 P0
G93 G1 X-0.01 F20000 M63 P0
G93 G1 X0.01 F20000 M62 P0
G93 G1 X-0.01 F20000 M63 P0
G93 G1 X0.01 F20000 M62 P0
G93 G1 X-0.01 F20000 M63 P0
G93 G1 X0.01 F20000 M62 P0
G93 G1 X-0.01 F20000 M63 P0
G93 G1 X0.01 F20000 M62 P0
G93 G1 X-0.01 F20000 M63 P0
G93 G1 X0.01 F20000 M62 P0
G93 G1 X-0.01 F20000 M63 P0
G93 G1 X0.01 F20000 M62 P0
G93 G1 X-0.01 F20000 M63 P0
G93 G1 X0.01 F20000 M62 P0
G93 G1 X-0.01 F20000 M63 P0
G93 G1 X0.01 F20000 M62 P0
G93 G1 X-0.01 F20000 M63 P0
G93 G1 X0.01 F20000 M62 P0
G93 G1 X-0.01 F20000 M63 P0
G93 G1 X0.01 F20000 M62 P0
G93 G1 X-0.01 F20000 M63 P0
G93 G1 X0.01 F20000 M62 P0
G93 G1 X-0.01 F20000 M63 P0
G93 G1 X0.01 F20000 M62 P0
G93 G1 X-0.01 F20000 M63 P0
G93 G1 X0.01 F20000 M62 P0
G93 G1 X-0.01 F20000 M63 P0
G93 G1 X0.01 F20000 M62 P0
G93 G1 X-0.01 F20000 M63 P0
G93 G1 X0.01 F20000 M62 P0
G93 G1 X-0.01 F20000 M63 P0
G93 G1 X0.01 F20000 M62 P0
G93 G1 X-0.01 F20000 M63 P0
G93 G1 X0.01 F20000 M62 P0
G93 G1 X-0.01 F20000 M63 P0
G93 G1 X0.01 F20000 M62 P0
G93 G1 X-0.01 F20000 M63 P0
G93 G1 X0.01 F20000 M62 P0
G93 G1 X-0.01 F20000 M63 P0
G93 G1 X0.01 F20000 M62 P0
G93 G1 X-0.01 F20000 M63 P0
G93 G1 X0.01 F20000 M62 P0
G93 G1 X-0.01 F20000 M63 P0
G93 G1 X0.01 F20000 M62 P0
G93 G1 X-0.01 F20000 M63 P0
G93 G1 X0.01 F20000 M62 P0
G93 G1 X-0.01 F20000 M63 P0
G93 G1 X0.01 F20000 M62 P0
G93 G1 X-0.01 F20000 M63 P0
G93 G1 X0.01 F20000 M62 P0
G93 G1 X-0.01 F20000 M63 P0
G93 G1 X0.01 F20000 M62 P0
G93 G1 X-0.01 F20000 M63 P0
G93 G1 X0.01 F20000 M62 P0
G93 G1 X-0.01 F20000 M63 P0
G93 G1 X0.01 F20000 M62 P0
G93 G1 X-0.01 F20000 M63 P0
G93 G1 X0.01 F20000 M62 P0
G93 G1 X-0.01 F20000 M63 P0
G93 G1 X0.01 F20000 M62 P0
G93 G1 X-0.01 F20000 M63 P0
G93 G1 X0.01 F20000 M62 P0
G93 G1 X-0.01 F20000 M63 P0
G93 G1 X0.01 F20000 M62 P0
G93 G1 X-0.01 F20000 M63 P0
G93 G1 X0.01 F20000 M62 P0
G93 G1 X-0.01 F20000 M63 P0
G93 G1 X0.01 F20000 M62 P0
G93 G1 X-0.01 F20000 M63 P0
G93 G1 X0.01 F20000 M62 P0
G93 G1 X-0.01 F20000 M63 P0
G93 G1 X0.01 F20000 M62 P0
G93 G1 X-0.01 F20000 M63 P0
G93 G1 X0.01 F20000 M62 P0
G93 G1 X-0.01 F20000 M63 P0
G93 G1 X0.01 F20000 M62 P0
G93 G1 X-0.01 F20000 M63 P0
G93 G1 X0.01 F20000 M62 P0
G93 G1 X-0.01 F20000 M63 P0
G93 G1 X0.01 F20000 M62 P0
G93 G1 X-0.01 F20000 M63 P0
G93 G1 X0.01 F20000 M62 P0
G93 G1 X-0.01 F20000 M63 P0
G93 G1 X0.01 F20000 M62 P0
G93 G1 X-0.01 F20000 M63 P0
G93 G1 X0.01 F20000 M62 P0
G93 G1 X-0.01 F20000 M63 P0
G93 G1 X0.01 F20000 M62 P0
G93 G1 X-0.01 F20000 M63 P0
G93 G1 X0.01 F20000 M62 P0
G93 G1 X-0.01 F20000 M63 P0
G93 G1 X0.01 F20000 M62 P0
G93 G1 X-0.01 F20000 M63 P0
G93 G1 X0.01 F20000 M62 P0
G93 G1 X-0.01 F20000 M63 P0
G93 G1 X0.01 F20000 M62 P0
G93 G1 X-0.01 F20000 M63 P0
G93 G1 X0.01 F20000 M62 P0
G93 G1 X-0.01 F20000 M63 P0
G93 G1 X0.01 F20000 M62 P0
G93 G1 X-0.01 F20000 M63 P0
G93 G1 X0.01 F20000 M62 P0
G93 G1 X-0.01 F20000 M63 P0
G93 G1 X0.01 F20000 M62 P0
G93 G1 X-0.01 F20000 M63 P0
G93 G1 X0.01 F20000 M62 P0
G93 G1 X-0.01 F20000 M63 P0
G93 G1 X0.01 F20000 M62 P0
G93 G1 X-0.01 F20000 M63 P0
G93 G1 X0.01 F20000 M62 P0
G93 G1 X-0.01 F20000 M63 P0
G93 G1 X0.01 F20000 M62 P0
G93 G1 X-0.01 F20000 M63 P0
G93 G1 X0.01 F20000 M62 P0
G93 G1 X-0.01 F20000 M63 P0
G93 G1 X0.01 F20000 M62 P0
G93 G1 X-0.01 F20000 M63 P0
G93 G1 X0.01 F20000 M62 P0
G93 G1 X-0.01 F20000 M63 P0
G93 G1 X0.01 F20000 M62 P0
G93 G1 X-0.01 F20000 M63 P0
G93 G1 X0.01 F20000 M62 P0
G93 G1 X-0.01 F20000 M63 P0
G93 G1 X0.01 F20000 M62 P0
G93 G1 X-0.01 F20000 M63 P0
G93 G1 X0.01 F20000 M62 P0
G93 G1 X-0.01 F20000 M63 P0
G93 G1 X0.01 F20000 M62 P0
G93 G1 X-0.01 F20000 M63 P0
G93 G1 X0.01 F20000 M62 P0
G93 G1 X-0.01 F20000 M63 P0
G93 G1 X0.01 F20000 M62 P0
G93 G1 X-0.01 F20000 M63 P0
G93 G1 X0.01 F20000 M62 P0
G93 G1 X-0.01 F20000 M63 P0
G93 G1 X0.01 F20000 M62 P0
G93 G1 X-0.01 F20000 M63 P0
G93 G1 X0.01 F20000 M62 P0
G93 G1 X-0.01 F20000 M63 P0
G93 G1 X0.01 F20000 M62 P0
G93 G1 X-0.01 F20000 M63 P0
G93 G1 X0.01 F20000 M62 P0
G93 G1 X-0.01 F20000 M63 P0
G93 G1 X0.01 F20000 M62 P0
G93 G1 X-0.01 F20000 M63 P0
G93 G1 X0.01 F20000 M62 P0
G93 G1 X-0.01 F20000 M63 P0
G93 G1 X0.01 F20000 M62 P0
G93 G1 X-0.01 F20000 M63 P0
G93 G1 X0.01 F20000 M62 P0
G93 G1 X-0.01 F20000 M63 P0
G93 G1 X0.01 F20000 M62 P0
G93 G1 X-0.01 F20000 M63 P0
G93 G1 X0.01 F20000 M62 P0
G93 G1 X-0.01 F20000 M63 P0
G93 G1 X0.01 F20000 M62 P0
G93 G1 X-0.01 F20000 M63 P0
G93 G1 X0.01 F20000 M62 P0
G93 G1 X-0.01 F20000 M63 P0
G93 G1 X0.01 F20000 M62 P0
G93 G1 X-0.01 F20000 M63 P0
G93 G1 X0.01 F20000 M62 P0
G93 G1 X-0.01 F20000 M63 P0
G93 G1 X0.01 F20000 M62 P0
G93 G1 X-0.01 F20000 M63 P0
G93 G1 X0.01 F20000 M62 P0
G93 G1 X-0.01 F20000 M63 P0
G93 G1 X0.01 F20000 M62 P0
G93 G1 X-0.01 F20000 M63 P0
G93 G1 X0.01 F20000 M62 P0
G93 G1 X-0.01 F20000 M63 P0
G93 G1 X0.01 F20000 M62 P0
G93 G1 X-0.01 F20000 M63 P0
G93 G1 X0.01 F20000 M62 P0
G93 G1 X-0.01 F20000 M63 P0
G93 G1 X0.01 F20000 M62 P0
G93 G1 X-0.01 F20000 M63 P0
G93 G1 X0.01 F20000 M62 P0
G93 G1 X-0.01 F20000 M63 P0
G93 G1 X0.01 F20000 M62 P0
G93 G1 X-0.01 F20000 M63 P0
G93 G1 X0.01 F20000 M62 P0
G93 G1 X-0.01 F20000 M63 P0
G93 G1 X0.01 F20000 M62 P0
G93 G1 X-0.01 F20000 M63 P0
G93 G1 X0.01 F20000 M62 P0
G93 G1 X-0.01 F20000 M63 P0
G93 G1 X0.01 F20000 M62 P0
G93 G1 X-0.01 F20000 M63 P0
G93 G1 X0.01 F20000 M62 P0
G93 G1 X-0.01 F20000 M63 P0
G93 G1 X0.01 F20000 M62 P0
G93 G1 X-0.01 F20000 M63 P0
G93 G1 X0.01 F20000 M62 P0
G93 G1 X-0.01 F20000 M63 P0
G93 G1 X0.01 F20000 M62 P0
G93 G1 X-0.01 F20000 M63 P0
G93 G1 X0.01 F20000 M62 P0
G93 G1 X-0.01 F20000 M63 P0
G93 G1 X0.01 F20000 M62 P0
G93 G1 X-0.01 F20000 M63 P0
G93 G1 X0.01 F20000 M62 P0
G93 G1 X-0.01 F20000 M63 P0
G93 G1 X0.01 F20000 M62 P0
G93 G1 X-0.01 F20000 M63 P0
G93 G1 X0.01 F20000 M62 P0
G93 G1 X-0.01 F20000 M63 P0
G93 G1 X0.01 F20000 M62 P0
G93 G1 X-0.01 F20000 M63 P0
G93 G1 X0.01 F20000 M62 P0
G93 G1 X-0.01 F20000 M63 P0
G93 G1 X0.01 F20000 M62 P0
G93 G1 X-0.01 F20000 M63 P0
G93 G1 X0.01 F20000 M62 P0
G93 G1 X-0.01 F20000 M63 P0
G93 G1 X0.01 F20000 M62 P0
G93 G1 X-0.01 F20000 M63 P0
G93 G1 X0.01 F20000 M62 P0
G93 G1 X-0.01 F20000 M63 P0
G93 G1 X0.01 F20000 M62 P0
G93 G1 X-0.01 F20000 M63 P0
G93 G1 X0.01 F20000 M62 P0
G93 G1 X-0.01 F20000 M63 P0
G93 G1 X0.01 F20000 M62 P0
G93 G1 X-0.01 F20000 M63 P0
G93 G1 X0.01 F20000 M62 P0
G93 G1 X-0.01 F20000 M63 P0
G93 G1 X0.01 F20000 M62 P0
G93 G1 X-0.01 F20000 M63 P0
G93 G1 X0.01 F20000 M62 P0
G93 G1 X-0.01 F20000 M63 P0
G93 G1 X0.01 F20000 M62 P0
G93 G1 X-0.01 F20000 M63 P0
G93 G1 X0.01 F20000 M62 P0
G93 G1 X-0.01 F20000 M63 P0
G93 G1 X0.01 F20000 M62 P0
G93 G1 X-0.01 F20000 M63 P0
G93 G1 X0.01 F20000 M62 P0
G93 G1 X-0.01 F20000 M63 P0
G93 G1 X0.01 F20000 M62 P0
G93 G1 X-0.01 F20000 M63 P0
G93 G1 X0.01 F20000 M62 P0
G93 G1 X-0.01 F20000 M63 P0
G93 G1 X0.01 F20000 M62 P0
G93 G1 X-0.01 F20000 M63 P0
G93 G1 X0.01 F20000 M62 P0
G93 G1 X-0.01 F20000 M63 P0
G93 G1 X0.01 F20000 M62 P0
G93 G1 X-0.01 F20000 M63 P0
G93 G1 X0.01 F20000 M62 P0
G93 G1 X-0.01 F20000 M63 P0
G93 G1 X0.01 F20000 M62 P0
G93 G1 X-0.01 F20000 M63 P0
G93 G1 X0.01 F20000 M62 P0
G93 G1 X-0.01 F20000 M63 P0
G93 G1 X0.01 F20000 M62 P0
G93 G1 X-0.01 F20000 M63 P0
G93 G1 X0.01 F20000 M62 P0
G93 G1 X-0.01 F20000 M63 P0
G93 G1 X0.01 F20000 M62 P0
G93 G1 X-0.01 F20000 M63 P0
G93 G1 X0.01 F20000 M62 P0
G93 G1 X-0.01 F20000 M63 P0
G93 G1 X0.01 F20000 M62 P0
G93 G1 X-0.01 F20000 M63 P0
G93 G1 X0.01 F20000 M62 P0
G93 G1 X-0.01 F20000 M63 P0
G93 G1 X0.01 F20000 M62 P0
G93 G1 X-0.01 F20000 M63 P0
G93 G1 X0.01 F20000 M62 P0
G93 G1 X-0.01 F20000 M63 P0
G93 G1 X0.01 F20000 M62 P0
G93 G1 X-0.01 F20000 M63 P0
G93 G1 X0.01 F20000 M62 P0
G93 G1 X-0.01 F20000 M63 P0
G93 G1 X0.01 F20000 M62 P0
G93 G1 X-0.01 F20000 M63 P0
G93 G1 X0.01 F20000 M62 P0
G93 G1 X-0.01 F20000 M63 P0
G93 G1 X0.01 F20000 M62 P0
G93 G1 X-0.01 F20000 M63 P0
G93 G1 X0.01 F20000 M62 P0
G93 G1 X-0.01 F20000 M63 P0
G93 G1 X0.01 F20000 M62 P0
G93 G1 X-0.01 F20000 M63 P0
G93 G1 X0.01 F20000 M62 P0
G93 G1 X-0.01 F20000 M63 P0
G93 G1 X0.01 F20000 M62 P0
G93 G1 X-0.01 F20000 M63 P0
G93 G1 X0.01 F20000 M62 P0
G93 G1 X-0.01 F20000 M63 P0
G93 G1 X0.01 F20000 M62 P0
G93 G1 X-0.01 F20000 M63 P0
G93 G1 X0.01 F20000 M62 P0
G93 G1 X-0.01 F20000 M63 P0
G93 G1 X0.01 F20000 M62 P0
G93 G1 X-0.01 F20000 M63 P0
G93 G1 X0.01 F20000 M62 P0
G93 G1 X-0.01 F20000 M63 P0
G93 G1 X0.01 F20000 M62 P0
G93 G1 X-0.01 F20000 M63 P0
G93 G1 X0.01 F20000 M62 P0
G93 G1 X-0.01 F20000 M63 P0
G93 G1 X0.01 F20000 M62 P0
G93 G1 X-0.01 F20000 M63 P0
G93 G1 X0.01 F20000 M62 P0
G93 G1 X-0.01 F20000 M63 P0
G93 G1 X0.01 F20000 M62 P0
G93 G1 X-0.01 F20000 M63 P0
G93 G1 X0.01 F20000 M62 P0
G93 G1 X-0.01 F20000 M63 P0
G93 G1 X0.01 F20000 M62 P0
G93 G1 X-0.01 F20000 M63 P0
G93 G1 X0.01 F20000 M62 P0
G93 G1 X-0.01 F20000 M63 P0
G93 G1 X0.01 F20000 M62 P0
G93 G1 X-0.01 F20000 M63 P0
G93 G1 X0.01 F20000 M62 P0
G93 G1 X-0.01 F20000 M63 P0
G93 G1 X0.01 F20000 M62 P0
G93 G1 X-0.01 F20000 M63 P0
G93 G1 X0.01 F20000 M62 P0
G93 G1 X-0.01 F20000 M63 P0
G93 G1 X0.01 F20000 M62 P0
G93 G1 X-0.01 F20000 M63 P0
G93 G1 X0.01 F20000 M62 P0
G93 G1 X-0.01 F20000 M63 P0
G93 G1 X0.01 F20000 M62 P0
G93 G1 X-0.01 F20000 M63 P0
G93 G1 X0.01 F20000 M62 P0
G93 G1 X-0.01 F20000 M63 P0
G93 G1 X0.01 F20000 M62 P0
G93 G1 X-0.01 F20000 M63 P0
G93 G1 X0.01 F20000 M62 P0
G93 G1 X-0.01 F20000 M63 P0
G93 G1 X0.01 F20000 M62 P0
G93 G1 X-0.01 F20000 M63 P0
G93 G1 X0.01 F20000 M62 P0
G93 G1 X-0.01 F20000 M63 P0
G93 G1 X0.01 F20000 M62 P0
G93 G1 X-0.01 F20000 M63 P0
G93 G1 X0.01 F20000 M62 P0
G93 G1 X-0.01 F20000 M63 P0
G93 G1 X0.01 F20000 M62 P0
G93 G1 X-0.01 F20000 M63 P0
G93 G1 X0.01 F20000 M62 P0
G93 G1 X-0.01 F20000 M63 P0
G93 G1 X0.01 F20000 M62 P0
G93 G1 X-0.01 F20000 M63 P0
G93 G1 X0.01 F20000 M62 P0
G93 G1 X-0.01 F20000 M63 P0
G93 G1 X0.01 F20000 M62 P0
G93 G1 X-0.01 F20000 M63 P0
G93 G1 X0.01 F20000 M62 P0
G93 G1 X-0.01 F20000 M63 P0
G93 G1 X0.01 F20000 M62 P0
G93 G1 X-0.01 F20000 M63 P0
G93 G1 X0.01 F20000 M62 P0
G93 G1 X-0.01 F20000 M63 P0
G93 G1 X0.01 F20000 M62 P0
G93 G1 X-0.01 F20000 M63 P0
G93 G1 X0.01 F20000 M62 P0
G93 G1 X-0.01 F20000 M63 P0
G93 G1 X0.01 F20000 M62 P0
G93 G1 X-0.01 F20000 M63 P0
G93 G1 X0.01 F20000 M62 P0
G93 G1 X-0.01 F20000 M63 P0
G93 G1 X0.01 F20000 M62 P0
G93 G1 X-0.01 F20000 M63 P0
G93 G1 X0.01 F20000 M62 P0
G93 G1 X-0.01 F20000 M63 P0
G93 G1 X0.01 F20000 M62 P0
G93 G1 X-0.01 F20000 M63 P0
G93 G1 X0.01 F20000 M62 P0
G93 G1 X-0.01 F20000 M63 P0
G93 G1 X0.01 F20000 M62 P0
G93 G1 X-0.01 F20000 M63 P0
G93 G1 X0.01 F20000 M62 P0
G93 G1 X-0.01 F20000 M63 P0
G93 G1 X0.01 F20000 M62 P0
G93 G1 X-0.01 F20000 M63 P0
G93 G1 X0.01 F20000 M62 P0
G93 G1 X-0.01 F20000 M63 P0
G93 G1 X0.01 F20000 M62 P0
G93 G1 X-0.01 F20000 M63 P0
G93 G1 X0.01 F20000 M62 P0
G93 G1 X-0.01 F20000 M63 P0
G93 G1 X0.01 F20000 M62 P0
G93 G1 X-0.01 F20000 M63 P0
G93 G1 X0.01 F20000 M62 P0
G93 G1 X-0.01 F20000 M63 P0
G93 G1 X0.01 F20000 M62 P0
G93 G1 X-0.01 F20000 M63 P0
G93 G1 X0.01 F20000 M62 P0
G93 G1 X-0.01 F20000 M63 P0
G93 G1 X0.01 F20000 M62 P0
G93 G1 X-0.01 F20000 M63 P0
G93 G1 X0.01 F20000 M62 P0
G93 G1 X-0.01 F20000 M63 P0
G93 G1 X0.01 F20000 M62 P0
G93 G1 X-0.01 F20000 M63 P0
G93 G1 X0.01 F20000 M62 P0
G93 G1 X-0.01 F20000 M63 P0
G93 G1 X0.01 F20000 M62 P0
G93 G1 X-0.01 F20000 M63 P0
G93 G1 X0.01 F20000 M62 P0
G93 G1 X-0.01 F20000 M63 P0
G93 G1 X0.01 F20000 M62 P0
G93 G1 X-0.01 F20000 M63 P0
G93 G1 X0.01 F20000 M62 P0
G93 G1 X-0.01 F20000 M63 P0
G93 G1 X0.01 F20000 M62 P0
G93 G1 X-0.01 F20000 M63 P0
G93 G1 X0.01 F20000 M62 P0
G93 G1 X-0.01 F20000 M63 P0
G93 G1 X0.01 F20000 M62 P0
G93 G1 X-0.01 F20000 M63 P0
G93 G1 X0.01 F20000 M62 P0
G93 G1 X-0.01 F20000 M63 P0
G93 G1 X0.01 F20000 M62 P0
G93 G1 X-0.01 F20000 M63 P0
G93 G1 X0.01 F20000 M62 P0
G93 G1 X-0.01 F20000 M63 P0
G93 G1 X0.01 F20000 M62 P0
G93 G1 X-0.01 F20000 M63 P0
G93 G1 X0.01 F20000 M62 P0
G93 G1 X-0.01 F20000 M63 P0
G93 G1 X0.01 F20000 M62 P0
G93 G1 X-0.01 F20000 M63 P0
G93 G1 X0.01 F20000 M62 P0
G93 G1 X-0.01 F20000 M63 P0
G93 G1 X0.01 F20000 M62 P0
G93 G1 X-0.01 F20000 M63 P0
G93 G1 X0.01 F20000 M62 P0
G93 G1 X-0.01 F20000 M63 P0
G93 G1 X0.01 F20000 M62 P0
G93 G1 X-0.01 F20000 M63 P0
G93 G1 X0.01 F20000 M62 P0
G93 G1 X-0.01 F20000 M63 P0
G93 G1 X0.01 F20000 M62 P0
G93 G1 X-0.01 F20000 M63 P0
G93 G1 X0.01 F20000 M62 P0
G93 G1 X-0.01 F20000 M63 P0
G93 G1 X0.01 F20000 M62 P0
G93 G1 X-0.01 F20000 M63 P0
G93 G1 X0.01 F20000 M62 P0
G93 G1 X-0.01 F20000 M63 P0
G93 G1 X0.01 F20000 M62 P0
G93 G1 X-0.01 F20000 M63 P0
G93 G1 X0.01 F20000 M62 P0
G93 G1 X-0.01 F20000 M63 P0
G93 G1 X0.01 F20000 M62 P0
G93 G1 X-0.01 F20000 M63 P0
G93 G1 X0.01 F20000 M62 P0
G93 G1 X-0.01 F20000 M63 P0
G93 G1 X0.01 F20000 M62 P0
G93 G1 X-0.01 F20000 M63 P0
G93 G1 X0.01 F20000 M62 P0
G93 G1 X-0.01 F20000 M63 P0
G93 G1 X0.01 F20000 M62 P0
G93 G1 X-0.01 F20000 M63 P0
G93 G1 X0.01 F20000 M62 P0
G93 G1 X-0.01 F20000 M63 P0
G93 G1 X0.01 F20000 M62 P0
G93 G1 X-0.01 F20000 M63 P0
G93 G1 X0.01 F20000 M62 P0
G93 G1 X-0.01 F20000 M63 P0
G93 G1 X0.01 F20000 M62 P0
G93 G1 X-0.01 F20000 M63 P0
G93 G1 X0.01 F20000 M62 P0
G93 G1 X-0.01 F20000 M63 P0
G93 G1 X0.01 F20000 M62 P0
G93 G1 X-0.01 F20000 M63 P0
G93 G1 X0.01 F20000 M62 P0
G93 G1 X-0.01 F20000 M63 P0
G93 G1 X0.01 F20000 M62 P0
G93 G1 X-0.01 F20000 M63 P0
G93 G1 X0.01 F20000 M62 P0
G93 G1 X-0.01 F20000 M63 P0
G93 G1 X0.01 F20000 M62 P0
G93 G1 X-0.01 F20000 M63 P0
G93 G1 X0.01 F20000 M62 P0
G93 G1 X-0.01 F20000 M63 P0
G93 G1 X0.01 F20000 M62 P0
G93 G1 X-0.01 F20000 M63 P0
G93 G1 X0.01 F20000 M62 P0
G93 G1 X-0.01 F20000 M63 P0
G93 G1 X0.01 F20000 M62 P0
G93 G1 X-0.01 F20000 M63 P0
G93 G1 X0.01 F20000 M62 P0
G93 G1 X-0.01 F20000 M63 P0
G93 G1 X0.01 F20000 M62 P0
G93 G1 X-0.01 F20000 M63 P0
G93 G1 X0.01 F20000 M62 P0
G93 G1 X-0.01 F20000 M63 P0
G93 G1 X0.01 F20000 M62 P0
G93 G1 X-0.01 F20000 M63 P0
G93 G1 X0.01 F20000 M62 P0
G93 G1 X-0.01 F20000 M63 P0
G93 G1 X0.01 F20000 M62 P0
G93 G1 X-0.01 F20000 M63 P0
G93 G1 X0.01 F20000 M62 P0
G93 G1 X-0.01 F20000 M63 P0
G93 G1 X0.01 F20000 M62 P0
G93 G1 X-0.01 F20000 M63 P0
G93 G1 X0.01 F20000 M62 P0
G93 G1 X-0.01 F20000 M63 P0
G93 G1 X0.01 F20000 M62 P0
G93 G1 X-0.01 F20000 M63 P0
G93 G1 X0.01 F20000 M62 P0
G93 G1 X-0.01 F20000 M63 P0
G93 G1 X0.01 F20000 M62 P0
G93 G1 X-0.01 F20000 M63 P0
G93 G1 X0.01 F20000 M62 P0
G93 G1 X-0.01 F20000 M63 P0
G93 G1 X0.01 F20000 M62 P0
G93 G1 X-0.01 F20000 M63 P0
G93 G1 X0.01 F20000 M62 P0
G93 G1 X-0.01 F20000 M63 P0
G93 G1 X0.01 F20000 M62 P0
G93 G1 X-0.01 F20000 M63 P0
G93 G1 X0.01 F20000 M62 P0
G93 G1 X-0.01 F20000 M63 P0
G93 G1 X0.01 F20000 M62 P0
G93 G1 X-0.01 F20000 M63 P0
G93 G1 X0.01 F20000 M62 P0
G93 G1 X-0.01 F20000 M63 P0
G93 G1 X0.01 F20000 M62 P0
G93 G1 X-0.01 F20000 M63 P0
G93 G1 X0.01 F20000 M62 P0
G93 G1 X-0.01 F20000 M63 P0
G93 G1 X0.01 F20000 M62 P0
G93 G1 X-0.01 F20000 M63 P0
G93 G1 X0.01 F20000 M62 P0
G93 G1 X-0.01 F20000 M63 P0
G93 G1 X0.01 F20000 M62 P0
G93 G1 X-0.01 F20000 M63 P0
G93 G1 X0.01 F20000 M62 P0
G93 G1 X-0.01 F20000 M63 P0
G93 G1 X0.01 F20000 M62 P0
G93 G1 X-0.01 F20000 M63 P0
G93 G1 X0.01 F20000 M62 P0
G93 G1 X-0.01 F20000 M63 P0
G93 G1 X0.01 F20000 M62 P0
G93 G1 X-0.01 F20000 M63 P0
G93 G1 X0.01 F20000 M62 P0
G93 G1 X-0.01 F20000 M63 P0
G93 G1 X0.01 F20000 M62 P0
G93 G1 X-0.01 F20000 M63 P0
G93 G1 X0.01 F20000 M62 P0
G93 G1 X-0.01 F20000 M63 P0
G93 G1 X0.01 F20000 M62 P0
G93 G1 X-0.01 F20000 M63 P0
G93 G1 X0.01 F20000 M62 P0
G93 G1 X-0.01 F20000 M63 P0
G93 G1 X0.01 F20000 M62 P0
G93 G1 X-0.01 F20000 M63 P0
G93 G1 X0.01 F20000 M62 P0
G93 G1 X-0.01 F20000 M63 P0
G93 G1 X0.01 F20000 M62 P0
G93 G1 X-0.01 F20000 M63 P0
G93 G1 X0.01 F20000 M62 P0
G93 G1 X-0.01 F20000 M63 P0
G93 G1 X0.01 F20000 M62 P0
G93 G1 X-0.01 F20000 M63 P0
G93 G1 X0.01 F20000 M62 P0
G93 G1 X-0.01 F20000 M63 P0
G93 G1 X0.01 F20000 M62 P0
G93 G1 X-0.01 F20000 M63 P0
G93 G1 X0.01 F20000 M62 P0
G93 G1 X-0.01 F20000 M63 P0
G93 G1 X0.01 F20000 M62 P0
G93 G1 X-0.01 F20000 M63 P0
G93 G1 X0.01 F20000 M62 P0
G93 G1 X-0.01 F20000 M63 P0
G93 G1 X0.01 F20000 M62 P0
G93 G1 X-0.01 F20000 M63 P0
G93 G1 X0.01 F20000 M62 P0
G93 G1 X-0.01 F20000 M63 P0
G93 G1 X0.01 F20000 M62 P0
G93 G1 X-0.01 F20000 M63 P0
G93 G1 X0.01 F20000 M62 P0
G93 G1 X-0.01 F20000 M63 P0
G93 G1 X0.01 F20000 M62 P0
G93 G1 X-0.01 F20000 M63 P0
G93 G1 X0.01 F20000 M62 P0
G93 G1 X-0.01 F20000 M63 P0
G93 G1 X0.01 F20000 M62 P0
G93 G1 X-0.01 F20000 M63 P0
G93 G1 X0.01 F20000 M62 P0
G93 G1 X-0.01 F20000 M63 P0
G93 G1 X0.01 F20000 M62 P0
G93 G1 X-0.01 F20000 M63 P0
G93 G1 X0.01 F20000 M62 P0
G93 G1 X-0.01 F20000 M63 P0
G93 G1 X0.01 F20000 M62 P0
G93 G1 X-0.01 F20000 M63 P0
G93 G1 X0.01 F20000 M62 P0
G93 G1 X-0.01 F20000 M63 P0
G93 G1 X0.01 F20000 M62 P0
G93 G1 X-0.01 F20000 M63 P0
G93 G1 X0.01 F20000 M62 P0
G93 G1 X-0.01 F20000 M63 P0
G93 G1 X0.01 F20000 M62 P0
G93 G1 X-0.01 F20000 M63 P0
G93 G1 X0.01 F20000 M62 P0
G93 G1 X-0.01 F20000 M63 P0
G93 G1 X0.01 F20000 M62 P0
G93 G1 X-0.01 F20000 M63 P0
G93 G1 X0.01 F20000 M62 P0
G93 G1 X-0.01 F20000 M63 P0
G93 G1 X0.01 F20000 M62 P0
G93 G1 X-0.01 F20000 M63 P0
G93 G1 X0.01 F20000 M62 P0
G93 G1 X-0.01 F20000 M63 P0
G93 G1 X0.01 F20000 M62 P0
G93 G1 X-0.01 F20000 M63 P0
G93 G1 X0.01 F20000 M62 P0
G93 G1 X-0.01 F20000 M63 P0
G93 G1 X0.01 F20000 M62 P0
G93 G1 X-0.01 F20000 M63 P0
G93 G1 X0.01 F20000 M62 P0
G93 G1 X-0.01 F20000 M63 P0
G93 G1 X0.01 F20000 M62 P0
G93 G1 X-0.01 F20000 M63 P0
G93 G1 X0.01 F20000 M62 P0
G93 G1 X-0.01 F20000 M63 P0
G93 G1 X0.01 F20000 M62 P0
G93 G1 X-0.01 F20000 M63 P0
G93 G1 X0.01 F20000 M62 P0
G93 G1 X-0.01 F20000 M63 P0
G93 G1 X0.01 F20000 M62 P0
G93 G1 X-0.01 F20000 M63 P0
G93 G1 X0.01 F20000 M62 P0
G93 G1 X-0.01 F20000 M63 P0
G93 G1 X0.01 F20000 M62 P0
G93 G1 X-0.01 F20000 M63 P0
G93 G1 X0.01 F20000 M62 P0
G93 G1 X-0.01 F20000 M63 P0
G93 G1 X0.01 F20000 M62 P0
G93 G1 X-0.01 F20000 M63 P0
G93 G1 X0.01 F20000 M62 P0
G93 G1 X-0.01 F20000 M63 P0
G93 G1 X0.01 F20000 M62 P0
G93 G1 X-0.01 F20000 M63 P0
G93 G1 X0.01 F20000 M62 P0
G93 G1 X-0.01 F20000 M63 P0
G93 G1 X0.01 F20000 M62 P0
G93 G1 X-0.01 F20000 M63 P0
G93 G1 X0.01 F20000 M62 P0
G93 G1 X-0.01 F20000 M63 P0
G93 G1 X0.01 F20000 M62 P0
G93 G1 X-0.01 F20000 M63 P0
G93 G1 X0.01 F20000 M62 P0
G93 G1 X-0.01 F20000 M63 P0
G93 G1 X0.01 F20000 M62 P0
G93 G1 X-0.01 F20000 M63 P0
G93 G1 X0.01 F20000 M62 P0
G93 G1 X-0.01 F20000 M63 P0
G93 G1 X0.01 F20000 M62 P0
G93 G1 X-0.01 F20000 M63 P0
G93 G1 X0.01 F20000 M62 P0
G93 G1 X-0.01 F20000 M63 P0
G93 G1 X0.01 F20000 M62 P0
G93 G1 X-0.01 F20000 M63 P0
G93 G1 X0.01 F20000 M62 P0
G93 G1 X-0.01 F20000 M63 P0
G93 G1 X0.01 F20000 M62 P0
G93 G1 X-0.01 F20000 M63 P0
G93 G1 X0.01 F20000 M62 P0
G93 G1 X-0.01 F20000 M63 P0
G93 G1 X0.01 F20000 M62 P0
G93 G1 X-0.01 F20000 M63 P0
G93 G1 X0.01 F20000 M62 P0
G93 G1 X-0.01 F20000 M63 P0
G93 G1 X0.01 F20000 M62 P0
G93 G1 X-0.01 F20000 M63 P0
G93 G1 X0.01 F20000 M62 P0
G93 G1 X-0.01 F20000 M63 P0
G93 G1 X0.01 F20000 M62 P0
G93 G1 X-0.01 F20000 M63 P0
G93 G1 X0.01 F20000 M62 P0
G93 G1 X-0.01 F20000 M63 P0
G93 G1 X0.01 F20000 M62 P0
G93 G1 X-0.01 F20000 M63 P0
G93 G1 X0.01 F20000 M62 P0
G93 G1 X-0.01 F20000 M63 P0
G93 G1 X0.01 F20000 M62 P0
G93 G1 X-0.01 F20000 M63 P0
G93 G1 X0.01 F20000 M62 P0
G93 G1 X-0.01 F20000 M63 P0
G93 G1 X0.01 F20000 M62 P0
G93 G1 X-0.01 F20000 M63 P0
G93 G1 X0.01 F20000 M62 P0
G93 G1 X-0.01 F20000 M63 P0
G93 G1 X0.01 F20000 M62 P0
G93 G1 X-0.01 F20000 M63 P0
G93 G1 X0.01 F20000 M62 P0
G93 G1 X-0.01 F20000 M63 P0
G93 G1 X0.01 F20000 M62 P0
G93 G1 X-0.01 F20000 M63 P0
G93 G1 X0.01 F20000 M62 P0
G93 G1 X-0.01 F20000 M63 P0
G93 G1 X0.01 F20000 M62 P0
G93 G1 X-0.01 F20000 M63 P0
G93 G1 X0.01 F20000 M62 P0
G93 G1 X-0.01 F20000 M63 P0
G93 G1 X0.01 F20000 M62 P0
G93 G1 X-0.01 F20000 M63 P0
G93 G1 X0.01 F20000 M62 P0
G93 G1 X-0.01 F20000 M63 P0
G93 G1 X0.01 F20000 M62 P0
G93 G1 X-0.01 F20000 M63 P0
G93 G1 X0.01 F20000 M62 P0
G93 G1 X-0.01 F20000 M63 P0
G93 G1 X0.01 F20000 M62 P0
G93 G1 X-0.01 F20000 M63 P0
G93 G1 X0.01 F20000 M62 P0
G93 G1 X-0.01 F20000 M63 P0
G93 G1 X0.01 F20000 M62 P0
G93 G1 X-0.01 F20000 M63 P0
G93 G1 X0.01 F20000 M62 P0
G93 G1 X-0.01 F20000 M63 P0
G93 G1 X0.01 F20000 M62 P0
G93 G1 X-0.01 F20000 M63 P0
G93 G1 X0.01 F20000 M62 P0
G93 G1 X-0.01 F20000 M63 P0
G93 G1 X0.01 F20000 M62 P0
G93 G1 X-0.01 F20000 M63 P0
G93 G1 X0.01 F20000 M62 P0
G93 G1 X-0.01 F20000 M63 P0
G93 G1 X0.01 F20000 M62 P0
G93 G1 X-0.01 F20000 M63 P0
G93 G1 X0.01 F20000 M62 P0
G93 G1 X-0.01 F20000 M63 P0
G93 G1 X0.01 F20000 M62 P0
G93 G1 X-0.01 F20000 M63 P0
G93 G1 X0.01 F20000 M62 P0
G93 G1 X-0.01 F20000 M63 P0
G93 G1 X0.01 F20000 M62 P0
G93 G1 X-0.01 F20000 M63 P0
G93 G1 X0.01 F20000 M62 P0
G93 G1 X-0.01 F20000 M63 P0
G93 G1 X0.01 F20000 M62 P0
G93 G1 X-0.01 F20000 M63 P0
G93 G1 X0.01 F20000 M62 P0
G93 G1 X-0.01 F20000 M63 P0
G93 G1 X0.01 F20000 M62 P0
G93 G1 X-0.01 F20000 M63 P0
G93 G1 X0.01 F20000 M62 P0
G93 G1 X-0.01 F20000 M63 P0
G93 G1 X0.01 F20000 M62 P0
G93 G1 X-0.01 F20000 M63 P0
G93 G1 X0.01 F20000 M62 P0
G93 G1 X-0.01 F20000 M63 P0
G93 G1 X0.01 F20000 M62 P0
G93 G1 X-0.01 F20000 M63 P0
G93 G1 X0.01 F20000 M62 P0
G93 G1 X-0.01 F20000 M63 P0
G93 G1 X0.01 F20000 M62 P0
G93 G1 X-0.01 F20000 M63 P0
G93 G1 X0.01 F20000 M62 P0
G93 G1 X-0.01 F20000 M63 P0
G93 G1 X0.01 F20000 M62 P0
G93 G1 X-0.01 F20000 M63 P0
G93 G1 X0.01 F20000 M62 P0
G93 G1 X-0.01 F20000 M63 P0
G93 G1 X0.01 F20000 M62 P0
G93 G1 X-0.01 F20000 M63 P0
G93 G1 X0.01 F20000 M62 P0
G93 G1 X-0.01 F20000 M63 P0
G93 G1 X0.01 F20000 M62 P0
G93 G1 X-0.01 F20000 M63 P0
G93 G1 X0.01 F20000 M62 P0
G93 G1 X-0.01 F20000 M63 P0
G93 G1 X0.01 F20000 M62 P0
G93 G1 X-0.01 F20000 M63 P0
G93 G1 X0.01 F20000 M62 P0
G93 G1 X-0.01 F20000 M63 P0
G93 G1 X0.01 F20000 M62 P0
G93 G1 X-0.01 F20000 M63 P0
G93 G1 X0.01 F20000 M62 P0
G93 G1 X-0.01 F20000 M63 P0
G93 G1 X0.01 F20000 M62 P0
G93 G1 X-0.01 F20000 M63 P0
G93 G1 X0.01 F20000 M62 P0
G93 G1 X-0.01 F20000 M63 P0
G93 G1 X0.01 F20000 M62 P0
G93 G1 X-0.01 F20000 M63 P0
G93 G1 X0.01 F20000 M62 P0
G93 G1 X-0.01 F20000 M63 P0
G93 G1 X0.01 F20000 M62 P0
G93 G1 X-0.01 F20000 M63 P0
G93 G1 X0.01 F20000 M62 P0
G93 G1 X-0.01 F20000 M63 P0
G93 G1 X0.01 F20000 M62 P0
G93 G1 X-0.01 F20000 M63 P0
G93 G1 X0.01 F20000 M62 P0
G93 G1 X-0.01 F20000 M63 P0
G93 G1 X0.01 F20000 M62 P0
G93 G1 X-0.01 F20000 M63 P0
G93 G1 X0.01 F20000 M62 P0
G93 G1 X-0.01 F20000 M63 P0
G93 G1 X0.01 F20000 M62 P0
G93 G1 X-0.01 F20000 M63 P0
G93 G1 X0.01 F20000 M62 P0
G93 G1 X-0.01 F20000 M63 P0
G93 G1 X0.01 F20000 M62 P0
G93 G1 X-0.01 F20000 M63 P0
G93 G1 X0.01 F20000 M62 P0
G93 G1 X-0.01 F20000 M63 P0
G93 G1 X0.01 F20000 M62 P0
G93 G1 X-0.01 F20000 M63 P0
G93 G1 X0.01 F20000 M62 P0
G93 G1 X-0.01 F20000 M63 P0
G93 G1 X0.01 F20000 M62 P0
G93 G1 X-0.01 F20000 M63 P0
G93 G1 X0.01 F20000 M62 P0
G93 G1 X-0.01 F20000 M63 P0
G93 G1 X0.01 F20000 M62 P0
G93 G1 X-0.01 F20000 M63 P0
G93 G1 X0.01 F20000 M62 P0
G93 G1 X-0.01 F20000 M63 P0
G93 G1 X0.01 F20000 M62 P0
G93 G1 X-0.01 F20000 M63 P0
G93 G1 X0.01 F20000 M62 P0
G93 G1 X-0.01 F20000 M63 P0
G93 G1 X0.01 F20000 M62 P0
G93 G1 X-0.01 F20000 M63 P0
G93 G1 X0.01 F20000 M62 P0
G93 G1 X-0.01 F20000 M63 P0
G93 G1 X0.01 F20000 M62 P0
G93 G1 X-0.01 F20000 M63 P0
G93 G1 X0.01 F20000 M62 P0
G93 G1 X-0.01 F20000 M63 P0
G93 G1 X0.01 F20000 M62 P0
G93 G1 X-0.01 F20000 M63 P0
G93 G1 X0.01 F20000 M62 P0
G93 G1 X-0.01 F20000 M63 P0
G93 G1 X0.01 F20000 M62 P0
G93 G1 X-0.01 F20000 M63 P0
G93 G1 X0.01 F20000 M62 P0
G93 G1 X-0.01 F20000 M63 P0
G93 G1 X0.01 F20000 M62 P0
G93 G1 X-0.01 F20000 M63 P0
G93 G1 X0.01 F20000 M62 P0
G93 G1 X-0.01 F20000 M63 P0
G93 G1 X0.01 F20000 M62 P0
G93 G1 X-0.01 F20000 M63 P0
G93 G1 X0.01 F20000 M62 P0
G93 G1 X-0.01 F20000 M63 P0
G93 G1 X0.01 F20000 M62 P0
G93 G1 X-0.01 F20000 M63 P0
G93 G1 X0.01 F20000 M62 P0
G93 G1 X-0.01 F20000 M63 P0
G93 G1 X0.01 F20000 M62 P0
G93 G1 X-0.01 F20000 M63 P0
G93 G1 X0.01 F20000 M62 P0
G93 G1 X-0.01 F20000 M63 P0
G93 G1 X0.01 F20000 M62 P0
G93 G1 X-0.01 F20000 M63 P0
G93 G1 X0.01 F20000 M62 P0
G93 G1 X-0.01 F20000 M63 P0
G93 G1 X0.01 F20000 M62 P0
G93 G1 X-0.01 F20000 M63 P0
G93 G1 X0.01 F20000 M62 P0
G93 G1 X-0.01 F20000 M63 P0
G93 G1 X0.01 F20000 M62 P0
G93 G1 X-0.01 F20000 M63 P0
G93 G1 X0.01 F20000 M62 P0
G93 G1 X-0.01 F20000 M63 P0
G93 G1 X0.01 F20000 M62 P0
G93 G1 X-0.01 F20000 M63 P0
G93 G1 X0.01 F20000 M62 P0
G93 G1 X-0.01 F20000 M63 P0
G93 G1 X0.01 F20000 M62 P0
G93 G1 X-0.01 F20000 M63 P0
G93 G1 X0.01 F20000 M62 P0
G93 G1 X-0.01 F20000 M63 P0
G93 G1 X0.01 F20000 M62 P0
G93 G1 X-0.01 F20000 M63 P0
G93 G1 X0.01 F20000 M62 P0
G93 G1 X-0.01 F20000 M63 P0
G93 G1 X0.01 F20000 M62 P0
G93 G1 X-0.01 F20000 M63 P0
G93 G1 X0.01 F20000 M62 P0
G93 G1 X-0.01 F20000 M63 P0
G93 G1 X0.01 F20000 M62 P0
G93 G1 X-0.01 F20000 M63 P0
G93 G1 X0.01 F20000 M62 P0
G93 G1 X-0.01 F20000 M63 P0
G93 G1 X0.01 F20000 M62 P0
G93 G1 X-0.01 F20000 M63 P0
G93 G1 X0.01 F20000 M62 P0
G93 G1 X-0.01 F20000 M63 P0
G93 G1 X0.01 F20000 M62 P0
G93 G1 X-0.01 F20000 M63 P0
G93 G1 X0.01 F20000 M62 P0
G93 G1 X-0.01 F20000 M63 P0
G93 G1 X0.01 F20000 M62 P0
G93 G1 X-0.01 F20000 M63 P0
G93 G1 X0.01 F20000 M62 P0
G93 G1 X-0.01 F20000 M63 P0
G93 G1 X0.01 F20000 M62 P0
G93 G1 X-0.01 F20000 M63 P0
G93 G1 X0.01 F20000 M62 P0
G93 G1 X-0.01 F20000 M63 P0
G93 G1 X0.01 F20000 M62 P0
G93 G1 X-0.01 F20000 M63 P0
G93 G1 X0.01 F20000 M62 P0
G93 G1 X-0.01 F20000 M63 P0
G93 G1 X0.01 F20000 M62 P0
G93 G1 X-0.01 F20000 M63 P0
G93 G1 X0.01 F20000 M62 P0
G93 G1 X-0.01 F20000 M63 P0
G93 G1 X0.01 F20000 M62 P0
G93 G1 X-0.01 F20000 M63 P0
G93 G1 X0.01 F20000 M62 P0
G93 G1 X-0.01 F20000 M63 P0
G93 G1 X0.01 F20000 M62 P0
G93 G1 X-0.01 F20000 M63 P0
G93 G1 X0.01 F20000 M62 P0
G93 G1 X-0.01 F20000 M63 P0
G93 G1 X0.01 F20000 M62 P0
G93 G1 X-0.01 F20000 M63 P0
G93 G1 X0.01 F20000 M62 P0
G93 G1 X-0.01 F20000 M63 P0
G93 G1 X0.01 F20000 M62 P0
G93 G1 X-0.01 F20000 M63 P0
G93 G1 X0.01 F20000 M62 P0
G93 G1 X-0.01 F20000 M63 P0
G93 G1 X0.01 F20000 M62 P0
G93 G1 X-0.01 F20000 M63 P0
G0 X-10.0 Y700.0 Z80.0 A-437.214 B0.0 C0.0 U0.0
%