%
(2025-34-14, 11:34:34, Florian Amoser)
(This is machine specific gcode for SPLICER)
(250214_testing0_0-1500.ngc)
(linenumbers: 1500)
(color: a)
(exposure time: 1500μs)
G90 G17
G21
G01 F5000
G0 X-34.48 Y130.0 Z80.0 A0.0 B0.0 C0.0 U0.0
M100
G93 G1 V210.102 F20000 M63 P0
G93 G1 X-24.445 V210.102 F20000 M62 P0
G93 G1 X-24.413 V210.102 F20000 M63 P0
G93 G1 X-24.38 V210.102 F20000 M62 P0
G93 G1 X-24.347 V210.102 F20000 M63 P0
G93 G1 X-24.315 V210.102 F20000 M62 P0
G93 G1 X-24.282 V210.102 F20000 M63 P0
G93 G1 X-24.249 V210.102 F20000 M62 P0
G93 G1 X-24.217 V210.102 F20000 M63 P0
G93 G1 X-24.184 V210.102 F20000 M62 P0
G93 G1 X-24.151 V210.102 F20000 M63 P0
G93 G1 X-24.119 V210.102 F20000 M62 P0
G93 G1 X-24.086 V210.102 F20000 M63 P0
G93 G1 X-24.054 V210.102 F20000 M62 P0
G93 G1 X-24.021 V210.102 F20000 M63 P0
G93 G1 X-23.988 V210.102 F20000 M62 P0
G93 G1 X-23.956 V210.102 F20000 M63 P0
G93 G1 X-23.923 V210.102 F20000 M62 P0
G93 G1 X-23.89 V210.102 F20000 M63 P0
G93 G1 X-23.858 V210.102 F20000 M62 P0
G93 G1 X-23.825 V210.102 F20000 M63 P0
G93 G1 X-23.792 V210.102 F20000 M62 P0
G93 G1 X-23.76 V210.102 F20000 M63 P0
G93 G1 X-23.727 V210.102 F20000 M62 P0
G93 G1 X-23.695 V210.102 F20000 M63 P0
G93 G1 X-23.662 V210.102 F20000 M62 P0
G93 G1 X-23.629 V210.102 F20000 M63 P0
G93 G1 X-23.597 V210.102 F20000 M62 P0
G93 G1 X-23.564 V210.102 F20000 M63 P0
G93 G1 X-23.531 V210.102 F20000 M62 P0
G93 G1 X-23.499 V210.102 F20000 M63 P0
G93 G1 X-23.466 V210.102 F20000 M62 P0
G93 G1 X-23.433 V210.102 F20000 M63 P0
G93 G1 X-23.401 V210.102 F20000 M62 P0
G93 G1 X-23.368 V210.102 F20000 M63 P0
G93 G1 X-23.336 V210.102 F20000 M62 P0
G93 G1 X-23.303 V210.102 F20000 M63 P0
G93 G1 X-23.27 V210.102 F20000 M62 P0
G93 G1 X-23.238 V210.102 F20000 M63 P0
G93 G1 X-23.205 V210.102 F20000 M62 P0
G93 G1 X-23.172 V210.102 F20000 M63 P0
G93 G1 X-23.14 V210.102 F20000 M62 P0
G93 G1 X-23.107 V210.102 F20000 M63 P0
G93 G1 X-23.074 V210.102 F20000 M62 P0
G93 G1 X-23.042 V210.102 F20000 M63 P0
G93 G1 X-23.009 V210.102 F20000 M62 P0
G93 G1 X-22.977 V210.102 F20000 M63 P0
G93 G1 X-22.944 V210.102 F20000 M62 P0
G93 G1 X-22.911 V210.102 F20000 M63 P0
G93 G1 X-22.879 V210.102 F20000 M62 P0
G93 G1 X-22.846 V210.102 F20000 M63 P0
G93 G1 X-22.813 V210.102 F20000 M62 P0
G93 G1 X-22.781 V210.102 F20000 M63 P0
G93 G1 X-22.748 V210.102 F20000 M62 P0
G93 G1 X-22.715 V210.102 F20000 M63 P0
G93 G1 X-22.683 V210.102 F20000 M62 P0
G93 G1 X-22.65 V210.102 F20000 M63 P0
G93 G1 X-22.617 V210.102 F20000 M62 P0
G93 G1 X-22.585 V210.102 F20000 M63 P0
G93 G1 X-22.552 V210.102 F20000 M62 P0
G93 G1 X-22.52 V210.102 F20000 M63 P0
G93 G1 X-22.487 V210.102 F20000 M62 P0
G93 G1 X-22.454 V210.102 F20000 M63 P0
G93 G1 X-22.422 V210.102 F20000 M62 P0
G93 G1 X-22.389 V210.102 F20000 M63 P0
G93 G1 X-22.356 V210.102 F20000 M62 P0
G93 G1 X-22.324 V210.102 F20000 M63 P0
G93 G1 X-22.291 V210.102 F20000 M62 P0
G93 G1 X-22.258 V210.102 F20000 M63 P0
G93 G1 X-22.226 V210.102 F20000 M62 P0
G93 G1 X-22.193 V210.102 F20000 M63 P0
G93 G1 X-22.161 V210.102 F20000 M62 P0
G93 G1 X-22.128 V210.102 F20000 M63 P0
G93 G1 X-22.095 V210.102 F20000 M62 P0
G93 G1 X-22.063 V210.102 F20000 M63 P0
G93 G1 X-22.03 V210.102 F20000 M62 P0
G93 G1 X-21.997 V210.102 F20000 M63 P0
G93 G1 X-21.965 V210.102 F20000 M62 P0
G93 G1 X-21.932 V210.102 F20000 M63 P0
G93 G1 X-21.899 V210.102 F20000 M62 P0
G93 G1 X-21.867 V210.102 F20000 M63 P0
G93 G1 X-21.834 V210.102 F20000 M62 P0
G93 G1 X-21.802 V210.102 F20000 M63 P0
G93 G1 X-21.769 V210.102 F20000 M62 P0
G93 G1 X-21.736 V210.102 F20000 M63 P0
G93 G1 X-21.704 V210.102 F20000 M62 P0
G93 G1 X-21.671 V210.102 F20000 M63 P0
G93 G1 X-21.638 V210.102 F20000 M62 P0
G93 G1 X-21.606 V210.102 F20000 M63 P0
G93 G1 X-21.573 V210.102 F20000 M62 P0
G93 G1 X-21.54 V210.102 F20000 M63 P0
G93 G1 X-21.508 V210.102 F20000 M62 P0
G93 G1 X-21.475 V210.102 F20000 M63 P0
G93 G1 X-21.443 V210.102 F20000 M62 P0
G93 G1 X-21.41 V210.102 F20000 M63 P0
G93 G1 X-21.377 V210.102 F20000 M62 P0
G93 G1 X-21.345 V210.102 F20000 M63 P0
G93 G1 X-21.312 V210.102 F20000 M62 P0
G93 G1 X-21.279 V210.102 F20000 M63 P0
G93 G1 X-21.247 V210.102 F20000 M62 P0
G93 G1 X-21.214 V210.102 F20000 M63 P0
G93 G1 X-21.181 V210.102 F20000 M62 P0
G93 G1 X-21.149 V210.102 F20000 M63 P0
G93 G1 X-21.116 V210.102 F20000 M62 P0
G93 G1 X-21.084 V210.102 F20000 M63 P0
G93 G1 X-21.051 V210.102 F20000 M62 P0
G93 G1 X-21.018 V210.102 F20000 M63 P0
G93 G1 X-20.986 V210.102 F20000 M62 P0
G93 G1 X-20.953 V210.102 F20000 M63 P0
G93 G1 X-20.92 V210.102 F20000 M62 P0
G93 G1 X-20.888 V210.102 F20000 M63 P0
G93 G1 X-20.855 V210.102 F20000 M62 P0
G93 G1 X-20.822 V210.102 F20000 M63 P0
G93 G1 X-20.79 V210.102 F20000 M62 P0
G93 G1 X-20.757 V210.102 F20000 M63 P0
G93 G1 X-20.725 V210.102 F20000 M62 P0
G93 G1 X-20.692 V210.102 F20000 M63 P0
G93 G1 X-20.659 V210.102 F20000 M62 P0
G93 G1 X-20.627 V210.102 F20000 M63 P0
G93 G1 X-20.594 V210.102 F20000 M62 P0
G93 G1 X-20.561 V210.102 F20000 M63 P0
G93 G1 X-20.529 V210.102 F20000 M62 P0
G93 G1 X-20.496 V210.102 F20000 M63 P0
G93 G1 X-20.463 V210.102 F20000 M62 P0
G93 G1 X-20.431 V210.102 F20000 M63 P0
G93 G1 X-20.398 V210.102 F20000 M62 P0
G93 G1 X-20.366 V210.102 F20000 M63 P0
G93 G1 X-20.333 V210.102 F20000 M62 P0
G93 G1 X-20.3 V210.102 F20000 M63 P0
G93 G1 X-20.268 V210.102 F20000 M62 P0
G93 G1 X-20.235 V210.102 F20000 M63 P0
G93 G1 X-20.202 V210.102 F20000 M62 P0
G93 G1 X-20.17 V210.102 F20000 M63 P0
G93 G1 X-20.137 V210.102 F20000 M62 P0
G93 G1 X-20.104 V210.102 F20000 M63 P0
G93 G1 X-20.072 V210.102 F20000 M62 P0
G93 G1 X-20.039 V210.102 F20000 M63 P0
G93 G1 X-20.007 V210.102 F20000 M62 P0
G93 G1 X-19.974 V210.102 F20000 M63 P0
G93 G1 X-19.941 V210.102 F20000 M62 P0
G93 G1 X-19.909 V210.102 F20000 M63 P0
G93 G1 X-19.876 V210.102 F20000 M62 P0
G93 G1 X-19.843 V210.102 F20000 M63 P0
G93 G1 X-19.811 V210.102 F20000 M62 P0
G93 G1 X-19.778 V210.102 F20000 M63 P0
G93 G1 X-19.745 V210.102 F20000 M62 P0
G93 G1 X-19.713 V210.102 F20000 M63 P0
G93 G1 X-19.68 V210.102 F20000 M62 P0
G93 G1 X-19.648 V210.102 F20000 M63 P0
G93 G1 X-19.615 V210.102 F20000 M62 P0
G93 G1 X-19.582 V210.102 F20000 M63 P0
G93 G1 X-19.55 V210.102 F20000 M62 P0
G93 G1 X-19.517 V210.102 F20000 M63 P0
G93 G1 X-19.484 V210.102 F20000 M62 P0
G93 G1 X-19.452 V210.102 F20000 M63 P0
G93 G1 X-19.419 V210.102 F20000 M62 P0
G93 G1 X-19.386 V210.102 F20000 M63 P0
G93 G1 X-19.354 V210.102 F20000 M62 P0
G93 G1 X-19.321 V210.102 F20000 M63 P0
G93 G1 X-19.289 V210.102 F20000 M62 P0
G93 G1 X-19.256 V210.102 F20000 M63 P0
G93 G1 X-19.223 V210.102 F20000 M62 P0
G93 G1 X-19.191 V210.102 F20000 M63 P0
G93 G1 X-19.158 V210.102 F20000 M62 P0
G93 G1 X-19.125 V210.102 F20000 M63 P0
G93 G1 X-19.093 V210.102 F20000 M62 P0
G93 G1 X-19.06 V210.102 F20000 M63 P0
G93 G1 X-19.027 V210.102 F20000 M62 P0
G93 G1 X-18.995 V210.102 F20000 M63 P0
G93 G1 X-18.962 V210.102 F20000 M62 P0
G93 G1 X-18.93 V210.102 F20000 M63 P0
G93 G1 X-18.897 V210.102 F20000 M62 P0
G93 G1 X-18.864 V210.102 F20000 M63 P0
G93 G1 X-18.832 V210.102 F20000 M62 P0
G93 G1 X-18.799 V210.102 F20000 M63 P0
G93 G1 X-18.766 V210.102 F20000 M62 P0
G93 G1 X-18.734 V210.102 F20000 M63 P0
G93 G1 X-18.701 V210.102 F20000 M62 P0
G93 G1 X-18.668 V210.102 F20000 M63 P0
G93 G1 X-18.636 V210.102 F20000 M62 P0
G93 G1 X-18.603 V210.102 F20000 M63 P0
G93 G1 X-18.57 V210.102 F20000 M62 P0
G93 G1 X-18.538 V210.102 F20000 M63 P0
G93 G1 X-18.505 V210.102 F20000 M62 P0
G93 G1 X-18.473 V210.102 F20000 M63 P0
G93 G1 X-18.44 V210.102 F20000 M62 P0
G93 G1 X-18.407 V210.102 F20000 M63 P0
G93 G1 X-18.375 V210.102 F20000 M62 P0
G93 G1 X-18.342 V210.102 F20000 M63 P0
G93 G1 X-18.309 V210.102 F20000 M62 P0
G93 G1 X-18.277 V210.102 F20000 M63 P0
G93 G1 X-18.244 V210.102 F20000 M62 P0
G93 G1 X-18.211 V210.102 F20000 M63 P0
G93 G1 X-18.179 V210.102 F20000 M62 P0
G93 G1 X-18.146 V210.102 F20000 M63 P0
G93 G1 X-18.114 V210.102 F20000 M62 P0
G93 G1 X-18.081 V210.102 F20000 M63 P0
G93 G1 X-18.048 V210.102 F20000 M62 P0
G93 G1 X-18.016 V210.102 F20000 M63 P0
G93 G1 X-17.983 V210.102 F20000 M62 P0
G93 G1 X-17.95 V210.102 F20000 M63 P0
G93 G1 X-17.918 V210.102 F20000 M62 P0
G93 G1 X-17.885 V210.102 F20000 M63 P0
G93 G1 X-17.852 V210.102 F20000 M62 P0
G93 G1 X-17.82 V210.102 F20000 M63 P0
G93 G1 X-17.787 V210.102 F20000 M62 P0
G93 G1 X-17.755 V210.102 F20000 M63 P0
G93 G1 X-17.722 V210.102 F20000 M62 P0
G93 G1 X-17.689 V210.102 F20000 M63 P0
G93 G1 X-17.657 V210.102 F20000 M62 P0
G93 G1 X-17.624 V210.102 F20000 M63 P0
G93 G1 X-17.591 V210.102 F20000 M62 P0
G93 G1 X-17.559 V210.102 F20000 M63 P0
G93 G1 X-17.526 V210.102 F20000 M62 P0
G93 G1 X-17.493 V210.102 F20000 M63 P0
G93 G1 X-17.461 V210.102 F20000 M62 P0
G93 G1 X-17.428 V210.102 F20000 M63 P0
G93 G1 X-17.396 V210.102 F20000 M62 P0
G93 G1 X-17.363 V210.102 F20000 M63 P0
G93 G1 X-17.33 V210.102 F20000 M62 P0
G93 G1 X-17.298 V210.102 F20000 M63 P0
G93 G1 X-17.265 V210.102 F20000 M62 P0
G93 G1 X-17.232 V210.102 F20000 M63 P0
G93 G1 X-17.2 V210.102 F20000 M62 P0
G93 G1 X-17.167 V210.102 F20000 M63 P0
G93 G1 X-17.134 V210.102 F20000 M62 P0
G93 G1 X-17.102 V210.102 F20000 M63 P0
G93 G1 X-17.069 V210.102 F20000 M62 P0
G93 G1 X-17.037 V210.102 F20000 M63 P0
G93 G1 X-17.004 V210.102 F20000 M62 P0
G93 G1 X-16.971 V210.102 F20000 M63 P0
G93 G1 X-16.939 V210.102 F20000 M62 P0
G93 G1 X-16.906 V210.102 F20000 M63 P0
G93 G1 X-16.873 V210.102 F20000 M62 P0
G93 G1 X-16.841 V210.102 F20000 M63 P0
G93 G1 X-16.808 V210.102 F20000 M62 P0
G93 G1 X-16.775 V210.102 F20000 M63 P0
G93 G1 X-16.743 V210.102 F20000 M62 P0
G93 G1 X-16.71 V210.102 F20000 M63 P0
G93 G1 X-16.678 V210.102 F20000 M62 P0
G93 G1 X-16.645 V210.102 F20000 M63 P0
G93 G1 X-16.612 V210.102 F20000 M62 P0
G93 G1 X-16.58 V210.102 F20000 M63 P0
G93 G1 X-16.547 V210.102 F20000 M62 P0
G93 G1 X-16.514 V210.102 F20000 M63 P0
G93 G1 X-16.482 V210.102 F20000 M62 P0
G93 G1 X-16.449 V210.102 F20000 M63 P0
G93 G1 X-16.416 V210.102 F20000 M62 P0
G93 G1 X-16.384 V210.102 F20000 M63 P0
G93 G1 X-16.351 V210.102 F20000 M62 P0
G93 G1 X-16.319 V210.102 F20000 M63 P0
G93 G1 X-16.286 V210.102 F20000 M62 P0
G93 G1 X-16.253 V210.102 F20000 M63 P0
G93 G1 X-16.221 V210.102 F20000 M62 P0
G93 G1 X-16.188 V210.102 F20000 M63 P0
G93 G1 X-16.155 V210.102 F20000 M62 P0
G93 G1 X-16.123 V210.102 F20000 M63 P0
G93 G1 X-16.09 V210.102 F20000 M62 P0
G93 G1 X-16.057 V210.102 F20000 M63 P0
G93 G1 X-16.025 V210.102 F20000 M62 P0
G93 G1 X-15.992 V210.102 F20000 M63 P0
G93 G1 X-15.96 V210.102 F20000 M62 P0
G93 G1 X-15.927 V210.102 F20000 M63 P0
G93 G1 X-15.894 V210.102 F20000 M62 P0
G93 G1 X-15.862 V210.102 F20000 M63 P0
G93 G1 X-15.829 V210.102 F20000 M62 P0
G93 G1 X-15.796 V210.102 F20000 M63 P0
G93 G1 X-15.764 V210.102 F20000 M62 P0
G93 G1 X-15.731 V210.102 F20000 M63 P0
G93 G1 X-15.698 V210.102 F20000 M62 P0
G93 G1 X-15.666 V210.102 F20000 M63 P0
G93 G1 X-15.633 V210.102 F20000 M62 P0
G93 G1 X-15.601 V210.102 F20000 M63 P0
G93 G1 X-15.568 V210.102 F20000 M62 P0
G93 G1 X-15.535 V210.102 F20000 M63 P0
G93 G1 X-15.503 V210.102 F20000 M62 P0
G93 G1 X-15.47 V210.102 F20000 M63 P0
G93 G1 X-15.437 V210.102 F20000 M62 P0
G93 G1 X-15.405 V210.102 F20000 M63 P0
G93 G1 X-15.372 V210.102 F20000 M62 P0
G93 G1 X-15.339 V210.102 F20000 M63 P0
G93 G1 X-15.307 V210.102 F20000 M62 P0
G93 G1 X-15.274 V210.102 F20000 M63 P0
G93 G1 X-15.242 V210.102 F20000 M62 P0
G93 G1 X-15.209 V210.102 F20000 M63 P0
G93 G1 X-15.176 V210.102 F20000 M62 P0
G93 G1 X-15.144 V210.102 F20000 M63 P0
G93 G1 X-15.111 V210.102 F20000 M62 P0
G93 G1 X-15.078 V210.102 F20000 M63 P0
G93 G1 X-15.046 V210.102 F20000 M62 P0
G93 G1 X-15.013 V210.102 F20000 M63 P0
G93 G1 X-14.98 V210.102 F20000 M62 P0
G93 G1 X-14.948 V210.102 F20000 M63 P0
G93 G1 X-14.915 V210.102 F20000 M62 P0
G93 G1 X-14.883 V210.102 F20000 M63 P0
G93 G1 X-14.85 V210.102 F20000 M62 P0
G93 G1 X-14.817 V210.102 F20000 M63 P0
G93 G1 X-14.785 V210.102 F20000 M62 P0
G93 G1 X-14.752 V210.102 F20000 M63 P0
G93 G1 X-14.719 V210.102 F20000 M62 P0
G93 G1 X-14.687 V210.102 F20000 M63 P0
G93 G1 X-14.654 V210.102 F20000 M62 P0
G93 G1 X-14.621 V210.102 F20000 M63 P0
G93 G1 X-14.589 V210.102 F20000 M62 P0
G93 G1 X-14.556 V210.102 F20000 M63 P0
G93 G1 X-14.523 V210.102 F20000 M62 P0
G93 G1 X-14.491 V210.102 F20000 M63 P0
G93 G1 X-14.458 V210.102 F20000 M62 P0
G93 G1 X-14.426 V210.102 F20000 M63 P0
G93 G1 X-14.393 V210.102 F20000 M62 P0
G93 G1 X-14.36 V210.102 F20000 M63 P0
G93 G1 X-14.328 V210.102 F20000 M62 P0
G93 G1 X-14.295 V210.102 F20000 M63 P0
G93 G1 X-14.262 V210.102 F20000 M62 P0
G93 G1 X-14.23 V210.102 F20000 M63 P0
G93 G1 X-14.197 V210.102 F20000 M62 P0
G93 G1 X-14.164 V210.102 F20000 M63 P0
G93 G1 X-14.132 V210.102 F20000 M62 P0
G93 G1 X-14.099 V210.102 F20000 M63 P0
G93 G1 X-14.067 V210.102 F20000 M62 P0
G93 G1 X-14.034 V210.102 F20000 M63 P0
G93 G1 X-14.001 V210.102 F20000 M62 P0
G93 G1 X-13.969 V210.102 F20000 M63 P0
G93 G1 X-13.936 V210.102 F20000 M62 P0
G93 G1 X-13.903 V210.102 F20000 M63 P0
G93 G1 X-13.871 V210.102 F20000 M62 P0
G93 G1 X-13.838 V210.102 F20000 M63 P0
G93 G1 X-13.805 V210.102 F20000 M62 P0
G93 G1 X-13.773 V210.102 F20000 M63 P0
G93 G1 X-13.74 V210.102 F20000 M62 P0
G93 G1 X-13.708 V210.102 F20000 M63 P0
G93 G1 X-13.675 V210.102 F20000 M62 P0
G93 G1 X-13.642 V210.102 F20000 M63 P0
G93 G1 X-13.61 V210.102 F20000 M62 P0
G93 G1 X-13.577 V210.102 F20000 M63 P0
G93 G1 X-13.544 V210.102 F20000 M62 P0
G93 G1 X-13.512 V210.102 F20000 M63 P0
G93 G1 X-13.479 V210.102 F20000 M62 P0
G93 G1 X-13.446 V210.102 F20000 M63 P0
G93 G1 X-13.414 V210.102 F20000 M62 P0
G93 G1 X-13.381 V210.102 F20000 M63 P0
G93 G1 X-13.349 V210.102 F20000 M62 P0
G93 G1 X-13.316 V210.102 F20000 M63 P0
G93 G1 X-13.283 V210.102 F20000 M62 P0
G93 G1 X-13.251 V210.102 F20000 M63 P0
G93 G1 X-13.218 V210.102 F20000 M62 P0
G93 G1 X-13.185 V210.102 F20000 M63 P0
G93 G1 X-13.153 V210.102 F20000 M62 P0
G93 G1 X-13.12 V210.102 F20000 M63 P0
G93 G1 X-13.087 V210.102 F20000 M62 P0
G93 G1 X-13.055 V210.102 F20000 M63 P0
G93 G1 X-13.022 V210.102 F20000 M62 P0
G93 G1 X-12.99 V210.102 F20000 M63 P0
G93 G1 X-12.957 V210.102 F20000 M62 P0
G93 G1 X-12.924 V210.102 F20000 M63 P0
G93 G1 X-12.892 V210.102 F20000 M62 P0
G93 G1 X-12.859 V210.102 F20000 M63 P0
G93 G1 X-12.826 V210.102 F20000 M62 P0
G93 G1 X-12.794 V210.102 F20000 M63 P0
G93 G1 X-12.761 V210.102 F20000 M62 P0
G93 G1 X-12.728 V210.102 F20000 M63 P0
G93 G1 X-12.696 V210.102 F20000 M62 P0
G93 G1 X-12.663 V210.102 F20000 M63 P0
G93 G1 X-12.631 V210.102 F20000 M62 P0
G93 G1 X-12.598 V210.102 F20000 M63 P0
G93 G1 X-12.565 V210.102 F20000 M62 P0
G93 G1 X-12.533 V210.102 F20000 M63 P0
G93 G1 X-12.5 V210.102 F20000 M62 P0
G93 G1 X-12.467 V210.102 F20000 M63 P0
G93 G1 X-12.435 V210.102 F20000 M62 P0
G93 G1 X-12.402 V210.102 F20000 M63 P0
G93 G1 X-12.369 V210.102 F20000 M62 P0
G93 G1 X-12.337 V210.102 F20000 M63 P0
G93 G1 X-12.304 V210.102 F20000 M62 P0
G93 G1 X-12.272 V210.102 F20000 M63 P0
G93 G1 X-12.239 V210.102 F20000 M62 P0
G93 G1 X-12.206 V210.102 F20000 M63 P0
G93 G1 X-12.174 V210.102 F20000 M62 P0
G93 G1 X-12.141 V210.102 F20000 M63 P0
G93 G1 X-12.108 V210.102 F20000 M62 P0
G93 G1 X-12.076 V210.102 F20000 M63 P0
G93 G1 X-12.043 V210.102 F20000 M62 P0
G93 G1 X-12.01 V210.102 F20000 M63 P0
G93 G1 X-11.978 V210.102 F20000 M62 P0
G93 G1 X-11.945 V210.102 F20000 M63 P0
G93 G1 X-11.913 V210.102 F20000 M62 P0
G93 G1 X-11.88 V210.102 F20000 M63 P0
G93 G1 X-11.847 V210.102 F20000 M62 P0
G93 G1 X-11.815 V210.102 F20000 M63 P0
G93 G1 X-11.782 V210.102 F20000 M62 P0
G93 G1 X-11.749 V210.102 F20000 M63 P0
G93 G1 X-11.717 V210.102 F20000 M62 P0
G93 G1 X-11.684 V210.102 F20000 M63 P0
G93 G1 X-11.651 V210.102 F20000 M62 P0
G93 G1 X-11.619 V210.102 F20000 M63 P0
G93 G1 X-11.586 V210.102 F20000 M62 P0
G93 G1 X-11.554 V210.102 F20000 M63 P0
G93 G1 X-11.521 V210.102 F20000 M62 P0
G93 G1 X-11.488 V210.102 F20000 M63 P0
G93 G1 X-11.456 V210.102 F20000 M62 P0
G93 G1 X-11.423 V210.102 F20000 M63 P0
G93 G1 X-11.39 V210.102 F20000 M62 P0
G93 G1 X-11.358 V210.102 F20000 M63 P0
G93 G1 X-11.325 V210.102 F20000 M62 P0
G93 G1 X-11.292 V210.102 F20000 M63 P0
G93 G1 X-11.26 V210.102 F20000 M62 P0
G93 G1 X-11.227 V210.102 F20000 M63 P0
G93 G1 X-11.195 V210.102 F20000 M62 P0
G93 G1 X-11.162 V210.102 F20000 M63 P0
G93 G1 X-11.129 V210.102 F20000 M62 P0
G93 G1 X-11.097 V210.102 F20000 M63 P0
G93 G1 X-11.064 V210.102 F20000 M62 P0
G93 G1 X-11.031 V210.102 F20000 M63 P0
G93 G1 X-10.999 V210.102 F20000 M62 P0
G93 G1 X-10.966 V210.102 F20000 M63 P0
G93 G1 X-10.933 V210.102 F20000 M62 P0
G93 G1 X-10.901 V210.102 F20000 M63 P0
G93 G1 X-10.868 V210.102 F20000 M62 P0
G93 G1 X-10.836 V210.102 F20000 M63 P0
G93 G1 X-10.803 V210.102 F20000 M62 P0
G93 G1 X-10.77 V210.102 F20000 M63 P0
G93 G1 X-10.738 V210.102 F20000 M62 P0
G93 G1 X-10.705 V210.102 F20000 M63 P0
G93 G1 X-10.672 V210.102 F20000 M62 P0
G93 G1 X-10.64 V210.102 F20000 M63 P0
G93 G1 X-10.607 V210.102 F20000 M62 P0
G93 G1 X-10.574 V210.102 F20000 M63 P0
G93 G1 X-10.542 V210.102 F20000 M62 P0
G93 G1 X-10.509 V210.102 F20000 M63 P0
G93 G1 X-10.477 V210.102 F20000 M62 P0
G93 G1 X-10.444 V210.102 F20000 M63 P0
G93 G1 X-10.411 V210.102 F20000 M62 P0
G93 G1 X-10.379 V210.102 F20000 M63 P0
G93 G1 X-10.346 V210.102 F20000 M62 P0
G93 G1 X-10.313 V210.102 F20000 M63 P0
G93 G1 X-10.281 V210.102 F20000 M62 P0
G93 G1 X-10.248 V210.102 F20000 M63 P0
G93 G1 X-10.215 V210.102 F20000 M62 P0
G93 G1 X-10.183 V210.102 F20000 M63 P0
G93 G1 X-10.15 V210.102 F20000 M62 P0
G93 G1 X-10.117 V210.102 F20000 M63 P0
G93 G1 X-10.085 V210.102 F20000 M62 P0
G93 G1 X-10.052 V210.102 F20000 M63 P0
G93 G1 X-10.02 V210.102 F20000 M62 P0
G93 G1 X-9.987 V210.102 F20000 M63 P0
G93 G1 X-9.954 V210.102 F20000 M62 P0
G93 G1 X-9.922 V210.102 F20000 M63 P0
G93 G1 X-9.889 V210.102 F20000 M62 P0
G93 G1 X-9.856 V210.102 F20000 M63 P0
G93 G1 X-9.824 V210.102 F20000 M62 P0
G93 G1 X-9.791 V210.102 F20000 M63 P0
G93 G1 X-9.758 V210.102 F20000 M62 P0
G93 G1 X-9.726 V210.102 F20000 M63 P0
G93 G1 X-9.693 V210.102 F20000 M62 P0
G93 G1 X-9.661 V210.102 F20000 M63 P0
G93 G1 X-9.628 V210.102 F20000 M62 P0
G93 G1 X-9.595 V210.102 F20000 M63 P0
G93 G1 X-9.563 V210.102 F20000 M62 P0
G93 G1 X-9.53 V210.102 F20000 M63 P0
G93 G1 X-9.497 V210.102 F20000 M62 P0
G93 G1 X-9.465 V210.102 F20000 M63 P0
G93 G1 X-9.432 V210.102 F20000 M62 P0
G93 G1 X-9.399 V210.102 F20000 M63 P0
G93 G1 X-9.367 V210.102 F20000 M62 P0
G93 G1 X-9.334 V210.102 F20000 M63 P0
G93 G1 X-9.302 V210.102 F20000 M62 P0
G93 G1 X-9.269 V210.102 F20000 M63 P0
G93 G1 X-9.236 V210.102 F20000 M62 P0
G93 G1 X-9.204 V210.102 F20000 M63 P0
G93 G1 X-9.171 V210.102 F20000 M62 P0
G93 G1 X-9.138 V210.102 F20000 M63 P0
G93 G1 X-9.106 V210.102 F20000 M62 P0
G93 G1 X-9.073 V210.102 F20000 M63 P0
G93 G1 X-9.04 V210.102 F20000 M62 P0
G93 G1 X-9.008 V210.102 F20000 M63 P0
G93 G1 X-8.975 V210.102 F20000 M62 P0
G93 G1 X-8.943 V210.102 F20000 M63 P0
G93 G1 X-8.91 V210.102 F20000 M62 P0
G93 G1 X-8.877 V210.102 F20000 M63 P0
G93 G1 X-8.845 V210.102 F20000 M62 P0
G93 G1 X-8.812 V210.102 F20000 M63 P0
G93 G1 X-8.779 V210.102 F20000 M62 P0
G93 G1 X-8.747 V210.102 F20000 M63 P0
G93 G1 X-8.714 V210.102 F20000 M62 P0
G93 G1 X-8.681 V210.102 F20000 M63 P0
G93 G1 X-8.649 V210.102 F20000 M62 P0
G93 G1 X-8.616 V210.102 F20000 M63 P0
G93 G1 X-8.584 V210.102 F20000 M62 P0
G93 G1 X-8.551 V210.102 F20000 M63 P0
G93 G1 X-8.518 V210.102 F20000 M62 P0
G93 G1 X-8.486 V210.102 F20000 M63 P0
G93 G1 X-8.453 V210.102 F20000 M62 P0
G93 G1 X-8.42 V210.102 F20000 M63 P0
G93 G1 X-8.388 V210.102 F20000 M62 P0
G93 G1 X-8.355 V210.102 F20000 M63 P0
G93 G1 X-8.322 V210.102 F20000 M62 P0
G93 G1 X-8.29 V210.102 F20000 M63 P0
G93 G1 X-8.257 V210.102 F20000 M62 P0
G93 G1 X-8.225 V210.102 F20000 M63 P0
G93 G1 X-8.192 V210.102 F20000 M62 P0
G93 G1 X-8.159 V210.102 F20000 M63 P0
G93 G1 X-8.127 V210.102 F20000 M62 P0
G93 G1 X-8.094 V210.102 F20000 M63 P0
G93 G1 X-8.061 V210.102 F20000 M62 P0
G93 G1 X-8.029 V210.102 F20000 M63 P0
G93 G1 X-7.996 V210.102 F20000 M62 P0
G93 G1 X-7.963 V210.102 F20000 M63 P0
G93 G1 X-7.931 V210.102 F20000 M62 P0
G93 G1 X-7.898 V210.102 F20000 M63 P0
G93 G1 X-7.866 V210.102 F20000 M62 P0
G93 G1 X-7.833 V210.102 F20000 M63 P0
G93 G1 X-7.8 V210.102 F20000 M62 P0
G93 G1 X-7.768 V210.102 F20000 M63 P0
G93 G1 X-7.735 V210.102 F20000 M62 P0
G93 G1 X-7.702 V210.102 F20000 M63 P0
G93 G1 X-7.67 V210.102 F20000 M62 P0
G93 G1 X-7.637 V210.102 F20000 M63 P0
G93 G1 X-7.604 V210.102 F20000 M62 P0
G93 G1 X-7.572 V210.102 F20000 M63 P0
G93 G1 X-7.539 V210.102 F20000 M62 P0
G93 G1 X-7.507 V210.102 F20000 M63 P0
G93 G1 X-7.474 V210.102 F20000 M62 P0
G93 G1 X-7.441 V210.102 F20000 M63 P0
G93 G1 X-7.409 V210.102 F20000 M62 P0
G93 G1 X-7.376 V210.102 F20000 M63 P0
G93 G1 X-7.343 V210.102 F20000 M62 P0
G93 G1 X-7.311 V210.102 F20000 M63 P0
G93 G1 X-7.278 V210.102 F20000 M62 P0
G93 G1 X-7.245 V210.102 F20000 M63 P0
G93 G1 X-7.213 V210.102 F20000 M62 P0
G93 G1 X-7.18 V210.102 F20000 M63 P0
G93 G1 X-7.148 V210.102 F20000 M62 P0
G93 G1 X-7.115 V210.102 F20000 M63 P0
G93 G1 X-7.082 V210.102 F20000 M62 P0
G93 G1 X-7.05 V210.102 F20000 M63 P0
G93 G1 X-7.017 V210.102 F20000 M62 P0
G93 G1 X-6.984 V210.102 F20000 M63 P0
G93 G1 X-6.952 V210.102 F20000 M62 P0
G93 G1 X-6.919 V210.102 F20000 M63 P0
G93 G1 X-6.886 V210.102 F20000 M62 P0
G93 G1 X-6.854 V210.102 F20000 M63 P0
G93 G1 X-6.821 V210.102 F20000 M62 P0
G93 G1 X-6.789 V210.102 F20000 M63 P0
G93 G1 X-6.756 V210.102 F20000 M62 P0
G93 G1 X-6.723 V210.102 F20000 M63 P0
G93 G1 X-6.691 V210.102 F20000 M62 P0
G93 G1 X-6.658 V210.102 F20000 M63 P0
G93 G1 X-6.625 V210.102 F20000 M62 P0
G93 G1 X-6.593 V210.102 F20000 M63 P0
G93 G1 X-6.56 V210.102 F20000 M62 P0
G93 G1 X-6.527 V210.102 F20000 M63 P0
G93 G1 X-6.495 V210.102 F20000 M62 P0
G93 G1 X-6.462 V210.102 F20000 M63 P0
G93 G1 X-6.43 V210.102 F20000 M62 P0
G93 G1 X-6.397 V210.102 F20000 M63 P0
G93 G1 X-6.364 V210.102 F20000 M62 P0
G93 G1 X-6.332 V210.102 F20000 M63 P0
G93 G1 X-6.299 V210.102 F20000 M62 P0
G93 G1 X-6.266 V210.102 F20000 M63 P0
G93 G1 X-6.234 V210.102 F20000 M62 P0
G93 G1 X-6.201 V210.102 F20000 M63 P0
G93 G1 X-6.168 V210.102 F20000 M62 P0
G93 G1 X-6.136 V210.102 F20000 M63 P0
G93 G1 X-6.103 V210.102 F20000 M62 P0
G93 G1 X-6.07 V210.102 F20000 M63 P0
G93 G1 X-6.038 V210.102 F20000 M62 P0
G93 G1 X-6.005 V210.102 F20000 M63 P0
G93 G1 X-5.973 V210.102 F20000 M62 P0
G93 G1 X-5.94 V210.102 F20000 M63 P0
G93 G1 X-5.907 V210.102 F20000 M62 P0
G93 G1 X-5.875 V210.102 F20000 M63 P0
G93 G1 X-5.842 V210.102 F20000 M62 P0
G93 G1 X-5.809 V210.102 F20000 M63 P0
G93 G1 X-5.777 V210.102 F20000 M62 P0
G93 G1 X-5.744 V210.102 F20000 M63 P0
G93 G1 X-5.711 V210.102 F20000 M62 P0
G93 G1 X-5.679 V210.102 F20000 M63 P0
G93 G1 X-5.646 V210.102 F20000 M62 P0
G93 G1 X-5.614 V210.102 F20000 M63 P0
G93 G1 X-5.581 V210.102 F20000 M62 P0
G93 G1 X-5.548 V210.102 F20000 M63 P0
G93 G1 X-5.516 V210.102 F20000 M62 P0
G93 G1 X-5.483 V210.102 F20000 M63 P0
G93 G1 X-5.45 V210.102 F20000 M62 P0
G93 G1 X-5.418 V210.102 F20000 M63 P0
G93 G1 X-5.385 V210.102 F20000 M62 P0
G93 G1 X-5.352 V210.102 F20000 M63 P0
G93 G1 X-5.32 V210.102 F20000 M62 P0
G93 G1 X-5.287 V210.102 F20000 M63 P0
G93 G1 X-5.255 V210.102 F20000 M62 P0
G93 G1 X-5.222 V210.102 F20000 M63 P0
G93 G1 X-5.189 V210.102 F20000 M62 P0
G93 G1 X-5.157 V210.102 F20000 M63 P0
G93 G1 X-5.124 V210.102 F20000 M62 P0
G93 G1 X-5.091 V210.102 F20000 M63 P0
G93 G1 X-5.059 V210.102 F20000 M62 P0
G93 G1 X-5.026 V210.102 F20000 M63 P0
G93 G1 X-4.993 V210.102 F20000 M62 P0
G93 G1 X-4.961 V210.102 F20000 M63 P0
G93 G1 X-4.928 V210.102 F20000 M62 P0
G93 G1 X-4.896 V210.102 F20000 M63 P0
G93 G1 X-4.863 V210.102 F20000 M62 P0
G93 G1 X-4.83 V210.102 F20000 M63 P0
G93 G1 X-4.798 V210.102 F20000 M62 P0
G93 G1 X-4.765 V210.102 F20000 M63 P0
G93 G1 X-4.732 V210.102 F20000 M62 P0
G93 G1 X-4.7 V210.102 F20000 M63 P0
G93 G1 X-4.667 V210.102 F20000 M62 P0
G93 G1 X-4.634 V210.102 F20000 M63 P0
G93 G1 X-4.602 V210.102 F20000 M62 P0
G93 G1 X-4.569 V210.102 F20000 M63 P0
G93 G1 X-4.537 V210.102 F20000 M62 P0
G93 G1 X-4.504 V210.102 F20000 M63 P0
G93 G1 X-4.471 V210.102 F20000 M62 P0
G93 G1 X-4.439 V210.102 F20000 M63 P0
G93 G1 X-4.406 V210.102 F20000 M62 P0
G93 G1 X-4.373 V210.102 F20000 M63 P0
G93 G1 X-4.341 V210.102 F20000 M62 P0
G93 G1 X-4.308 V210.102 F20000 M63 P0
G93 G1 X-4.275 V210.102 F20000 M62 P0
G93 G1 X-4.243 V210.102 F20000 M63 P0
G93 G1 X-4.21 V210.102 F20000 M62 P0
G93 G1 X-4.178 V210.102 F20000 M63 P0
G93 G1 X-4.145 V210.102 F20000 M62 P0
G93 G1 X-4.112 V210.102 F20000 M63 P0
G93 G1 X-4.08 V210.102 F20000 M62 P0
G93 G1 X-4.047 V210.102 F20000 M63 P0
G93 G1 X-4.014 V210.102 F20000 M62 P0
G93 G1 X-3.982 V210.102 F20000 M63 P0
G93 G1 X-3.949 V210.102 F20000 M62 P0
G93 G1 X-3.916 V210.102 F20000 M63 P0
G93 G1 X-3.884 V210.102 F20000 M62 P0
G93 G1 X-3.851 V210.102 F20000 M63 P0
G93 G1 X-3.819 V210.102 F20000 M62 P0
G93 G1 X-3.786 V210.102 F20000 M63 P0
G93 G1 X-3.753 V210.102 F20000 M62 P0
G93 G1 X-3.721 V210.102 F20000 M63 P0
G93 G1 X-3.688 V210.102 F20000 M62 P0
G93 G1 X-3.655 V210.102 F20000 M63 P0
G93 G1 X-3.623 V210.102 F20000 M62 P0
G93 G1 X-3.59 V210.102 F20000 M63 P0
G93 G1 X-3.557 V210.102 F20000 M62 P0
G93 G1 X-3.525 V210.102 F20000 M63 P0
G93 G1 X-3.492 V210.102 F20000 M62 P0
G93 G1 X-3.46 V210.102 F20000 M63 P0
G93 G1 X-3.427 V210.102 F20000 M62 P0
G93 G1 X-3.394 V210.102 F20000 M63 P0
G93 G1 X-3.362 V210.102 F20000 M62 P0
G93 G1 X-3.329 V210.102 F20000 M63 P0
G93 G1 X-3.296 V210.102 F20000 M62 P0
G93 G1 X-3.264 V210.102 F20000 M63 P0
G93 G1 X-3.231 V210.102 F20000 M62 P0
G93 G1 X-3.198 V210.102 F20000 M63 P0
G93 G1 X-3.166 V210.102 F20000 M62 P0
G93 G1 X-3.133 V210.102 F20000 M63 P0
G93 G1 X-3.101 V210.102 F20000 M62 P0
G93 G1 X-3.068 V210.102 F20000 M63 P0
G93 G1 X-3.035 V210.102 F20000 M62 P0
G93 G1 X-3.003 V210.102 F20000 M63 P0
G93 G1 X-2.97 V210.102 F20000 M62 P0
G93 G1 X-2.937 V210.102 F20000 M63 P0
G93 G1 X-2.905 V210.102 F20000 M62 P0
G93 G1 X-2.872 V210.102 F20000 M63 P0
G93 G1 X-2.839 V210.102 F20000 M62 P0
G93 G1 X-2.807 V210.102 F20000 M63 P0
G93 G1 X-2.774 V210.102 F20000 M62 P0
G93 G1 X-2.742 V210.102 F20000 M63 P0
G93 G1 X-2.709 V210.102 F20000 M62 P0
G93 G1 X-2.676 V210.102 F20000 M63 P0
G93 G1 X-2.644 V210.102 F20000 M62 P0
G93 G1 X-2.611 V210.102 F20000 M63 P0
G93 G1 X-2.578 V210.102 F20000 M62 P0
G93 G1 X-2.546 V210.102 F20000 M63 P0
G93 G1 X-2.513 V210.102 F20000 M62 P0
G93 G1 X-2.48 V210.102 F20000 M63 P0
G93 G1 X-2.448 V210.102 F20000 M62 P0
G93 G1 X-2.415 V210.102 F20000 M63 P0
G93 G1 X-2.383 V210.102 F20000 M62 P0
G93 G1 X-2.35 V210.102 F20000 M63 P0
G93 G1 X-2.317 V210.102 F20000 M62 P0
G93 G1 X-2.285 V210.102 F20000 M63 P0
G93 G1 X-2.252 V210.102 F20000 M62 P0
G93 G1 X-2.219 V210.102 F20000 M63 P0
G93 G1 X-2.187 V210.102 F20000 M62 P0
G93 G1 X-2.154 V210.102 F20000 M63 P0
G93 G1 X-2.121 V210.102 F20000 M62 P0
G93 G1 X-2.089 V210.102 F20000 M63 P0
G93 G1 X-2.056 V210.102 F20000 M62 P0
G93 G1 X-2.023 V210.102 F20000 M63 P0
G93 G1 X-1.991 V210.102 F20000 M62 P0
G93 G1 X-1.958 V210.102 F20000 M63 P0
G93 G1 X-1.926 V210.102 F20000 M62 P0
G93 G1 X-1.893 V210.102 F20000 M63 P0
G93 G1 X-1.86 V210.102 F20000 M62 P0
G93 G1 X-1.828 V210.102 F20000 M63 P0
G93 G1 X-1.795 V210.102 F20000 M62 P0
G93 G1 X-1.762 V210.102 F20000 M63 P0
G93 G1 X-1.73 V210.102 F20000 M62 P0
G93 G1 X-1.697 V210.102 F20000 M63 P0
G93 G1 X-1.664 V210.102 F20000 M62 P0
G93 G1 X-1.632 V210.102 F20000 M63 P0
G93 G1 X-1.599 V210.102 F20000 M62 P0
G93 G1 X-1.567 V210.102 F20000 M63 P0
G93 G1 X-1.534 V210.102 F20000 M62 P0
G93 G1 X-1.501 V210.102 F20000 M63 P0
G93 G1 X-1.469 V210.102 F20000 M62 P0
G93 G1 X-1.436 V210.102 F20000 M63 P0
G93 G1 X-1.403 V210.102 F20000 M62 P0
G93 G1 X-1.371 V210.102 F20000 M63 P0
G93 G1 X-1.338 V210.102 F20000 M62 P0
G93 G1 X-1.305 V210.102 F20000 M63 P0
G93 G1 X-1.273 V210.102 F20000 M62 P0
G93 G1 X-1.24 V210.102 F20000 M63 P0
G93 G1 X-1.208 V210.102 F20000 M62 P0
G93 G1 X-1.175 V210.102 F20000 M63 P0
G93 G1 X-1.142 V210.102 F20000 M62 P0
G93 G1 X-1.11 V210.102 F20000 M63 P0
G93 G1 X-1.077 V210.102 F20000 M62 P0
G93 G1 X-1.044 V210.102 F20000 M63 P0
G93 G1 X-1.012 V210.102 F20000 M62 P0
G93 G1 X-0.979 V210.102 F20000 M63 P0
G93 G1 X-0.946 V210.102 F20000 M62 P0
G93 G1 X-0.914 V210.102 F20000 M63 P0
G93 G1 X-0.881 V210.102 F20000 M62 P0
G93 G1 X-0.849 V210.102 F20000 M63 P0
G93 G1 X-0.816 V210.102 F20000 M62 P0
G93 G1 X-0.783 V210.102 F20000 M63 P0
G93 G1 X-0.751 V210.102 F20000 M62 P0
G93 G1 X-0.718 V210.102 F20000 M63 P0
G93 G1 X-0.685 V210.102 F20000 M62 P0
G93 G1 X-0.653 V210.102 F20000 M63 P0
G93 G1 X-0.62 V210.102 F20000 M62 P0
G93 G1 X-0.587 V210.102 F20000 M63 P0
G93 G1 X-0.555 V210.102 F20000 M62 P0
G93 G1 X-0.522 V210.102 F20000 M63 P0
G93 G1 X-0.49 V210.102 F20000 M62 P0
G93 G1 X-0.457 V210.102 F20000 M63 P0
G93 G1 X-0.424 V210.102 F20000 M62 P0
G93 G1 X-0.392 V210.102 F20000 M63 P0
G93 G1 X-0.359 V210.102 F20000 M62 P0
G93 G1 X-0.326 V210.102 F20000 M63 P0
G93 G1 X-0.294 V210.102 F20000 M62 P0
G93 G1 X-0.261 V210.102 F20000 M63 P0
G93 G1 X-0.228 V210.102 F20000 M62 P0
G93 G1 X-0.196 V210.102 F20000 M63 P0
G93 G1 X-0.163 V210.102 F20000 M62 P0
G93 G1 X-0.131 V210.102 F20000 M63 P0
G93 G1 X-0.098 V210.102 F20000 M62 P0
G93 G1 X-0.065 V210.102 F20000 M63 P0
G93 G1 X-0.033 V210.102 F20000 M62 P0
G93 G1 X0.0 V210.102 F20000 M63 P0
G93 G1 X0.01 V210.102 F20000 M62 P0
G93 G1 X-0.01 V210.102 F20000 M63 P0
G93 G1 X0.01 V210.102 F20000 M62 P0
G93 G1 X0.131 V210.102 F20000 M63 P0
G93 G1 X0.163 V210.102 F20000 M62 P0
G93 G1 X0.196 V210.102 F20000 M63 P0
G93 G1 X0.228 V210.102 F20000 M62 P0
G93 G1 X0.261 V210.102 F20000 M63 P0
G93 G1 X0.294 V210.102 F20000 M62 P0
G93 G1 X0.326 V210.102 F20000 M63 P0
G93 G1 X0.359 V210.102 F20000 M62 P0
G93 G1 X0.392 V210.102 F20000 M63 P0
G93 G1 X0.424 V210.102 F20000 M62 P0
G93 G1 X0.457 V210.102 F20000 M63 P0
G93 G1 X0.49 V210.102 F20000 M62 P0
G93 G1 X0.522 V210.102 F20000 M63 P0
G93 G1 X0.555 V210.102 F20000 M62 P0
G93 G1 X0.587 V210.102 F20000 M63 P0
G93 G1 X0.62 V210.102 F20000 M62 P0
G93 G1 X0.653 V210.102 F20000 M63 P0
G93 G1 X0.685 V210.102 F20000 M62 P0
G93 G1 X0.718 V210.102 F20000 M63 P0
G93 G1 X0.751 V210.102 F20000 M62 P0
G93 G1 X0.783 V210.102 F20000 M63 P0
G93 G1 X0.816 V210.102 F20000 M62 P0
G93 G1 X0.849 V210.102 F20000 M63 P0
G93 G1 X0.881 V210.102 F20000 M62 P0
G93 G1 X0.914 V210.102 F20000 M63 P0
G93 G1 X0.946 V210.102 F20000 M62 P0
G93 G1 X0.979 V210.102 F20000 M63 P0
G93 G1 X1.012 V210.102 F20000 M62 P0
G93 G1 X1.044 V210.102 F20000 M63 P0
G93 G1 X1.077 V210.102 F20000 M62 P0
G93 G1 X1.11 V210.102 F20000 M63 P0
G93 G1 X1.142 V210.102 F20000 M62 P0
G93 G1 X1.175 V210.102 F20000 M63 P0
G93 G1 X1.208 V210.102 F20000 M62 P0
G93 G1 X1.24 V210.102 F20000 M63 P0
G93 G1 X1.273 V210.102 F20000 M62 P0
G93 G1 X1.305 V210.102 F20000 M63 P0
G93 G1 X1.338 V210.102 F20000 M62 P0
G93 G1 X1.371 V210.102 F20000 M63 P0
G93 G1 X1.403 V210.102 F20000 M62 P0
G93 G1 X1.436 V210.102 F20000 M63 P0
G93 G1 X1.469 V210.102 F20000 M62 P0
G93 G1 X1.501 V210.102 F20000 M63 P0
G93 G1 X1.534 V210.102 F20000 M62 P0
G93 G1 X1.567 V210.102 F20000 M63 P0
G93 G1 X1.599 V210.102 F20000 M62 P0
G93 G1 X1.632 V210.102 F20000 M63 P0
G93 G1 X1.664 V210.102 F20000 M62 P0
G93 G1 X1.697 V210.102 F20000 M63 P0
G93 G1 X1.73 V210.102 F20000 M62 P0
G93 G1 X1.762 V210.102 F20000 M63 P0
G93 G1 X1.795 V210.102 F20000 M62 P0
G93 G1 X1.828 V210.102 F20000 M63 P0
G93 G1 X1.86 V210.102 F20000 M62 P0
G93 G1 X1.893 V210.102 F20000 M63 P0
G93 G1 X1.926 V210.102 F20000 M62 P0
G93 G1 X1.958 V210.102 F20000 M63 P0
G93 G1 X1.991 V210.102 F20000 M62 P0
G93 G1 X2.024 V210.102 F20000 M63 P0
G93 G1 X2.056 V210.102 F20000 M62 P0
G93 G1 X2.089 V210.102 F20000 M63 P0
G93 G1 X2.121 V210.102 F20000 M62 P0
G93 G1 X2.154 V210.102 F20000 M63 P0
G93 G1 X2.187 V210.102 F20000 M62 P0
G93 G1 X2.219 V210.102 F20000 M63 P0
G93 G1 X2.252 V210.102 F20000 M62 P0
G93 G1 X2.285 V210.102 F20000 M63 P0
G93 G1 X2.317 V210.102 F20000 M62 P0
G93 G1 X2.35 V210.102 F20000 M63 P0
G93 G1 X2.383 V210.102 F20000 M62 P0
G93 G1 X2.415 V210.102 F20000 M63 P0
G93 G1 X2.448 V210.102 F20000 M62 P0
G93 G1 X2.48 V210.102 F20000 M63 P0
G93 G1 X2.513 V210.102 F20000 M62 P0
G93 G1 X2.546 V210.102 F20000 M63 P0
G93 G1 X2.578 V210.102 F20000 M62 P0
G93 G1 X2.611 V210.102 F20000 M63 P0
G93 G1 X2.644 V210.102 F20000 M62 P0
G93 G1 X2.676 V210.102 F20000 M63 P0
G93 G1 X2.709 V210.102 F20000 M62 P0
G93 G1 X2.742 V210.102 F20000 M63 P0
G93 G1 X2.774 V210.102 F20000 M62 P0
G93 G1 X2.807 V210.102 F20000 M63 P0
G93 G1 X2.839 V210.102 F20000 M62 P0
G93 G1 X2.872 V210.102 F20000 M63 P0
G93 G1 X2.905 V210.102 F20000 M62 P0
G93 G1 X2.937 V210.102 F20000 M63 P0
G93 G1 X2.97 V210.102 F20000 M62 P0
G93 G1 X3.003 V210.102 F20000 M63 P0
G93 G1 X3.035 V210.102 F20000 M62 P0
G93 G1 X3.068 V210.102 F20000 M63 P0
G93 G1 X3.101 V210.102 F20000 M62 P0
G93 G1 X3.133 V210.102 F20000 M63 P0
G93 G1 X3.166 V210.102 F20000 M62 P0
G93 G1 X3.198 V210.102 F20000 M63 P0
G93 G1 X3.231 V210.102 F20000 M62 P0
G93 G1 X3.264 V210.102 F20000 M63 P0
G93 G1 X3.296 V210.102 F20000 M62 P0
G93 G1 X3.329 V210.102 F20000 M63 P0
G93 G1 X3.362 V210.102 F20000 M62 P0
G93 G1 X3.394 V210.102 F20000 M63 P0
G93 G1 X3.427 V210.102 F20000 M62 P0
G93 G1 X3.46 V210.102 F20000 M63 P0
G93 G1 X3.492 V210.102 F20000 M62 P0
G93 G1 X3.525 V210.102 F20000 M63 P0
G93 G1 X3.557 V210.102 F20000 M62 P0
G93 G1 X3.59 V210.102 F20000 M63 P0
G93 G1 X3.623 V210.102 F20000 M62 P0
G93 G1 X3.655 V210.102 F20000 M63 P0
G93 G1 X3.688 V210.102 F20000 M62 P0
G93 G1 X3.721 V210.102 F20000 M63 P0
G93 G1 X3.753 V210.102 F20000 M62 P0
G93 G1 X3.786 V210.102 F20000 M63 P0
G93 G1 X3.819 V210.102 F20000 M62 P0
G93 G1 X3.851 V210.102 F20000 M63 P0
G93 G1 X3.884 V210.102 F20000 M62 P0
G93 G1 X3.916 V210.102 F20000 M63 P0
G93 G1 X3.949 V210.102 F20000 M62 P0
G93 G1 X3.982 V210.102 F20000 M63 P0
G93 G1 X4.014 V210.102 F20000 M62 P0
G93 G1 X4.047 V210.102 F20000 M63 P0
G93 G1 X4.08 V210.102 F20000 M62 P0
G93 G1 X4.112 V210.102 F20000 M63 P0
G93 G1 X4.145 V210.102 F20000 M62 P0
G93 G1 X4.178 V210.102 F20000 M63 P0
G93 G1 X4.21 V210.102 F20000 M62 P0
G93 G1 X4.243 V210.102 F20000 M63 P0
G93 G1 X4.275 V210.102 F20000 M62 P0
G93 G1 X4.308 V210.102 F20000 M63 P0
G93 G1 X4.341 V210.102 F20000 M62 P0
G93 G1 X4.373 V210.102 F20000 M63 P0
G93 G1 X4.406 V210.102 F20000 M62 P0
G93 G1 X4.439 V210.102 F20000 M63 P0
G93 G1 X4.471 V210.102 F20000 M62 P0
G93 G1 X4.504 V210.102 F20000 M63 P0
G93 G1 X4.537 V210.102 F20000 M62 P0
G93 G1 X4.569 V210.102 F20000 M63 P0
G93 G1 X4.602 V210.102 F20000 M62 P0
G93 G1 X4.634 V210.102 F20000 M63 P0
G93 G1 X4.667 V210.102 F20000 M62 P0
G93 G1 X4.7 V210.102 F20000 M63 P0
G93 G1 X4.732 V210.102 F20000 M62 P0
G93 G1 X4.765 V210.102 F20000 M63 P0
G93 G1 X4.798 V210.102 F20000 M62 P0
G93 G1 X4.83 V210.102 F20000 M63 P0
G93 G1 X4.863 V210.102 F20000 M62 P0
G93 G1 X4.896 V210.102 F20000 M63 P0
G93 G1 X4.928 V210.102 F20000 M62 P0
G93 G1 X4.961 V210.102 F20000 M63 P0
G93 G1 X4.993 V210.102 F20000 M62 P0
G93 G1 X5.026 V210.102 F20000 M63 P0
G93 G1 X5.059 V210.102 F20000 M62 P0
G93 G1 X5.091 V210.102 F20000 M63 P0
G93 G1 X5.124 V210.102 F20000 M62 P0
G93 G1 X5.157 V210.102 F20000 M63 P0
G93 G1 X5.189 V210.102 F20000 M62 P0
G93 G1 X5.222 V210.102 F20000 M63 P0
G93 G1 X5.255 V210.102 F20000 M62 P0
G93 G1 X5.287 V210.102 F20000 M63 P0
G93 G1 X5.32 V210.102 F20000 M62 P0
G93 G1 X5.352 V210.102 F20000 M63 P0
G93 G1 X5.385 V210.102 F20000 M62 P0
G93 G1 X5.418 V210.102 F20000 M63 P0
G93 G1 X5.45 V210.102 F20000 M62 P0
G93 G1 X5.483 V210.102 F20000 M63 P0
G93 G1 X5.516 V210.102 F20000 M62 P0
G93 G1 X5.548 V210.102 F20000 M63 P0
G93 G1 X5.581 V210.102 F20000 M62 P0
G93 G1 X5.614 V210.102 F20000 M63 P0
G93 G1 X5.646 V210.102 F20000 M62 P0
G93 G1 X5.679 V210.102 F20000 M63 P0
G93 G1 X5.711 V210.102 F20000 M62 P0
G93 G1 X5.744 V210.102 F20000 M63 P0
G93 G1 X5.777 V210.102 F20000 M62 P0
G93 G1 X5.809 V210.102 F20000 M63 P0
G93 G1 X5.842 V210.102 F20000 M62 P0
G93 G1 X5.875 V210.102 F20000 M63 P0
G93 G1 X5.907 V210.102 F20000 M62 P0
G93 G1 X5.94 V210.102 F20000 M63 P0
G93 G1 X5.973 V210.102 F20000 M62 P0
G93 G1 X6.005 V210.102 F20000 M63 P0
G93 G1 X6.038 V210.102 F20000 M62 P0
G93 G1 X6.07 V210.102 F20000 M63 P0
G93 G1 X6.103 V210.102 F20000 M62 P0
G93 G1 X6.136 V210.102 F20000 M63 P0
G93 G1 X6.168 V210.102 F20000 M62 P0
G93 G1 X6.201 V210.102 F20000 M63 P0
G93 G1 X6.234 V210.102 F20000 M62 P0
G93 G1 X6.266 V210.102 F20000 M63 P0
G93 G1 X6.299 V210.102 F20000 M62 P0
G93 G1 X6.332 V210.102 F20000 M63 P0
G93 G1 X6.364 V210.102 F20000 M62 P0
G93 G1 X6.397 V210.102 F20000 M63 P0
G93 G1 X6.43 V210.102 F20000 M62 P0
G93 G1 X6.462 V210.102 F20000 M63 P0
G93 G1 X6.495 V210.102 F20000 M62 P0
G93 G1 X6.527 V210.102 F20000 M63 P0
G93 G1 X6.56 V210.102 F20000 M62 P0
G93 G1 X6.593 V210.102 F20000 M63 P0
G93 G1 X6.625 V210.102 F20000 M62 P0
G93 G1 X6.658 V210.102 F20000 M63 P0
G93 G1 X6.691 V210.102 F20000 M62 P0
G93 G1 X6.723 V210.102 F20000 M63 P0
G93 G1 X6.756 V210.102 F20000 M62 P0
G93 G1 X6.789 V210.102 F20000 M63 P0
G93 G1 X6.821 V210.102 F20000 M62 P0
G93 G1 X6.854 V210.102 F20000 M63 P0
G93 G1 X6.886 V210.102 F20000 M62 P0
G93 G1 X6.919 V210.102 F20000 M63 P0
G93 G1 X6.952 V210.102 F20000 M62 P0
G93 G1 X6.984 V210.102 F20000 M63 P0
G93 G1 X7.017 V210.102 F20000 M62 P0
G93 G1 X7.05 V210.102 F20000 M63 P0
G93 G1 X7.082 V210.102 F20000 M62 P0
G93 G1 X7.115 V210.102 F20000 M63 P0
G93 G1 X7.148 V210.102 F20000 M62 P0
G93 G1 X7.18 V210.102 F20000 M63 P0
G93 G1 X7.213 V210.102 F20000 M62 P0
G93 G1 X7.245 V210.102 F20000 M63 P0
G93 G1 X7.278 V210.102 F20000 M62 P0
G93 G1 X7.311 V210.102 F20000 M63 P0
G93 G1 X7.343 V210.102 F20000 M62 P0
G93 G1 X7.376 V210.102 F20000 M63 P0
G93 G1 X7.409 V210.102 F20000 M62 P0
G93 G1 X7.441 V210.102 F20000 M63 P0
G93 G1 X7.474 V210.102 F20000 M62 P0
G93 G1 X7.507 V210.102 F20000 M63 P0
G93 G1 X7.539 V210.102 F20000 M62 P0
G93 G1 X7.572 V210.102 F20000 M63 P0
G93 G1 X7.604 V210.102 F20000 M62 P0
G93 G1 X7.637 V210.102 F20000 M63 P0
G93 G1 X7.67 V210.102 F20000 M62 P0
G93 G1 X7.702 V210.102 F20000 M63 P0
G93 G1 X7.735 V210.102 F20000 M62 P0
G93 G1 X7.768 V210.102 F20000 M63 P0
G93 G1 X7.8 V210.102 F20000 M62 P0
G93 G1 X7.833 V210.102 F20000 M63 P0
G93 G1 X7.866 V210.102 F20000 M62 P0
G93 G1 X7.898 V210.102 F20000 M63 P0
G93 G1 X7.931 V210.102 F20000 M62 P0
G93 G1 X7.963 V210.102 F20000 M63 P0
G93 G1 X7.996 V210.102 F20000 M62 P0
G93 G1 X8.029 V210.102 F20000 M63 P0
G93 G1 X8.061 V210.102 F20000 M62 P0
G93 G1 X8.094 V210.102 F20000 M63 P0
G93 G1 X8.127 V210.102 F20000 M62 P0
G93 G1 X8.159 V210.102 F20000 M63 P0
G93 G1 X8.192 V210.102 F20000 M62 P0
G93 G1 X8.225 V210.102 F20000 M63 P0
G93 G1 X8.257 V210.102 F20000 M62 P0
G93 G1 X8.29 V210.102 F20000 M63 P0
G93 G1 X8.322 V210.102 F20000 M62 P0
G93 G1 X8.355 V210.102 F20000 M63 P0
G93 G1 X8.388 V210.102 F20000 M62 P0
G93 G1 X8.42 V210.102 F20000 M63 P0
G93 G1 X8.453 V210.102 F20000 M62 P0
G93 G1 X8.486 V210.102 F20000 M63 P0
G93 G1 X8.518 V210.102 F20000 M62 P0
G93 G1 X8.551 V210.102 F20000 M63 P0
G93 G1 X8.584 V210.102 F20000 M62 P0
G93 G1 X8.616 V210.102 F20000 M63 P0
G93 G1 X8.649 V210.102 F20000 M62 P0
G93 G1 X8.681 V210.102 F20000 M63 P0
G93 G1 X8.714 V210.102 F20000 M62 P0
G93 G1 X8.747 V210.102 F20000 M63 P0
G93 G1 X8.779 V210.102 F20000 M62 P0
G93 G1 X8.812 V210.102 F20000 M63 P0
G93 G1 X8.845 V210.102 F20000 M62 P0
G93 G1 X8.877 V210.102 F20000 M63 P0
G93 G1 X8.91 V210.102 F20000 M62 P0
G93 G1 X8.943 V210.102 F20000 M63 P0
G93 G1 X8.975 V210.102 F20000 M62 P0
G93 G1 X9.008 V210.102 F20000 M63 P0
G93 G1 X9.04 V210.102 F20000 M62 P0
G93 G1 X9.073 V210.102 F20000 M63 P0
G93 G1 X9.106 V210.102 F20000 M62 P0
G93 G1 X9.138 V210.102 F20000 M63 P0
G93 G1 X9.171 V210.102 F20000 M62 P0
G93 G1 X9.204 V210.102 F20000 M63 P0
G93 G1 X9.236 V210.102 F20000 M62 P0
G93 G1 X9.269 V210.102 F20000 M63 P0
G93 G1 X9.302 V210.102 F20000 M62 P0
G93 G1 X9.334 V210.102 F20000 M63 P0
G93 G1 X9.367 V210.102 F20000 M62 P0
G93 G1 X9.399 V210.102 F20000 M63 P0
G93 G1 X9.432 V210.102 F20000 M62 P0
G93 G1 X9.465 V210.102 F20000 M63 P0
G93 G1 X9.497 V210.102 F20000 M62 P0
G93 G1 X9.53 V210.102 F20000 M63 P0
G93 G1 X9.563 V210.102 F20000 M62 P0
G93 G1 X9.595 V210.102 F20000 M63 P0
G93 G1 X9.628 V210.102 F20000 M62 P0
G93 G1 X9.661 V210.102 F20000 M63 P0
G93 G1 X9.693 V210.102 F20000 M62 P0
G93 G1 X9.726 V210.102 F20000 M63 P0
G93 G1 X9.758 V210.102 F20000 M62 P0
G93 G1 X9.791 V210.102 F20000 M63 P0
G93 G1 X9.824 V210.102 F20000 M62 P0
G93 G1 X9.856 V210.102 F20000 M63 P0
G93 G1 X9.889 V210.102 F20000 M62 P0
G93 G1 X9.922 V210.102 F20000 M63 P0
G93 G1 X9.954 V210.102 F20000 M62 P0
G93 G1 X9.987 V210.102 F20000 M63 P0
G93 G1 X10.02 V210.102 F20000 M62 P0
G93 G1 X10.052 V210.102 F20000 M63 P0
G93 G1 X10.085 V210.102 F20000 M62 P0
G93 G1 X10.117 V210.102 F20000 M63 P0
G93 G1 X10.15 V210.102 F20000 M62 P0
G93 G1 X10.183 V210.102 F20000 M63 P0
G93 G1 X10.215 V210.102 F20000 M62 P0
G93 G1 X10.248 V210.102 F20000 M63 P0
G93 G1 X10.281 V210.102 F20000 M62 P0
G93 G1 X10.313 V210.102 F20000 M63 P0
G93 G1 X10.346 V210.102 F20000 M62 P0
G93 G1 X10.379 V210.102 F20000 M63 P0
G93 G1 X10.411 V210.102 F20000 M62 P0
G93 G1 X10.444 V210.102 F20000 M63 P0
G93 G1 X10.477 V210.102 F20000 M62 P0
G93 G1 X10.509 V210.102 F20000 M63 P0
G93 G1 X10.542 V210.102 F20000 M62 P0
G93 G1 X10.574 V210.102 F20000 M63 P0
G93 G1 X10.607 V210.102 F20000 M62 P0
G93 G1 X10.64 V210.102 F20000 M63 P0
G93 G1 X10.672 V210.102 F20000 M62 P0
G93 G1 X10.705 V210.102 F20000 M63 P0
G93 G1 X10.738 V210.102 F20000 M62 P0
G93 G1 X10.77 V210.102 F20000 M63 P0
G93 G1 X10.803 V210.102 F20000 M62 P0
G93 G1 X10.836 V210.102 F20000 M63 P0
G93 G1 X10.868 V210.102 F20000 M62 P0
G93 G1 X10.901 V210.102 F20000 M63 P0
G93 G1 X10.933 V210.102 F20000 M62 P0
G93 G1 X10.966 V210.102 F20000 M63 P0
G93 G1 X10.999 V210.102 F20000 M62 P0
G93 G1 X11.031 V210.102 F20000 M63 P0
G93 G1 X11.064 V210.102 F20000 M62 P0
G93 G1 X11.097 V210.102 F20000 M63 P0
G93 G1 X11.129 V210.102 F20000 M62 P0
G93 G1 X11.162 V210.102 F20000 M63 P0
G93 G1 X11.195 V210.102 F20000 M62 P0
G93 G1 X11.227 V210.102 F20000 M63 P0
G93 G1 X11.26 V210.102 F20000 M62 P0
G93 G1 X11.292 V210.102 F20000 M63 P0
G93 G1 X11.325 V210.102 F20000 M62 P0
G93 G1 X11.358 V210.102 F20000 M63 P0
G93 G1 X11.39 V210.102 F20000 M62 P0
G93 G1 X11.423 V210.102 F20000 M63 P0
G93 G1 X11.456 V210.102 F20000 M62 P0
G93 G1 X11.488 V210.102 F20000 M63 P0
G93 G1 X11.521 V210.102 F20000 M62 P0
G93 G1 X11.554 V210.102 F20000 M63 P0
G93 G1 X11.586 V210.102 F20000 M62 P0
G93 G1 X11.619 V210.102 F20000 M63 P0
G93 G1 X11.651 V210.102 F20000 M62 P0
G93 G1 X11.684 V210.102 F20000 M63 P0
G93 G1 X11.717 V210.102 F20000 M62 P0
G93 G1 X11.749 V210.102 F20000 M63 P0
G93 G1 X11.782 V210.102 F20000 M62 P0
G93 G1 X11.815 V210.102 F20000 M63 P0
G93 G1 X11.847 V210.102 F20000 M62 P0
G93 G1 X11.88 V210.102 F20000 M63 P0
G93 G1 X11.913 V210.102 F20000 M62 P0
G93 G1 X11.945 V210.102 F20000 M63 P0
G93 G1 X11.978 V210.102 F20000 M62 P0
G93 G1 X12.01 V210.102 F20000 M63 P0
G93 G1 X12.043 V210.102 F20000 M62 P0
G93 G1 X12.076 V210.102 F20000 M63 P0
G93 G1 X12.108 V210.102 F20000 M62 P0
G93 G1 X12.141 V210.102 F20000 M63 P0
G93 G1 X12.174 V210.102 F20000 M62 P0
G93 G1 X12.206 V210.102 F20000 M63 P0
G93 G1 X12.239 V210.102 F20000 M62 P0
G93 G1 X12.272 V210.102 F20000 M63 P0
G93 G1 X12.304 V210.102 F20000 M62 P0
G93 G1 X12.337 V210.102 F20000 M63 P0
G93 G1 X12.369 V210.102 F20000 M62 P0
G93 G1 X12.402 V210.102 F20000 M63 P0
G93 G1 X12.435 V210.102 F20000 M62 P0
G93 G1 X12.467 V210.102 F20000 M63 P0
G93 G1 X12.5 V210.102 F20000 M62 P0
G93 G1 X12.533 V210.102 F20000 M63 P0
G93 G1 X12.565 V210.102 F20000 M62 P0
G93 G1 X12.598 V210.102 F20000 M63 P0
G93 G1 X12.631 V210.102 F20000 M62 P0
G93 G1 X12.663 V210.102 F20000 M63 P0
G93 G1 X12.696 V210.102 F20000 M62 P0
G93 G1 X12.728 V210.102 F20000 M63 P0
G93 G1 X12.761 V210.102 F20000 M62 P0
G93 G1 X12.794 V210.102 F20000 M63 P0
G93 G1 X12.826 V210.102 F20000 M62 P0
G93 G1 X12.859 V210.102 F20000 M63 P0
G93 G1 X12.892 V210.102 F20000 M62 P0
G93 G1 X12.924 V210.102 F20000 M63 P0
G93 G1 X12.957 V210.102 F20000 M62 P0
G93 G1 X12.99 V210.102 F20000 M63 P0
G93 G1 X13.022 V210.102 F20000 M62 P0
G93 G1 X13.055 V210.102 F20000 M63 P0
G93 G1 X13.087 V210.102 F20000 M62 P0
G93 G1 X13.12 V210.102 F20000 M63 P0
G93 G1 X13.153 V210.102 F20000 M62 P0
G93 G1 X13.185 V210.102 F20000 M63 P0
G93 G1 X13.218 V210.102 F20000 M62 P0
G93 G1 X13.251 V210.102 F20000 M63 P0
G93 G1 X13.283 V210.102 F20000 M62 P0
G93 G1 X13.316 V210.102 F20000 M63 P0
G93 G1 X13.349 V210.102 F20000 M62 P0
G93 G1 X13.381 V210.102 F20000 M63 P0
G93 G1 X13.414 V210.102 F20000 M62 P0
G93 G1 X13.446 V210.102 F20000 M63 P0
G93 G1 X13.479 V210.102 F20000 M62 P0
G93 G1 X13.512 V210.102 F20000 M63 P0
G93 G1 X13.544 V210.102 F20000 M62 P0
G93 G1 X13.577 V210.102 F20000 M63 P0
G93 G1 X13.61 V210.102 F20000 M62 P0
G93 G1 X13.642 V210.102 F20000 M63 P0
G93 G1 X13.675 V210.102 F20000 M62 P0
G93 G1 X13.708 V210.102 F20000 M63 P0
G93 G1 X13.74 V210.102 F20000 M62 P0
G93 G1 X13.773 V210.102 F20000 M63 P0
G93 G1 X13.805 V210.102 F20000 M62 P0
G93 G1 X13.838 V210.102 F20000 M63 P0
G93 G1 X13.871 V210.102 F20000 M62 P0
G93 G1 X13.903 V210.102 F20000 M63 P0
G93 G1 X13.936 V210.102 F20000 M62 P0
G93 G1 X13.969 V210.102 F20000 M63 P0
G93 G1 X14.001 V210.102 F20000 M62 P0
G93 G1 X14.034 V210.102 F20000 M63 P0
G93 G1 X14.067 V210.102 F20000 M62 P0
G93 G1 X14.099 V210.102 F20000 M63 P0
G93 G1 X14.132 V210.102 F20000 M62 P0
G93 G1 X14.164 V210.102 F20000 M63 P0
G93 G1 X14.197 V210.102 F20000 M62 P0
G93 G1 X14.23 V210.102 F20000 M63 P0
G93 G1 X14.262 V210.102 F20000 M62 P0
G93 G1 X14.295 V210.102 F20000 M63 P0
G93 G1 X14.328 V210.102 F20000 M62 P0
G93 G1 X14.36 V210.102 F20000 M63 P0
G93 G1 X14.393 V210.102 F20000 M62 P0
G93 G1 X14.426 V210.102 F20000 M63 P0
G93 G1 X14.458 V210.102 F20000 M62 P0
G93 G1 X14.491 V210.102 F20000 M63 P0
G93 G1 X14.523 V210.102 F20000 M62 P0
G93 G1 X14.556 V210.102 F20000 M63 P0
G93 G1 X14.589 V210.102 F20000 M62 P0
G93 G1 X14.621 V210.102 F20000 M63 P0
G93 G1 X14.654 V210.102 F20000 M62 P0
G93 G1 X14.687 V210.102 F20000 M63 P0
G93 G1 X14.719 V210.102 F20000 M62 P0
G93 G1 X14.752 V210.102 F20000 M63 P0
G93 G1 X14.785 V210.102 F20000 M62 P0
G93 G1 X14.817 V210.102 F20000 M63 P0
G93 G1 X14.85 V210.102 F20000 M62 P0
G93 G1 X14.883 V210.102 F20000 M63 P0
G93 G1 X14.915 V210.102 F20000 M62 P0
G93 G1 X14.948 V210.102 F20000 M63 P0
G93 G1 X14.98 V210.102 F20000 M62 P0
G93 G1 X15.013 V210.102 F20000 M63 P0
G93 G1 X15.046 V210.102 F20000 M62 P0
G93 G1 X15.078 V210.102 F20000 M63 P0
G93 G1 X15.111 V210.102 F20000 M62 P0
G93 G1 X15.144 V210.102 F20000 M63 P0
G93 G1 X15.176 V210.102 F20000 M62 P0
G93 G1 X15.209 V210.102 F20000 M63 P0
G93 G1 X15.242 V210.102 F20000 M62 P0
G93 G1 X15.274 V210.102 F20000 M63 P0
G93 G1 X15.307 V210.102 F20000 M62 P0
G93 G1 X15.339 V210.102 F20000 M63 P0
G93 G1 X15.372 V210.102 F20000 M62 P0
G93 G1 X15.405 V210.102 F20000 M63 P0
G93 G1 X15.437 V210.102 F20000 M62 P0
G93 G1 X15.47 V210.102 F20000 M63 P0
G93 G1 X15.503 V210.102 F20000 M62 P0
G93 G1 X15.535 V210.102 F20000 M63 P0
G93 G1 X15.568 V210.102 F20000 M62 P0
G93 G1 X15.601 V210.102 F20000 M63 P0
G93 G1 X15.633 V210.102 F20000 M62 P0
G93 G1 X15.666 V210.102 F20000 M63 P0
G93 G1 X15.698 V210.102 F20000 M62 P0
G93 G1 X15.731 V210.102 F20000 M63 P0
G93 G1 X15.764 V210.102 F20000 M62 P0
G93 G1 X15.796 V210.102 F20000 M63 P0
G93 G1 X15.829 V210.102 F20000 M62 P0
G93 G1 X15.862 V210.102 F20000 M63 P0
G93 G1 X15.894 V210.102 F20000 M62 P0
G93 G1 X15.927 V210.102 F20000 M63 P0
G93 G1 X15.96 V210.102 F20000 M62 P0
G93 G1 X15.992 V210.102 F20000 M63 P0
G93 G1 X16.025 V210.102 F20000 M62 P0
G93 G1 X16.057 V210.102 F20000 M63 P0
G93 G1 X16.09 V210.102 F20000 M62 P0
G93 G1 X16.123 V210.102 F20000 M63 P0
G93 G1 X16.155 V210.102 F20000 M62 P0
G93 G1 X16.188 V210.102 F20000 M63 P0
G93 G1 X16.221 V210.102 F20000 M62 P0
G93 G1 X16.253 V210.102 F20000 M63 P0
G93 G1 X16.286 V210.102 F20000 M62 P0
G93 G1 X16.319 V210.102 F20000 M63 P0
G93 G1 X16.351 V210.102 F20000 M62 P0
G93 G1 X16.384 V210.102 F20000 M63 P0
G93 G1 X16.416 V210.102 F20000 M62 P0
G93 G1 X16.449 V210.102 F20000 M63 P0
G93 G1 X16.482 V210.102 F20000 M62 P0
G93 G1 X16.514 V210.102 F20000 M63 P0
G93 G1 X16.547 V210.102 F20000 M62 P0
G93 G1 X16.58 V210.102 F20000 M63 P0
G93 G1 X16.612 V210.102 F20000 M62 P0
G93 G1 X16.645 V210.102 F20000 M63 P0
G93 G1 X16.678 V210.102 F20000 M62 P0
G93 G1 X16.71 V210.102 F20000 M63 P0
G93 G1 X16.743 V210.102 F20000 M62 P0
G93 G1 X16.775 V210.102 F20000 M63 P0
G93 G1 X16.808 V210.102 F20000 M62 P0
G93 G1 X16.841 V210.102 F20000 M63 P0
G93 G1 X16.873 V210.102 F20000 M62 P0
G93 G1 X16.906 V210.102 F20000 M63 P0
G93 G1 X16.939 V210.102 F20000 M62 P0
G93 G1 X16.971 V210.102 F20000 M63 P0
G93 G1 X17.004 V210.102 F20000 M62 P0
G93 G1 X17.037 V210.102 F20000 M63 P0
G93 G1 X17.069 V210.102 F20000 M62 P0
G93 G1 X17.102 V210.102 F20000 M63 P0
G93 G1 X17.134 V210.102 F20000 M62 P0
G93 G1 X17.167 V210.102 F20000 M63 P0
G93 G1 X17.2 V210.102 F20000 M62 P0
G93 G1 X17.232 V210.102 F20000 M63 P0
G93 G1 X17.265 V210.102 F20000 M62 P0
G93 G1 X17.298 V210.102 F20000 M63 P0
G93 G1 X17.33 V210.102 F20000 M62 P0
G93 G1 X17.363 V210.102 F20000 M63 P0
G93 G1 X17.396 V210.102 F20000 M62 P0
G93 G1 X17.428 V210.102 F20000 M63 P0
G93 G1 X17.461 V210.102 F20000 M62 P0
G93 G1 X17.493 V210.102 F20000 M63 P0
G93 G1 X17.526 V210.102 F20000 M62 P0
G93 G1 X17.559 V210.102 F20000 M63 P0
G93 G1 X17.591 V210.102 F20000 M62 P0
G93 G1 X17.624 V210.102 F20000 M63 P0
G93 G1 X17.657 V210.102 F20000 M62 P0
G93 G1 X17.689 V210.102 F20000 M63 P0
G93 G1 X17.722 V210.102 F20000 M62 P0
G93 G1 X17.755 V210.102 F20000 M63 P0
G93 G1 X17.787 V210.102 F20000 M62 P0
G93 G1 X17.82 V210.102 F20000 M63 P0
G93 G1 X17.852 V210.102 F20000 M62 P0
G93 G1 X17.885 V210.102 F20000 M63 P0
G93 G1 X17.918 V210.102 F20000 M62 P0
G93 G1 X17.95 V210.102 F20000 M63 P0
G93 G1 X17.983 V210.102 F20000 M62 P0
G93 G1 X18.016 V210.102 F20000 M63 P0
G93 G1 X18.048 V210.102 F20000 M62 P0
G93 G1 X18.081 V210.102 F20000 M63 P0
G93 G1 X18.114 V210.102 F20000 M62 P0
G93 G1 X18.146 V210.102 F20000 M63 P0
G93 G1 X18.179 V210.102 F20000 M62 P0
G93 G1 X18.211 V210.102 F20000 M63 P0
G93 G1 X18.244 V210.102 F20000 M62 P0
G93 G1 X18.277 V210.102 F20000 M63 P0
G93 G1 X18.309 V210.102 F20000 M62 P0
G93 G1 X18.342 V210.102 F20000 M63 P0
G93 G1 X18.375 V210.102 F20000 M62 P0
G93 G1 X18.407 V210.102 F20000 M63 P0
G93 G1 X18.44 V210.102 F20000 M62 P0
G93 G1 X18.473 V210.102 F20000 M63 P0
G93 G1 X18.505 V210.102 F20000 M62 P0
G93 G1 X18.538 V210.102 F20000 M63 P0
G93 G1 X18.57 V210.102 F20000 M62 P0
G93 G1 X18.603 V210.102 F20000 M63 P0
G93 G1 X18.636 V210.102 F20000 M62 P0
G93 G1 X18.668 V210.102 F20000 M63 P0
G93 G1 X18.701 V210.102 F20000 M62 P0
G93 G1 X18.734 V210.102 F20000 M63 P0
G93 G1 X18.766 V210.102 F20000 M62 P0
G93 G1 X18.799 V210.102 F20000 M63 P0
G93 G1 X18.832 V210.102 F20000 M62 P0
G93 G1 X18.864 V210.102 F20000 M63 P0
G93 G1 X18.897 V210.102 F20000 M62 P0
G93 G1 X18.93 V210.102 F20000 M63 P0
G93 G1 X18.962 V210.102 F20000 M62 P0
G93 G1 X18.995 V210.102 F20000 M63 P0
G93 G1 X19.027 V210.102 F20000 M62 P0
G93 G1 X19.06 V210.102 F20000 M63 P0
G93 G1 X19.093 V210.102 F20000 M62 P0
G93 G1 X19.125 V210.102 F20000 M63 P0
G93 G1 X19.158 V210.102 F20000 M62 P0
G93 G1 X19.191 V210.102 F20000 M63 P0
G93 G1 X19.223 V210.102 F20000 M62 P0
G93 G1 X19.256 V210.102 F20000 M63 P0
G93 G1 X19.289 V210.102 F20000 M62 P0
G93 G1 X19.321 V210.102 F20000 M63 P0
G93 G1 X19.354 V210.102 F20000 M62 P0
G93 G1 X19.386 V210.102 F20000 M63 P0
G93 G1 X19.419 V210.102 F20000 M62 P0
G93 G1 X19.452 V210.102 F20000 M63 P0
G93 G1 X19.484 V210.102 F20000 M62 P0
G93 G1 X19.517 V210.102 F20000 M63 P0
G93 G1 X19.55 V210.102 F20000 M62 P0
G93 G1 X19.582 V210.102 F20000 M63 P0
G93 G1 X19.615 V210.102 F20000 M62 P0
G93 G1 X19.648 V210.102 F20000 M63 P0
G93 G1 X19.68 V210.102 F20000 M62 P0
G93 G1 X19.713 V210.102 F20000 M63 P0
G93 G1 X19.745 V210.102 F20000 M62 P0
G93 G1 X19.778 V210.102 F20000 M63 P0
G93 G1 X19.811 V210.102 F20000 M62 P0
G93 G1 X19.843 V210.102 F20000 M63 P0
G93 G1 X19.876 V210.102 F20000 M62 P0
G93 G1 X19.909 V210.102 F20000 M63 P0
G93 G1 X19.941 V210.102 F20000 M62 P0
G93 G1 X19.974 V210.102 F20000 M63 P0
G93 G1 X20.007 V210.102 F20000 M62 P0
G93 G1 X20.039 V210.102 F20000 M63 P0
G93 G1 X20.072 V210.102 F20000 M62 P0
G93 G1 X20.104 V210.102 F20000 M63 P0
G93 G1 X20.137 V210.102 F20000 M62 P0
G93 G1 X20.17 V210.102 F20000 M63 P0
G93 G1 X20.202 V210.102 F20000 M62 P0
G93 G1 X20.235 V210.102 F20000 M63 P0
G93 G1 X20.268 V210.102 F20000 M62 P0
G93 G1 X20.3 V210.102 F20000 M63 P0
G93 G1 X20.333 V210.102 F20000 M62 P0
G93 G1 X20.366 V210.102 F20000 M63 P0
G93 G1 X20.398 V210.102 F20000 M62 P0
G93 G1 X20.431 V210.102 F20000 M63 P0
G93 G1 X20.463 V210.102 F20000 M62 P0
G93 G1 X20.496 V210.102 F20000 M63 P0
G93 G1 X20.529 V210.102 F20000 M62 P0
G93 G1 X20.561 V210.102 F20000 M63 P0
G93 G1 X20.594 V210.102 F20000 M62 P0
G93 G1 X20.627 V210.102 F20000 M63 P0
G93 G1 X20.659 V210.102 F20000 M62 P0
G93 G1 X20.692 V210.102 F20000 M63 P0
G93 G1 X20.725 V210.102 F20000 M62 P0
G93 G1 X20.757 V210.102 F20000 M63 P0
G93 G1 X20.79 V210.102 F20000 M62 P0
G93 G1 X20.822 V210.102 F20000 M63 P0
G93 G1 X20.855 V210.102 F20000 M62 P0
G93 G1 X20.888 V210.102 F20000 M63 P0
G93 G1 X20.92 V210.102 F20000 M62 P0
G93 G1 X20.953 V210.102 F20000 M63 P0
G93 G1 X20.986 V210.102 F20000 M62 P0
G93 G1 X21.018 V210.102 F20000 M63 P0
G93 G1 X21.051 V210.102 F20000 M62 P0
G93 G1 X21.084 V210.102 F20000 M63 P0
G93 G1 X21.116 V210.102 F20000 M62 P0
G93 G1 X21.149 V210.102 F20000 M63 P0
G93 G1 X21.181 V210.102 F20000 M62 P0
G93 G1 X21.214 V210.102 F20000 M63 P0
G93 G1 X21.247 V210.102 F20000 M62 P0
G93 G1 X21.279 V210.102 F20000 M63 P0
G93 G1 X21.312 V210.102 F20000 M62 P0
G93 G1 X21.345 V210.102 F20000 M63 P0
G93 G1 X21.377 V210.102 F20000 M62 P0
G93 G1 X21.41 V210.102 F20000 M63 P0
G93 G1 X21.443 V210.102 F20000 M62 P0
G93 G1 X21.475 V210.102 F20000 M63 P0
G93 G1 X21.508 V210.102 F20000 M62 P0
G93 G1 X21.54 V210.102 F20000 M63 P0
G93 G1 X21.573 V210.102 F20000 M62 P0
G93 G1 X21.606 V210.102 F20000 M63 P0
G93 G1 X21.638 V210.102 F20000 M62 P0
G93 G1 X21.671 V210.102 F20000 M63 P0
G93 G1 X21.704 V210.102 F20000 M62 P0
G93 G1 X21.736 V210.102 F20000 M63 P0
G93 G1 X21.769 V210.102 F20000 M62 P0
G93 G1 X21.802 V210.102 F20000 M63 P0
G93 G1 X21.834 V210.102 F20000 M62 P0
G93 G1 X21.867 V210.102 F20000 M63 P0
G93 G1 X21.899 V210.102 F20000 M62 P0
G93 G1 X21.932 V210.102 F20000 M63 P0
G93 G1 X21.965 V210.102 F20000 M62 P0
G93 G1 X21.997 V210.102 F20000 M63 P0
G93 G1 X22.03 V210.102 F20000 M62 P0
G93 G1 X22.063 V210.102 F20000 M63 P0
G93 G1 X22.095 V210.102 F20000 M62 P0
G93 G1 X22.128 V210.102 F20000 M63 P0
G93 G1 X22.161 V210.102 F20000 M62 P0
G93 G1 X22.193 V210.102 F20000 M63 P0
G93 G1 X22.226 V210.102 F20000 M62 P0
G93 G1 X22.258 V210.102 F20000 M63 P0
G93 G1 X22.291 V210.102 F20000 M62 P0
G93 G1 X22.324 V210.102 F20000 M63 P0
G93 G1 X22.356 V210.102 F20000 M62 P0
G93 G1 X22.389 V210.102 F20000 M63 P0
G93 G1 X22.422 V210.102 F20000 M62 P0
G93 G1 X22.454 V210.102 F20000 M63 P0
G93 G1 X22.487 V210.102 F20000 M62 P0
G93 G1 X22.52 V210.102 F20000 M63 P0
G93 G1 X22.552 V210.102 F20000 M62 P0
G93 G1 X22.585 V210.102 F20000 M63 P0
G93 G1 X22.617 V210.102 F20000 M62 P0
G93 G1 X22.65 V210.102 F20000 M63 P0
G93 G1 X22.683 V210.102 F20000 M62 P0
G93 G1 X22.715 V210.102 F20000 M63 P0
G93 G1 X22.748 V210.102 F20000 M62 P0
G93 G1 X22.781 V210.102 F20000 M63 P0
G93 G1 X22.813 V210.102 F20000 M62 P0
G93 G1 X22.846 V210.102 F20000 M63 P0
G93 G1 X22.879 V210.102 F20000 M62 P0
G93 G1 X22.911 V210.102 F20000 M63 P0
G93 G1 X22.944 V210.102 F20000 M62 P0
G93 G1 X22.977 V210.102 F20000 M63 P0
G93 G1 X23.009 V210.102 F20000 M62 P0
G93 G1 X23.042 V210.102 F20000 M63 P0
G93 G1 X23.074 V210.102 F20000 M62 P0
G93 G1 X23.107 V210.102 F20000 M63 P0
G93 G1 X23.14 V210.102 F20000 M62 P0
G93 G1 X23.172 V210.102 F20000 M63 P0
G93 G1 X23.205 V210.102 F20000 M62 P0
G93 G1 X23.238 V210.102 F20000 M63 P0
G93 G1 X23.27 V210.102 F20000 M62 P0
G93 G1 X23.303 V210.102 F20000 M63 P0
G93 G1 X23.336 V210.102 F20000 M62 P0
G93 G1 X23.368 V210.102 F20000 M63 P0
G93 G1 X23.401 V210.102 F20000 M62 P0
G93 G1 X23.433 V210.102 F20000 M63 P0
G93 G1 X23.466 V210.102 F20000 M62 P0
G93 G1 X23.499 V210.102 F20000 M63 P0
G93 G1 X23.531 V210.102 F20000 M62 P0
G93 G1 X23.564 V210.102 F20000 M63 P0
G93 G1 X23.597 V210.102 F20000 M62 P0
G93 G1 X23.629 V210.102 F20000 M63 P0
G93 G1 X23.662 V210.102 F20000 M62 P0
G93 G1 X23.695 V210.102 F20000 M63 P0
G93 G1 X23.727 V210.102 F20000 M62 P0
G93 G1 X23.76 V210.102 F20000 M63 P0
G93 G1 X23.792 V210.102 F20000 M62 P0
G93 G1 X23.825 V210.102 F20000 M63 P0
G93 G1 X23.858 V210.102 F20000 M62 P0
G93 G1 X23.89 V210.102 F20000 M63 P0
G93 G1 X23.923 V210.102 F20000 M62 P0
G93 G1 X23.956 V210.102 F20000 M63 P0
G93 G1 X23.988 V210.102 F20000 M62 P0
G93 G1 X24.021 V210.102 F20000 M63 P0
G93 G1 X24.054 V210.102 F20000 M62 P0
G93 G1 X24.086 V210.102 F20000 M63 P0
G93 G1 X24.119 V210.102 F20000 M62 P0
G93 G1 X24.151 V210.102 F20000 M63 P0
G93 G1 X24.184 V210.102 F20000 M62 P0
G93 G1 X24.217 V210.102 F20000 M63 P0
G93 G1 X24.249 V210.102 F20000 M62 P0
G93 G1 X24.282 V210.102 F20000 M63 P0
G93 G1 X24.315 V210.102 F20000 M62 P0
G93 G1 X24.347 V210.102 F20000 M63 P0
G93 G1 X24.38 V210.102 F20000 M62 P0
G93 G1 X24.413 V210.102 F20000 M63 P0
G93 G1 X24.445 V210.102 F20000 M62 P0
G93 G1 X24.478 V210.102 F20000 M63 P0
G93 G1 X24.51 V210.102 F20000 M62 P0
G93 G1 X24.543 V210.102 F20000 M63 P0
G0 X14.48 Y130.0 Z80.0 A0.0 B0.0 C0.0 U0.0
%