%
(2025-07-13, 16:07:40, Florian Amoser)
(This is machine specific gcode for SPLICER)
(250213_testing-22_0-1500.ngc)
(linenumbers: 1500)
(color: a)
(exposure time: 1500μs)
G90 G17
G21
G01 F5000
G0 X340.0 Y350.0 Z80.0 A52.319 B52.319 C180.0 U0.0
M100
G93 G1 X-10.0 Y350.0 C180.0 V35.175 F20000 M63 P0
G93 G1 X-9.99 F20000 M62 P0
G93 G1 X-10.01 F20000 M63 P0
G93 G1 X-9.99 F20000 M62 P0
G93 G1 X-10.01 F20000 M63 P0
G93 G1 X-9.99 F20000 M62 P0
G93 G1 X-10.01 F20000 M63 P0
G93 G1 X-9.99 F20000 M62 P0
G93 G1 X-10.01 F20000 M63 P0
G93 G1 X-9.99 F20000 M62 P0
G93 G1 X-10.01 F20000 M63 P0
G93 G1 X-9.99 F20000 M62 P0
G93 G1 X-10.01 F20000 M63 P0
G93 G1 X-9.99 F20000 M62 P0
G93 G1 X-10.01 F20000 M63 P0
G93 G1 X-9.99 F20000 M62 P0
G93 G1 X-10.01 F20000 M63 P0
G93 G1 X-9.99 F20000 M62 P0
G93 G1 X-10.01 F20000 M63 P0
G93 G1 X-9.99 F20000 M62 P0
G93 G1 X-10.01 F20000 M63 P0
G93 G1 X-9.99 F20000 M62 P0
G93 G1 X-10.01 F20000 M63 P0
G93 G1 X-9.99 F20000 M62 P0
G93 G1 X-10.01 F20000 M63 P0
G93 G1 X-9.99 F20000 M62 P0
G93 G1 X-10.01 F20000 M63 P0
G93 G1 X-9.99 F20000 M62 P0
G93 G1 X-10.01 F20000 M63 P0
G93 G1 X-9.99 F20000 M62 P0
G93 G1 X-10.01 F20000 M63 P0
G93 G1 X-9.99 F20000 M62 P0
G93 G1 X-10.01 F20000 M63 P0
G93 G1 X-9.99 F20000 M62 P0
G93 G1 X-10.01 F20000 M63 P0
G93 G1 X-9.99 F20000 M62 P0
G93 G1 X-10.01 F20000 M63 P0
G93 G1 X-9.99 F20000 M62 P0
G93 G1 X-10.01 F20000 M63 P0
G93 G1 X-9.99 F20000 M62 P0
G93 G1 X-10.01 F20000 M63 P0
G93 G1 X-9.99 F20000 M62 P0
G93 G1 X-10.01 F20000 M63 P0
G93 G1 X-9.99 F20000 M62 P0
G93 G1 X-10.01 F20000 M63 P0
G93 G1 X-9.99 F20000 M62 P0
G93 G1 X-10.01 F20000 M63 P0
G93 G1 X-9.99 F20000 M62 P0
G93 G1 X-10.01 F20000 M63 P0
G93 G1 X-9.99 F20000 M62 P0
G93 G1 X-10.01 F20000 M63 P0
G93 G1 X-9.99 F20000 M62 P0
G93 G1 X-10.01 F20000 M63 P0
G93 G1 X-9.99 F20000 M62 P0
G93 G1 X-10.01 F20000 M63 P0
G93 G1 X-9.99 F20000 M62 P0
G93 G1 X-10.01 F20000 M63 P0
G93 G1 X-9.99 F20000 M62 P0
G93 G1 X-10.01 F20000 M63 P0
G93 G1 X-9.99 F20000 M62 P0
G93 G1 X-10.01 F20000 M63 P0
G93 G1 X-9.99 F20000 M62 P0
G93 G1 X-10.01 F20000 M63 P0
G93 G1 X-9.99 F20000 M62 P0
G93 G1 X-10.01 F20000 M63 P0
G93 G1 X-9.99 F20000 M62 P0
G93 G1 X-10.01 F20000 M63 P0
G93 G1 X-9.99 F20000 M62 P0
G93 G1 X-10.01 F20000 M63 P0
G93 G1 X-9.99 F20000 M62 P0
G93 G1 X-10.01 F20000 M63 P0
G93 G1 X-9.99 F20000 M62 P0
G93 G1 X-10.01 F20000 M63 P0
G93 G1 X-9.99 F20000 M62 P0
G93 G1 X-10.01 F20000 M63 P0
G93 G1 X-9.99 F20000 M62 P0
G93 G1 X-10.01 F20000 M63 P0
G93 G1 X-9.99 F20000 M62 P0
G93 G1 X-10.01 F20000 M63 P0
G93 G1 X-9.99 F20000 M62 P0
G93 G1 X-10.01 F20000 M63 P0
G93 G1 X-9.99 F20000 M62 P0
G93 G1 X-10.01 F20000 M63 P0
G93 G1 X-9.99 F20000 M62 P0
G93 G1 X-10.01 F20000 M63 P0
G93 G1 X-9.99 F20000 M62 P0
G93 G1 X-10.01 F20000 M63 P0
G93 G1 X-9.99 F20000 M62 P0
G93 G1 X-10.01 F20000 M63 P0
G93 G1 X-9.99 F20000 M62 P0
G93 G1 X-10.01 F20000 M63 P0
G93 G1 X-9.99 F20000 M62 P0
G93 G1 X-10.01 F20000 M63 P0
G93 G1 X-9.99 F20000 M62 P0
G93 G1 X-10.01 F20000 M63 P0
G93 G1 X-9.99 F20000 M62 P0
G93 G1 X-10.01 F20000 M63 P0
G93 G1 X-9.99 F20000 M62 P0
G93 G1 X-10.01 F20000 M63 P0
G93 G1 X-9.99 F20000 M62 P0
G93 G1 X-10.01 F20000 M63 P0
G93 G1 X-9.99 F20000 M62 P0
G93 G1 X-10.01 F20000 M63 P0
G93 G1 X-9.99 F20000 M62 P0
G93 G1 X-10.01 F20000 M63 P0
G93 G1 X-9.99 F20000 M62 P0
G93 G1 X-10.01 F20000 M63 P0
G93 G1 X-9.99 F20000 M62 P0
G93 G1 X-10.01 F20000 M63 P0
G93 G1 X-9.99 F20000 M62 P0
G93 G1 X-10.01 F20000 M63 P0
G93 G1 X-9.99 F20000 M62 P0
G93 G1 X-10.01 F20000 M63 P0
G93 G1 X-9.99 F20000 M62 P0
G93 G1 X-10.01 F20000 M63 P0
G93 G1 X-9.99 F20000 M62 P0
G93 G1 X-10.01 F20000 M63 P0
G93 G1 X-9.99 F20000 M62 P0
G93 G1 X-10.01 F20000 M63 P0
G93 G1 X-9.99 F20000 M62 P0
G93 G1 X-10.01 F20000 M63 P0
G93 G1 X-9.99 F20000 M62 P0
G93 G1 X-10.01 F20000 M63 P0
G93 G1 X-9.99 F20000 M62 P0
G93 G1 X-10.01 F20000 M63 P0
G93 G1 X-9.99 F20000 M62 P0
G93 G1 X-10.01 F20000 M63 P0
G93 G1 X-9.99 F20000 M62 P0
G93 G1 X-10.01 F20000 M63 P0
G93 G1 X-9.99 F20000 M62 P0
G93 G1 X-10.01 F20000 M63 P0
G93 G1 X-9.99 F20000 M62 P0
G93 G1 X-10.01 F20000 M63 P0
G93 G1 X-9.99 F20000 M62 P0
G93 G1 X-10.01 F20000 M63 P0
G93 G1 X-9.99 F20000 M62 P0
G93 G1 X-10.01 F20000 M63 P0
G93 G1 X-9.99 F20000 M62 P0
G93 G1 X-10.01 F20000 M63 P0
G93 G1 X-9.99 F20000 M62 P0
G93 G1 X-10.01 F20000 M63 P0
G93 G1 X-9.99 F20000 M62 P0
G93 G1 X-10.01 F20000 M63 P0
G93 G1 X-9.99 F20000 M62 P0
G93 G1 X-10.01 F20000 M63 P0
G93 G1 X-9.99 F20000 M62 P0
G93 G1 X-10.01 F20000 M63 P0
G93 G1 X-9.99 F20000 M62 P0
G93 G1 X-10.01 F20000 M63 P0
G93 G1 X-9.99 F20000 M62 P0
G93 G1 X-10.01 F20000 M63 P0
G93 G1 X-9.99 F20000 M62 P0
G93 G1 X-10.01 F20000 M63 P0
G93 G1 X-9.99 F20000 M62 P0
G93 G1 X-10.01 F20000 M63 P0
G93 G1 X-9.99 F20000 M62 P0
G93 G1 X-10.01 F20000 M63 P0
G93 G1 X-9.99 F20000 M62 P0
G93 G1 X-10.01 F20000 M63 P0
G93 G1 X-9.99 F20000 M62 P0
G93 G1 X-10.01 F20000 M63 P0
G93 G1 X-9.99 F20000 M62 P0
G93 G1 X-10.01 F20000 M63 P0
G93 G1 X-9.99 F20000 M62 P0
G93 G1 X-10.01 F20000 M63 P0
G93 G1 X-9.99 F20000 M62 P0
G93 G1 X-10.01 F20000 M63 P0
G93 G1 X-9.99 F20000 M62 P0
G93 G1 X-10.01 F20000 M63 P0
G93 G1 X-9.99 F20000 M62 P0
G93 G1 X-10.01 F20000 M63 P0
G93 G1 X-9.99 F20000 M62 P0
G93 G1 X-10.01 F20000 M63 P0
G93 G1 X-9.99 F20000 M62 P0
G93 G1 X-10.01 F20000 M63 P0
G93 G1 X-9.99 F20000 M62 P0
G93 G1 X-10.01 F20000 M63 P0
G93 G1 X-9.99 F20000 M62 P0
G93 G1 X-10.01 F20000 M63 P0
G93 G1 X-9.99 F20000 M62 P0
G93 G1 X-10.01 F20000 M63 P0
G93 G1 X-9.99 F20000 M62 P0
G93 G1 X-10.01 F20000 M63 P0
G93 G1 X-9.99 F20000 M62 P0
G93 G1 X-10.01 F20000 M63 P0
G93 G1 X-9.99 F20000 M62 P0
G93 G1 X-10.01 F20000 M63 P0
G93 G1 X-9.99 F20000 M62 P0
G93 G1 X-10.01 F20000 M63 P0
G93 G1 X-9.99 F20000 M62 P0
G93 G1 X-10.01 F20000 M63 P0
G93 G1 X-9.99 F20000 M62 P0
G93 G1 X-10.01 F20000 M63 P0
G93 G1 X-9.99 F20000 M62 P0
G93 G1 X-10.01 F20000 M63 P0
G93 G1 X-9.99 F20000 M62 P0
G93 G1 X-10.01 F20000 M63 P0
G93 G1 X-9.99 F20000 M62 P0
G93 G1 X-10.01 F20000 M63 P0
G93 G1 X-9.99 F20000 M62 P0
G93 G1 X-10.01 F20000 M63 P0
G93 G1 X-9.99 F20000 M62 P0
G93 G1 X-10.01 F20000 M63 P0
G93 G1 X-9.99 F20000 M62 P0
G93 G1 X-10.01 F20000 M63 P0
G93 G1 X-9.99 F20000 M62 P0
G93 G1 X-10.01 F20000 M63 P0
G93 G1 X-9.99 F20000 M62 P0
G93 G1 X-10.01 F20000 M63 P0
G93 G1 X-9.99 F20000 M62 P0
G93 G1 X-10.01 F20000 M63 P0
G93 G1 X-9.99 F20000 M62 P0
G93 G1 X-10.01 F20000 M63 P0
G93 G1 X-9.99 F20000 M62 P0
G93 G1 X-10.01 F20000 M63 P0
G93 G1 X-9.99 F20000 M62 P0
G93 G1 X-10.01 F20000 M63 P0
G93 G1 X-9.99 F20000 M62 P0
G93 G1 X-10.01 F20000 M63 P0
G93 G1 X-9.99 F20000 M62 P0
G93 G1 X-10.01 F20000 M63 P0
G93 G1 X-9.99 F20000 M62 P0
G93 G1 X-10.01 F20000 M63 P0
G93 G1 X-9.99 F20000 M62 P0
G93 G1 X-10.01 F20000 M63 P0
G93 G1 X-9.99 F20000 M62 P0
G93 G1 X-10.01 F20000 M63 P0
G93 G1 X-9.99 F20000 M62 P0
G93 G1 X-10.01 F20000 M63 P0
G93 G1 X-9.99 F20000 M62 P0
G93 G1 X-10.01 F20000 M63 P0
G93 G1 X-9.99 F20000 M62 P0
G93 G1 X-10.01 F20000 M63 P0
G93 G1 X-9.99 F20000 M62 P0
G93 G1 X-10.01 F20000 M63 P0
G93 G1 X-9.99 F20000 M62 P0
G93 G1 X-10.01 F20000 M63 P0
G93 G1 X-9.99 F20000 M62 P0
G93 G1 X-10.01 F20000 M63 P0
G93 G1 X-9.99 F20000 M62 P0
G93 G1 X-10.01 F20000 M63 P0
G93 G1 X-9.99 F20000 M62 P0
G93 G1 X-10.01 F20000 M63 P0
G93 G1 X-9.99 F20000 M62 P0
G93 G1 X-10.01 F20000 M63 P0
G93 G1 X-9.99 F20000 M62 P0
G93 G1 X-10.01 F20000 M63 P0
G93 G1 X-9.99 F20000 M62 P0
G93 G1 X-10.01 F20000 M63 P0
G93 G1 X-9.99 F20000 M62 P0
G93 G1 X-10.01 F20000 M63 P0
G93 G1 X-9.99 F20000 M62 P0
G93 G1 X-10.01 F20000 M63 P0
G93 G1 X-9.99 F20000 M62 P0
G93 G1 X-10.01 F20000 M63 P0
G93 G1 X-9.99 F20000 M62 P0
G93 G1 X-10.01 F20000 M63 P0
G93 G1 X-9.99 F20000 M62 P0
G93 G1 X-10.01 F20000 M63 P0
G93 G1 X-9.99 F20000 M62 P0
G93 G1 X-10.01 F20000 M63 P0
G93 G1 X-9.99 F20000 M62 P0
G93 G1 X-10.01 F20000 M63 P0
G93 G1 X-9.99 F20000 M62 P0
G93 G1 X-10.01 F20000 M63 P0
G93 G1 X-9.99 F20000 M62 P0
G93 G1 X-10.01 F20000 M63 P0
G93 G1 X-9.99 F20000 M62 P0
G93 G1 X-10.01 F20000 M63 P0
G93 G1 X-9.99 F20000 M62 P0
G93 G1 X-10.01 F20000 M63 P0
G93 G1 X-9.99 F20000 M62 P0
G93 G1 X-10.01 F20000 M63 P0
G93 G1 X-9.99 F20000 M62 P0
G93 G1 X-10.01 F20000 M63 P0
G93 G1 X-9.99 F20000 M62 P0
G93 G1 X-10.01 F20000 M63 P0
G93 G1 X-9.99 F20000 M62 P0
G93 G1 X-10.01 F20000 M63 P0
G93 G1 X-9.99 F20000 M62 P0
G93 G1 X-10.01 F20000 M63 P0
G93 G1 X-9.99 F20000 M62 P0
G93 G1 X-10.01 F20000 M63 P0
G93 G1 X-9.99 F20000 M62 P0
G93 G1 X-10.01 F20000 M63 P0
G93 G1 X-9.99 F20000 M62 P0
G93 G1 X-10.01 F20000 M63 P0
G93 G1 X-9.99 F20000 M62 P0
G93 G1 X-10.01 F20000 M63 P0
G93 G1 X-9.99 F20000 M62 P0
G93 G1 X-10.01 F20000 M63 P0
G93 G1 X-9.99 F20000 M62 P0
G93 G1 X-10.01 F20000 M63 P0
G93 G1 X-9.99 F20000 M62 P0
G93 G1 X-10.01 F20000 M63 P0
G93 G1 X-9.99 F20000 M62 P0
G93 G1 X-10.01 F20000 M63 P0
G93 G1 X-9.99 F20000 M62 P0
G93 G1 X-10.01 F20000 M63 P0
G93 G1 X-9.99 F20000 M62 P0
G93 G1 X-10.01 F20000 M63 P0
G93 G1 X-9.99 F20000 M62 P0
G93 G1 X-10.01 F20000 M63 P0
G93 G1 X-9.99 F20000 M62 P0
G93 G1 X-10.01 F20000 M63 P0
G93 G1 X-9.99 F20000 M62 P0
G93 G1 X-10.01 F20000 M63 P0
G93 G1 X-9.99 F20000 M62 P0
G93 G1 X-10.01 F20000 M63 P0
G93 G1 X-9.99 F20000 M62 P0
G93 G1 X-10.01 F20000 M63 P0
G93 G1 X-9.99 F20000 M62 P0
G93 G1 X-10.01 F20000 M63 P0
G93 G1 X-9.99 F20000 M62 P0
G93 G1 X-10.01 F20000 M63 P0
G93 G1 X-9.99 F20000 M62 P0
G93 G1 X-10.01 F20000 M63 P0
G93 G1 X-9.99 F20000 M62 P0
G93 G1 X-10.01 F20000 M63 P0
G93 G1 X-9.99 F20000 M62 P0
G93 G1 X-10.01 F20000 M63 P0
G93 G1 X-9.99 F20000 M62 P0
G93 G1 X-10.01 F20000 M63 P0
G93 G1 X-9.99 F20000 M62 P0
G93 G1 X-10.01 F20000 M63 P0
G93 G1 X-9.99 F20000 M62 P0
G93 G1 X-10.01 F20000 M63 P0
G93 G1 X-9.99 F20000 M62 P0
G93 G1 X-10.01 F20000 M63 P0
G93 G1 X-9.99 F20000 M62 P0
G93 G1 X-10.01 F20000 M63 P0
G93 G1 X-9.99 F20000 M62 P0
G93 G1 X-10.01 F20000 M63 P0
G93 G1 X-9.99 F20000 M62 P0
G93 G1 X-10.01 F20000 M63 P0
G93 G1 X-9.99 F20000 M62 P0
G93 G1 X-10.01 F20000 M63 P0
G93 G1 X-9.99 F20000 M62 P0
G93 G1 X-10.01 F20000 M63 P0
G93 G1 X-9.99 F20000 M62 P0
G93 G1 X-10.01 F20000 M63 P0
G93 G1 X-9.99 F20000 M62 P0
G93 G1 X-10.01 F20000 M63 P0
G93 G1 X-9.99 F20000 M62 P0
G93 G1 X-10.01 F20000 M63 P0
G93 G1 X-9.99 F20000 M62 P0
G93 G1 X-10.01 F20000 M63 P0
G93 G1 X-9.99 F20000 M62 P0
G93 G1 X-10.01 F20000 M63 P0
G93 G1 X-9.99 F20000 M62 P0
G93 G1 X-10.01 F20000 M63 P0
G93 G1 X-9.99 F20000 M62 P0
G93 G1 X-10.01 F20000 M63 P0
G93 G1 X-9.99 F20000 M62 P0
G93 G1 X-10.01 F20000 M63 P0
G93 G1 X-9.99 F20000 M62 P0
G93 G1 X-10.01 F20000 M63 P0
G93 G1 X-9.99 F20000 M62 P0
G93 G1 X-10.01 F20000 M63 P0
G93 G1 X-9.99 F20000 M62 P0
G93 G1 X-10.01 F20000 M63 P0
G93 G1 X-9.99 F20000 M62 P0
G93 G1 X-10.01 F20000 M63 P0
G93 G1 X-9.99 F20000 M62 P0
G93 G1 X-10.01 F20000 M63 P0
G93 G1 X-9.99 F20000 M62 P0
G93 G1 X-10.01 F20000 M63 P0
G93 G1 X-9.99 F20000 M62 P0
G93 G1 X-10.01 F20000 M63 P0
G93 G1 X-9.99 F20000 M62 P0
G93 G1 X-10.01 F20000 M63 P0
G93 G1 X-9.99 F20000 M62 P0
G93 G1 X-10.01 F20000 M63 P0
G93 G1 X-9.99 F20000 M62 P0
G93 G1 X-10.01 F20000 M63 P0
G93 G1 X-9.99 F20000 M62 P0
G93 G1 X-10.01 F20000 M63 P0
G93 G1 X-9.99 F20000 M62 P0
G93 G1 X-10.01 F20000 M63 P0
G93 G1 X-9.99 F20000 M62 P0
G93 G1 X-10.01 F20000 M63 P0
G93 G1 X-9.99 F20000 M62 P0
G93 G1 X-10.01 F20000 M63 P0
G93 G1 X-9.99 F20000 M62 P0
G93 G1 X-10.01 F20000 M63 P0
G93 G1 X-9.99 F20000 M62 P0
G93 G1 X-10.01 F20000 M63 P0
G93 G1 X-9.99 F20000 M62 P0
G93 G1 X-10.01 F20000 M63 P0
G93 G1 X-9.99 F20000 M62 P0
G93 G1 X-10.01 F20000 M63 P0
G93 G1 X-9.99 F20000 M62 P0
G93 G1 X-10.01 F20000 M63 P0
G93 G1 X-9.99 F20000 M62 P0
G93 G1 X-10.01 F20000 M63 P0
G93 G1 X-9.99 F20000 M62 P0
G93 G1 X-10.01 F20000 M63 P0
G93 G1 X-9.99 F20000 M62 P0
G93 G1 X-10.01 F20000 M63 P0
G93 G1 X-9.99 F20000 M62 P0
G93 G1 X-10.01 F20000 M63 P0
G93 G1 X-9.99 F20000 M62 P0
G93 G1 X-10.01 F20000 M63 P0
G93 G1 X-9.99 F20000 M62 P0
G93 G1 X-10.01 F20000 M63 P0
G93 G1 X-9.99 F20000 M62 P0
G93 G1 X-10.01 F20000 M63 P0
G93 G1 X-9.99 F20000 M62 P0
G93 G1 X-10.01 F20000 M63 P0
G93 G1 X-9.99 F20000 M62 P0
G93 G1 X-10.01 F20000 M63 P0
G93 G1 X-9.99 F20000 M62 P0
G93 G1 X-10.01 F20000 M63 P0
G93 G1 X-9.99 F20000 M62 P0
G93 G1 X-10.01 F20000 M63 P0
G93 G1 X-9.99 F20000 M62 P0
G93 G1 X-10.01 F20000 M63 P0
G93 G1 X-9.99 F20000 M62 P0
G93 G1 X-10.01 F20000 M63 P0
G93 G1 X-9.99 F20000 M62 P0
G93 G1 X-10.01 F20000 M63 P0
G93 G1 X-9.99 F20000 M62 P0
G93 G1 X-10.01 F20000 M63 P0
G93 G1 X-9.99 F20000 M62 P0
G93 G1 X-10.01 F20000 M63 P0
G93 G1 X-9.99 F20000 M62 P0
G93 G1 X-10.01 F20000 M63 P0
G93 G1 X-9.99 F20000 M62 P0
G93 G1 X-10.01 F20000 M63 P0
G93 G1 X-9.99 F20000 M62 P0
G93 G1 X-10.01 F20000 M63 P0
G93 G1 X-9.99 F20000 M62 P0
G93 G1 X-10.01 F20000 M63 P0
G93 G1 X-9.99 F20000 M62 P0
G93 G1 X-10.01 F20000 M63 P0
G93 G1 X-9.99 F20000 M62 P0
G93 G1 X-10.01 F20000 M63 P0
G93 G1 X-9.99 F20000 M62 P0
G93 G1 X-10.01 F20000 M63 P0
G93 G1 X-9.99 F20000 M62 P0
G93 G1 X-10.01 F20000 M63 P0
G93 G1 X-9.99 F20000 M62 P0
G93 G1 X-10.01 F20000 M63 P0
G93 G1 X-9.99 F20000 M62 P0
G93 G1 X-10.01 F20000 M63 P0
G93 G1 X-9.99 F20000 M62 P0
G93 G1 X-10.01 F20000 M63 P0
G93 G1 X-9.99 F20000 M62 P0
G93 G1 X-10.01 F20000 M63 P0
G93 G1 X-9.99 F20000 M62 P0
G93 G1 X-10.01 F20000 M63 P0
G93 G1 X-9.99 F20000 M62 P0
G93 G1 X-10.01 F20000 M63 P0
G93 G1 X-9.99 F20000 M62 P0
G93 G1 X-10.01 F20000 M63 P0
G93 G1 X-9.99 F20000 M62 P0
G93 G1 X-10.01 F20000 M63 P0
G93 G1 X-9.99 F20000 M62 P0
G93 G1 X-10.01 F20000 M63 P0
G93 G1 X-9.99 F20000 M62 P0
G93 G1 X-10.01 F20000 M63 P0
G93 G1 X-9.99 F20000 M62 P0
G93 G1 X-10.01 F20000 M63 P0
G93 G1 X-9.99 F20000 M62 P0
G93 G1 X-10.01 F20000 M63 P0
G93 G1 X-9.99 F20000 M62 P0
G93 G1 X-10.01 F20000 M63 P0
G93 G1 X-9.99 F20000 M62 P0
G93 G1 X-10.01 F20000 M63 P0
G93 G1 X-9.99 F20000 M62 P0
G93 G1 X-10.01 F20000 M63 P0
G93 G1 X-9.99 F20000 M62 P0
G93 G1 X-10.01 F20000 M63 P0
G93 G1 X-9.99 F20000 M62 P0
G93 G1 X-10.01 F20000 M63 P0
G93 G1 X-9.99 F20000 M62 P0
G93 G1 X-10.01 F20000 M63 P0
G93 G1 X-9.99 F20000 M62 P0
G93 G1 X-10.01 F20000 M63 P0
G93 G1 X-9.99 F20000 M62 P0
G93 G1 X-10.01 F20000 M63 P0
G93 G1 X-9.99 F20000 M62 P0
G93 G1 X-10.01 F20000 M63 P0
G93 G1 X-9.99 F20000 M62 P0
G93 G1 X-10.01 F20000 M63 P0
G93 G1 X-9.99 F20000 M62 P0
G93 G1 X-10.01 F20000 M63 P0
G93 G1 X-9.99 F20000 M62 P0
G93 G1 X-10.01 F20000 M63 P0
G93 G1 X-9.99 F20000 M62 P0
G93 G1 X-10.01 F20000 M63 P0
G93 G1 X-9.99 F20000 M62 P0
G93 G1 X-10.01 F20000 M63 P0
G93 G1 X-9.99 F20000 M62 P0
G93 G1 X-10.01 F20000 M63 P0
G93 G1 X-9.99 F20000 M62 P0
G93 G1 X-10.01 F20000 M63 P0
G93 G1 X-9.99 F20000 M62 P0
G93 G1 X-10.01 F20000 M63 P0
G93 G1 X-9.99 F20000 M62 P0
G93 G1 X-10.01 F20000 M63 P0
G93 G1 X-9.99 F20000 M62 P0
G93 G1 X-10.01 F20000 M63 P0
G93 G1 X-9.99 F20000 M62 P0
G93 G1 X-10.01 F20000 M63 P0
G93 G1 X-9.99 F20000 M62 P0
G93 G1 X-10.01 F20000 M63 P0
G93 G1 X-9.99 F20000 M62 P0
G93 G1 X-10.01 F20000 M63 P0
G93 G1 X-9.99 F20000 M62 P0
G93 G1 X-10.01 F20000 M63 P0
G93 G1 X-9.99 F20000 M62 P0
G93 G1 X-10.01 F20000 M63 P0
G93 G1 X-9.99 F20000 M62 P0
G93 G1 X-10.01 F20000 M63 P0
G93 G1 X-9.99 F20000 M62 P0
G93 G1 X-10.01 F20000 M63 P0
G93 G1 X-9.99 F20000 M62 P0
G93 G1 X-10.01 F20000 M63 P0
G93 G1 X-9.99 F20000 M62 P0
G93 G1 X-10.01 F20000 M63 P0
G93 G1 X-9.99 F20000 M62 P0
G93 G1 X-10.01 F20000 M63 P0
G93 G1 X-9.99 F20000 M62 P0
G93 G1 X-10.01 F20000 M63 P0
G93 G1 X-9.99 F20000 M62 P0
G93 G1 X-10.01 F20000 M63 P0
G93 G1 X-9.99 F20000 M62 P0
G93 G1 X-10.01 F20000 M63 P0
G93 G1 X-9.99 F20000 M62 P0
G93 G1 X-10.01 F20000 M63 P0
G93 G1 X-9.99 F20000 M62 P0
G93 G1 X-10.01 F20000 M63 P0
G93 G1 X-9.99 F20000 M62 P0
G93 G1 X-10.01 F20000 M63 P0
G93 G1 X-9.99 F20000 M62 P0
G93 G1 X-10.01 F20000 M63 P0
G93 G1 X-9.99 F20000 M62 P0
G93 G1 X-10.01 F20000 M63 P0
G93 G1 X-9.99 F20000 M62 P0
G93 G1 X-10.01 F20000 M63 P0
G93 G1 X-9.99 F20000 M62 P0
G93 G1 X-10.01 F20000 M63 P0
G93 G1 X-9.99 F20000 M62 P0
G93 G1 X-10.01 F20000 M63 P0
G93 G1 X-9.99 F20000 M62 P0
G93 G1 X-10.01 F20000 M63 P0
G93 G1 X-9.99 F20000 M62 P0
G93 G1 X-10.01 F20000 M63 P0
G93 G1 X-9.99 F20000 M62 P0
G93 G1 X-10.01 F20000 M63 P0
G93 G1 X-9.99 F20000 M62 P0
G93 G1 X-10.01 F20000 M63 P0
G93 G1 X-9.99 F20000 M62 P0
G93 G1 X-10.01 F20000 M63 P0
G93 G1 X-9.99 F20000 M62 P0
G93 G1 X-10.01 F20000 M63 P0
G93 G1 X-9.99 F20000 M62 P0
G93 G1 X-10.01 F20000 M63 P0
G93 G1 X-9.99 F20000 M62 P0
G93 G1 X-10.01 F20000 M63 P0
G93 G1 X-9.99 F20000 M62 P0
G93 G1 X-10.01 F20000 M63 P0
G93 G1 X-9.99 F20000 M62 P0
G93 G1 X-10.01 F20000 M63 P0
G93 G1 X-9.99 F20000 M62 P0
G93 G1 X-10.01 F20000 M63 P0
G93 G1 X-9.99 F20000 M62 P0
G93 G1 X-10.01 F20000 M63 P0
G93 G1 X-9.99 F20000 M62 P0
G93 G1 X-10.01 F20000 M63 P0
G93 G1 X-9.99 F20000 M62 P0
G93 G1 X-10.01 F20000 M63 P0
G93 G1 X-9.99 F20000 M62 P0
G93 G1 X-10.01 F20000 M63 P0
G93 G1 X-9.99 F20000 M62 P0
G93 G1 X-10.01 F20000 M63 P0
G93 G1 X-9.99 F20000 M62 P0
G93 G1 X-10.01 F20000 M63 P0
G93 G1 X-9.99 F20000 M62 P0
G93 G1 X-10.01 F20000 M63 P0
G93 G1 X-9.99 F20000 M62 P0
G93 G1 X-10.01 F20000 M63 P0
G93 G1 X-9.99 F20000 M62 P0
G93 G1 X-10.01 F20000 M63 P0
G93 G1 X-9.99 F20000 M62 P0
G93 G1 X-10.01 F20000 M63 P0
G93 G1 X-9.99 F20000 M62 P0
G93 G1 X-10.01 F20000 M63 P0
G93 G1 X-9.99 F20000 M62 P0
G93 G1 X-10.01 F20000 M63 P0
G93 G1 X-9.99 F20000 M62 P0
G93 G1 X-10.01 F20000 M63 P0
G93 G1 X-9.99 F20000 M62 P0
G93 G1 X-10.01 F20000 M63 P0
G93 G1 X-9.99 F20000 M62 P0
G93 G1 X-10.01 F20000 M63 P0
G93 G1 X-9.99 F20000 M62 P0
G93 G1 X-10.01 F20000 M63 P0
G93 G1 X-9.99 F20000 M62 P0
G93 G1 X-10.01 F20000 M63 P0
G93 G1 X-9.99 F20000 M62 P0
G93 G1 X-10.01 F20000 M63 P0
G93 G1 X-9.99 F20000 M62 P0
G93 G1 X-10.01 F20000 M63 P0
G93 G1 X-9.99 F20000 M62 P0
G93 G1 X-10.01 F20000 M63 P0
G93 G1 X-9.99 F20000 M62 P0
G93 G1 X-10.01 F20000 M63 P0
G93 G1 X-9.99 F20000 M62 P0
G93 G1 X-10.01 F20000 M63 P0
G93 G1 X-9.99 F20000 M62 P0
G93 G1 X-10.01 F20000 M63 P0
G93 G1 X-9.99 F20000 M62 P0
G93 G1 X-10.01 F20000 M63 P0
G93 G1 X-9.99 F20000 M62 P0
G93 G1 X-10.01 F20000 M63 P0
G93 G1 X-9.99 F20000 M62 P0
G93 G1 X-10.01 F20000 M63 P0
G93 G1 X-9.99 F20000 M62 P0
G93 G1 X-10.01 F20000 M63 P0
G93 G1 X-9.99 F20000 M62 P0
G93 G1 X-10.01 F20000 M63 P0
G93 G1 X-9.99 F20000 M62 P0
G93 G1 X-10.01 F20000 M63 P0
G93 G1 X-9.99 F20000 M62 P0
G93 G1 X-10.01 F20000 M63 P0
G93 G1 X-9.99 F20000 M62 P0
G93 G1 X-10.01 F20000 M63 P0
G93 G1 X-9.99 F20000 M62 P0
G93 G1 X-10.01 F20000 M63 P0
G93 G1 X-9.99 F20000 M62 P0
G93 G1 X-10.01 F20000 M63 P0
G93 G1 X-9.99 F20000 M62 P0
G93 G1 X-10.01 F20000 M63 P0
G93 G1 X-9.99 F20000 M62 P0
G93 G1 X-10.01 F20000 M63 P0
G93 G1 X-9.99 F20000 M62 P0
G93 G1 X-10.01 F20000 M63 P0
G93 G1 X-9.99 F20000 M62 P0
G93 G1 X-10.01 F20000 M63 P0
G93 G1 X-9.99 F20000 M62 P0
G93 G1 X-10.01 F20000 M63 P0
G93 G1 X-9.99 F20000 M62 P0
G93 G1 X-10.01 F20000 M63 P0
G93 G1 X-9.99 F20000 M62 P0
G93 G1 X-10.01 F20000 M63 P0
G93 G1 X-9.99 F20000 M62 P0
G93 G1 X-10.01 F20000 M63 P0
G93 G1 X-9.99 F20000 M62 P0
G93 G1 X-10.01 F20000 M63 P0
G93 G1 X-9.99 F20000 M62 P0
G93 G1 X-10.01 F20000 M63 P0
G93 G1 X-9.99 F20000 M62 P0
G93 G1 X-10.01 F20000 M63 P0
G93 G1 X-9.99 F20000 M62 P0
G93 G1 X-10.01 F20000 M63 P0
G93 G1 X-9.99 F20000 M62 P0
G93 G1 X-10.01 F20000 M63 P0
G93 G1 X-9.99 F20000 M62 P0
G93 G1 X-10.01 F20000 M63 P0
G93 G1 X-9.99 F20000 M62 P0
G93 G1 X-10.01 F20000 M63 P0
G93 G1 X-9.99 F20000 M62 P0
G93 G1 X-10.01 F20000 M63 P0
G93 G1 X-9.99 F20000 M62 P0
G93 G1 X-10.01 F20000 M63 P0
G93 G1 X-9.99 F20000 M62 P0
G93 G1 X-10.01 F20000 M63 P0
G93 G1 X-9.99 F20000 M62 P0
G93 G1 X-10.01 F20000 M63 P0
G93 G1 X-9.99 F20000 M62 P0
G93 G1 X-10.01 F20000 M63 P0
G93 G1 X-9.99 F20000 M62 P0
G93 G1 X-10.01 F20000 M63 P0
G93 G1 X-9.99 F20000 M62 P0
G93 G1 X-10.01 F20000 M63 P0
G93 G1 X-9.99 F20000 M62 P0
G93 G1 X-10.01 F20000 M63 P0
G93 G1 X-9.99 F20000 M62 P0
G93 G1 X-10.01 F20000 M63 P0
G93 G1 X-9.99 F20000 M62 P0
G93 G1 X-10.01 F20000 M63 P0
G93 G1 X-9.99 F20000 M62 P0
G93 G1 X-10.01 F20000 M63 P0
G93 G1 X-9.99 F20000 M62 P0
G93 G1 X-10.01 F20000 M63 P0
G93 G1 X-9.99 F20000 M62 P0
G93 G1 X-10.01 F20000 M63 P0
G93 G1 X-9.99 F20000 M62 P0
G93 G1 X-10.01 F20000 M63 P0
G93 G1 X-9.99 F20000 M62 P0
G93 G1 X-10.01 F20000 M63 P0
G93 G1 X-9.99 F20000 M62 P0
G93 G1 X-10.01 F20000 M63 P0
G93 G1 X-9.99 F20000 M62 P0
G93 G1 X-10.01 F20000 M63 P0
G93 G1 X-9.99 F20000 M62 P0
G93 G1 X-10.01 F20000 M63 P0
G93 G1 X-9.99 F20000 M62 P0
G93 G1 X-10.01 F20000 M63 P0
G93 G1 X-9.99 F20000 M62 P0
G93 G1 X-10.01 F20000 M63 P0
G93 G1 X-9.99 F20000 M62 P0
G93 G1 X-10.01 F20000 M63 P0
G93 G1 X-9.99 F20000 M62 P0
G93 G1 X-10.01 F20000 M63 P0
G93 G1 X-9.99 F20000 M62 P0
G93 G1 X-10.01 F20000 M63 P0
G93 G1 X-9.99 F20000 M62 P0
G93 G1 X-10.01 F20000 M63 P0
G93 G1 X-9.99 F20000 M62 P0
G93 G1 X-10.01 F20000 M63 P0
G93 G1 X-9.99 F20000 M62 P0
G93 G1 X-10.01 F20000 M63 P0
G93 G1 X-9.99 F20000 M62 P0
G93 G1 X-10.01 F20000 M63 P0
G93 G1 X-9.99 F20000 M62 P0
G93 G1 X-10.01 F20000 M63 P0
G93 G1 X-9.99 F20000 M62 P0
G93 G1 X-10.01 F20000 M63 P0
G93 G1 X-9.99 F20000 M62 P0
G93 G1 X-10.01 F20000 M63 P0
G93 G1 X-9.99 F20000 M62 P0
G93 G1 X-10.01 F20000 M63 P0
G93 G1 X-9.99 F20000 M62 P0
G93 G1 X-10.01 F20000 M63 P0
G93 G1 X-9.99 F20000 M62 P0
G93 G1 X-10.01 F20000 M63 P0
G93 G1 X-9.99 F20000 M62 P0
G93 G1 X-10.01 F20000 M63 P0
G93 G1 X-9.99 F20000 M62 P0
G93 G1 X-10.01 F20000 M63 P0
G93 G1 X-9.99 F20000 M62 P0
G93 G1 X-10.01 F20000 M63 P0
G93 G1 X-9.99 F20000 M62 P0
G93 G1 X-10.01 F20000 M63 P0
G93 G1 X-9.99 F20000 M62 P0
G93 G1 X-10.01 F20000 M63 P0
G93 G1 X-9.99 F20000 M62 P0
G93 G1 X-10.01 F20000 M63 P0
G93 G1 X-9.99 F20000 M62 P0
G93 G1 X-10.01 F20000 M63 P0
G93 G1 X-9.99 F20000 M62 P0
G93 G1 X-10.01 F20000 M63 P0
G93 G1 X-9.99 F20000 M62 P0
G93 G1 X-10.01 F20000 M63 P0
G93 G1 X-9.99 F20000 M62 P0
G93 G1 X-10.01 F20000 M63 P0
G93 G1 X-9.99 F20000 M62 P0
G93 G1 X-10.01 F20000 M63 P0
G93 G1 X-9.99 F20000 M62 P0
G93 G1 X-10.01 F20000 M63 P0
G93 G1 X-9.99 F20000 M62 P0
G93 G1 X-10.01 F20000 M63 P0
G93 G1 X-9.99 F20000 M62 P0
G93 G1 X-10.01 F20000 M63 P0
G93 G1 X-9.99 F20000 M62 P0
G93 G1 X-10.01 F20000 M63 P0
G93 G1 X-9.99 F20000 M62 P0
G93 G1 X-10.01 F20000 M63 P0
G93 G1 X-9.99 F20000 M62 P0
G93 G1 X-10.01 F20000 M63 P0
G93 G1 X-9.99 F20000 M62 P0
G93 G1 X-10.01 F20000 M63 P0
G93 G1 X-9.99 F20000 M62 P0
G93 G1 X-10.01 F20000 M63 P0
G93 G1 X-9.99 F20000 M62 P0
G93 G1 X-10.01 F20000 M63 P0
G93 G1 X-9.99 F20000 M62 P0
G93 G1 X-10.01 F20000 M63 P0
G93 G1 X-9.99 F20000 M62 P0
G93 G1 X-10.01 F20000 M63 P0
G93 G1 X-9.99 F20000 M62 P0
G93 G1 X-10.01 F20000 M63 P0
G93 G1 X-9.99 F20000 M62 P0
G93 G1 X-10.01 F20000 M63 P0
G93 G1 X-9.99 F20000 M62 P0
G93 G1 X-10.01 F20000 M63 P0
G93 G1 X-9.99 F20000 M62 P0
G93 G1 X-10.01 F20000 M63 P0
G93 G1 X-9.99 F20000 M62 P0
G93 G1 X-10.01 F20000 M63 P0
G93 G1 X-9.99 F20000 M62 P0
G93 G1 X-10.01 F20000 M63 P0
G93 G1 X-9.99 F20000 M62 P0
G93 G1 X-10.01 F20000 M63 P0
G93 G1 X-9.99 F20000 M62 P0
G93 G1 X-10.01 F20000 M63 P0
G93 G1 X-9.99 F20000 M62 P0
G93 G1 X-10.01 F20000 M63 P0
G93 G1 X-9.99 F20000 M62 P0
G93 G1 X-10.01 F20000 M63 P0
G93 G1 X-9.99 F20000 M62 P0
G93 G1 X-10.01 F20000 M63 P0
G93 G1 X-9.99 F20000 M62 P0
G93 G1 X-10.01 F20000 M63 P0
G93 G1 X-9.99 F20000 M62 P0
G93 G1 X-10.01 F20000 M63 P0
G93 G1 X-9.99 F20000 M62 P0
G93 G1 X-10.01 F20000 M63 P0
G93 G1 X-9.99 F20000 M62 P0
G93 G1 X-10.01 F20000 M63 P0
G93 G1 X-9.99 F20000 M62 P0
G93 G1 X-10.01 F20000 M63 P0
G93 G1 X-9.99 F20000 M62 P0
G93 G1 X-10.01 F20000 M63 P0
G93 G1 X-9.99 F20000 M62 P0
G93 G1 X-10.01 F20000 M63 P0
G93 G1 X-9.99 F20000 M62 P0
G93 G1 X-10.01 F20000 M63 P0
G93 G1 X-9.99 F20000 M62 P0
G93 G1 X-10.01 F20000 M63 P0
G93 G1 X-9.99 F20000 M62 P0
G93 G1 X-10.01 F20000 M63 P0
G93 G1 X-9.99 F20000 M62 P0
G93 G1 X-10.01 F20000 M63 P0
G93 G1 X-9.99 F20000 M62 P0
G93 G1 X-10.01 F20000 M63 P0
G93 G1 X-9.99 F20000 M62 P0
G93 G1 X-10.01 F20000 M63 P0
G93 G1 X-9.99 F20000 M62 P0
G93 G1 X-10.01 F20000 M63 P0
G93 G1 X-9.99 F20000 M62 P0
G93 G1 X-10.01 F20000 M63 P0
G93 G1 X-9.99 F20000 M62 P0
G93 G1 X-10.01 F20000 M63 P0
G93 G1 X-9.99 F20000 M62 P0
G93 G1 X-10.01 F20000 M63 P0
G93 G1 X-9.99 F20000 M62 P0
G93 G1 X-10.01 F20000 M63 P0
G93 G1 X-9.99 F20000 M62 P0
G93 G1 X-10.01 F20000 M63 P0
G93 G1 X-9.99 F20000 M62 P0
G93 G1 X-10.01 F20000 M63 P0
G93 G1 X-9.99 F20000 M62 P0
G93 G1 X-10.01 F20000 M63 P0
G93 G1 X-9.99 F20000 M62 P0
G93 G1 X-10.01 F20000 M63 P0
G93 G1 X-9.99 F20000 M62 P0
G93 G1 X-10.01 F20000 M63 P0
G93 G1 X-9.99 F20000 M62 P0
G93 G1 X-10.01 F20000 M63 P0
G93 G1 X-9.99 F20000 M62 P0
G93 G1 X-10.01 F20000 M63 P0
G93 G1 X-9.99 F20000 M62 P0
G93 G1 X-10.01 F20000 M63 P0
G93 G1 X-9.99 F20000 M62 P0
G93 G1 X-10.01 F20000 M63 P0
G93 G1 X-9.99 F20000 M62 P0
G93 G1 X-10.01 F20000 M63 P0
G93 G1 X-9.99 F20000 M62 P0
G93 G1 X-10.01 F20000 M63 P0
G93 G1 X-9.99 F20000 M62 P0
G93 G1 X-10.01 F20000 M63 P0
G93 G1 X-9.99 F20000 M62 P0
G93 G1 X-10.01 F20000 M63 P0
G93 G1 X-9.99 F20000 M62 P0
G93 G1 X-10.01 F20000 M63 P0
G93 G1 X-9.99 F20000 M62 P0
G93 G1 X-10.01 F20000 M63 P0
G93 G1 X-9.99 F20000 M62 P0
G93 G1 X-10.01 F20000 M63 P0
G93 G1 X-9.99 F20000 M62 P0
G93 G1 X-10.01 F20000 M63 P0
G93 G1 X-9.99 F20000 M62 P0
G93 G1 X-10.01 F20000 M63 P0
G93 G1 X-9.99 F20000 M62 P0
G93 G1 X-10.01 F20000 M63 P0
G93 G1 X-9.99 F20000 M62 P0
G93 G1 X-10.01 F20000 M63 P0
G93 G1 X-9.99 F20000 M62 P0
G93 G1 X-10.01 F20000 M63 P0
G93 G1 X-9.99 F20000 M62 P0
G93 G1 X-10.01 F20000 M63 P0
G93 G1 X-9.99 F20000 M62 P0
G93 G1 X-10.01 F20000 M63 P0
G93 G1 X-9.99 F20000 M62 P0
G93 G1 X-10.01 F20000 M63 P0
G93 G1 X-9.99 F20000 M62 P0
G93 G1 X-10.01 F20000 M63 P0
G93 G1 X-9.99 F20000 M62 P0
G93 G1 X-10.01 F20000 M63 P0
G93 G1 X-9.99 F20000 M62 P0
G93 G1 X-10.01 F20000 M63 P0
G93 G1 X-9.99 F20000 M62 P0
G93 G1 X-10.01 F20000 M63 P0
G93 G1 X-9.99 F20000 M62 P0
G93 G1 X-10.01 F20000 M63 P0
G93 G1 X-9.99 F20000 M62 P0
G93 G1 X-10.01 F20000 M63 P0
G93 G1 X-9.99 F20000 M62 P0
G93 G1 X-10.01 F20000 M63 P0
G93 G1 X-9.99 F20000 M62 P0
G93 G1 X-10.01 F20000 M63 P0
G93 G1 X-9.99 F20000 M62 P0
G93 G1 X-10.01 F20000 M63 P0
G93 G1 X-9.99 F20000 M62 P0
G93 G1 X-10.01 F20000 M63 P0
G93 G1 X-9.99 F20000 M62 P0
G93 G1 X-10.01 F20000 M63 P0
G93 G1 X-9.99 F20000 M62 P0
G93 G1 X-10.01 F20000 M63 P0
G93 G1 X-9.99 F20000 M62 P0
G93 G1 X-10.01 F20000 M63 P0
G93 G1 X-9.99 F20000 M62 P0
G93 G1 X-10.01 F20000 M63 P0
G93 G1 X-9.99 F20000 M62 P0
G93 G1 X-10.01 F20000 M63 P0
G93 G1 X-9.99 F20000 M62 P0
G93 G1 X-10.01 F20000 M63 P0
G93 G1 X-9.99 F20000 M62 P0
G93 G1 X-10.01 F20000 M63 P0
G93 G1 X-9.99 F20000 M62 P0
G93 G1 X-10.01 F20000 M63 P0
G93 G1 X-9.99 F20000 M62 P0
G93 G1 X-10.01 F20000 M63 P0
G93 G1 X-9.99 F20000 M62 P0
G93 G1 X-10.01 F20000 M63 P0
G93 G1 X-9.99 F20000 M62 P0
G93 G1 X-10.01 F20000 M63 P0
G93 G1 X-9.99 F20000 M62 P0
G93 G1 X-10.01 F20000 M63 P0
G93 G1 X-9.99 F20000 M62 P0
G93 G1 X-10.01 F20000 M63 P0
G93 G1 X-9.99 F20000 M62 P0
G93 G1 X-10.01 F20000 M63 P0
G93 G1 X-9.99 F20000 M62 P0
G93 G1 X-10.01 F20000 M63 P0
G93 G1 X-9.99 F20000 M62 P0
G93 G1 X-10.01 F20000 M63 P0
G93 G1 X-9.99 F20000 M62 P0
G93 G1 X-10.01 F20000 M63 P0
G93 G1 X-9.99 F20000 M62 P0
G93 G1 X-10.01 F20000 M63 P0
G93 G1 X-9.99 F20000 M62 P0
G93 G1 X-10.01 F20000 M63 P0
G93 G1 X-9.99 F20000 M62 P0
G93 G1 X-10.01 F20000 M63 P0
G93 G1 X-9.99 F20000 M62 P0
G93 G1 X-10.01 F20000 M63 P0
G93 G1 X-9.99 F20000 M62 P0
G93 G1 X-10.01 F20000 M63 P0
G93 G1 X-9.99 F20000 M62 P0
G93 G1 X-10.01 F20000 M63 P0
G93 G1 X-9.99 F20000 M62 P0
G93 G1 X-10.01 F20000 M63 P0
G93 G1 X-9.99 F20000 M62 P0
G93 G1 X-10.01 F20000 M63 P0
G93 G1 X-9.99 F20000 M62 P0
G93 G1 X-10.01 F20000 M63 P0
G93 G1 X-9.99 F20000 M62 P0
G93 G1 X-10.01 F20000 M63 P0
G93 G1 X-9.99 F20000 M62 P0
G93 G1 X-10.01 F20000 M63 P0
G93 G1 X-9.99 F20000 M62 P0
G93 G1 X-10.01 F20000 M63 P0
G93 G1 X-9.99 F20000 M62 P0
G93 G1 X-10.01 F20000 M63 P0
G93 G1 X-9.99 F20000 M62 P0
G93 G1 X-10.01 F20000 M63 P0
G93 G1 X-9.99 F20000 M62 P0
G93 G1 X-10.01 F20000 M63 P0
G93 G1 X-9.99 F20000 M62 P0
G93 G1 X-10.01 F20000 M63 P0
G93 G1 X-9.99 F20000 M62 P0
G93 G1 X-10.01 F20000 M63 P0
G93 G1 X-9.99 F20000 M62 P0
G93 G1 X-10.01 F20000 M63 P0
G93 G1 X-9.99 F20000 M62 P0
G93 G1 X-10.01 F20000 M63 P0
G93 G1 X-9.99 F20000 M62 P0
G93 G1 X-10.01 F20000 M63 P0
G93 G1 X-9.99 F20000 M62 P0
G93 G1 X-10.01 F20000 M63 P0
G93 G1 X-9.99 F20000 M62 P0
G93 G1 X-10.01 F20000 M63 P0
G93 G1 X-9.99 F20000 M62 P0
G93 G1 X-10.01 F20000 M63 P0
G93 G1 X-9.99 F20000 M62 P0
G93 G1 X-10.01 F20000 M63 P0
G93 G1 X-9.99 F20000 M62 P0
G93 G1 X-10.01 F20000 M63 P0
G93 G1 X-9.99 F20000 M62 P0
G93 G1 X-10.01 F20000 M63 P0
G93 G1 X-9.99 F20000 M62 P0
G93 G1 X-10.01 F20000 M63 P0
G93 G1 X-9.99 F20000 M62 P0
G93 G1 X-10.01 F20000 M63 P0
G93 G1 X-9.99 F20000 M62 P0
G93 G1 X-10.01 F20000 M63 P0
G93 G1 X-9.99 F20000 M62 P0
G93 G1 X-10.01 F20000 M63 P0
G93 G1 X-9.99 F20000 M62 P0
G93 G1 X-10.01 F20000 M63 P0
G93 G1 X-9.99 F20000 M62 P0
G93 G1 X-10.01 F20000 M63 P0
G93 G1 X-9.99 F20000 M62 P0
G93 G1 X-10.01 F20000 M63 P0
G93 G1 X-9.99 F20000 M62 P0
G93 G1 X-10.01 F20000 M63 P0
G93 G1 X-9.99 F20000 M62 P0
G93 G1 X-10.01 F20000 M63 P0
G93 G1 X-9.99 F20000 M62 P0
G93 G1 X-10.01 F20000 M63 P0
G93 G1 X-9.99 F20000 M62 P0
G93 G1 X-10.01 F20000 M63 P0
G93 G1 X-9.99 F20000 M62 P0
G93 G1 X-10.01 F20000 M63 P0
G93 G1 X-9.99 F20000 M62 P0
G93 G1 X-10.01 F20000 M63 P0
G93 G1 X-9.99 F20000 M62 P0
G93 G1 X-10.01 F20000 M63 P0
G93 G1 X-9.99 F20000 M62 P0
G93 G1 X-10.01 F20000 M63 P0
G93 G1 X-9.99 F20000 M62 P0
G93 G1 X-10.01 F20000 M63 P0
G93 G1 X-9.99 F20000 M62 P0
G93 G1 X-10.01 F20000 M63 P0
G93 G1 X-9.99 F20000 M62 P0
G93 G1 X-10.01 F20000 M63 P0
G93 G1 X-9.99 F20000 M62 P0
G93 G1 X-10.01 F20000 M63 P0
G93 G1 X-9.99 F20000 M62 P0
G93 G1 X-10.01 F20000 M63 P0
G93 G1 X-9.99 F20000 M62 P0
G93 G1 X-10.01 F20000 M63 P0
G93 G1 X-9.99 F20000 M62 P0
G93 G1 X-10.01 F20000 M63 P0
G93 G1 X-9.99 F20000 M62 P0
G93 G1 X-10.01 F20000 M63 P0
G93 G1 X-9.99 F20000 M62 P0
G93 G1 X-10.01 F20000 M63 P0
G93 G1 X-9.99 F20000 M62 P0
G93 G1 X-10.01 F20000 M63 P0
G93 G1 X-9.99 F20000 M62 P0
G93 G1 X-10.01 F20000 M63 P0
G93 G1 X-9.99 F20000 M62 P0
G93 G1 X-10.01 F20000 M63 P0
G93 G1 X-9.99 F20000 M62 P0
G93 G1 X-10.01 F20000 M63 P0
G93 G1 X-9.99 F20000 M62 P0
G93 G1 X-10.01 F20000 M63 P0
G93 G1 X-9.99 F20000 M62 P0
G93 G1 X-10.01 F20000 M63 P0
G93 G1 X-9.99 F20000 M62 P0
G93 G1 X-10.01 F20000 M63 P0
G93 G1 X-9.99 F20000 M62 P0
G93 G1 X-10.01 F20000 M63 P0
G93 G1 X-9.99 F20000 M62 P0
G93 G1 X-10.01 F20000 M63 P0
G93 G1 X-9.99 F20000 M62 P0
G93 G1 X-10.01 F20000 M63 P0
G93 G1 X-9.99 F20000 M62 P0
G93 G1 X-10.01 F20000 M63 P0
G93 G1 X-9.99 F20000 M62 P0
G93 G1 X-10.01 F20000 M63 P0
G93 G1 X-9.99 F20000 M62 P0
G93 G1 X-10.01 F20000 M63 P0
G93 G1 X-9.99 F20000 M62 P0
G93 G1 X-10.01 F20000 M63 P0
G93 G1 X-9.99 F20000 M62 P0
G93 G1 X-10.01 F20000 M63 P0
G93 G1 X-9.99 F20000 M62 P0
G93 G1 X-10.01 F20000 M63 P0
G93 G1 X-9.99 F20000 M62 P0
G93 G1 X-10.01 F20000 M63 P0
G93 G1 X-9.99 F20000 M62 P0
G93 G1 X-10.01 F20000 M63 P0
G93 G1 X-9.99 F20000 M62 P0
G93 G1 X-10.01 F20000 M63 P0
G93 G1 X-9.99 F20000 M62 P0
G93 G1 X-10.01 F20000 M63 P0
G93 G1 X-9.99 F20000 M62 P0
G93 G1 X-10.01 F20000 M63 P0
G93 G1 X-9.99 F20000 M62 P0
G93 G1 X-10.01 F20000 M63 P0
G93 G1 X-9.99 F20000 M62 P0
G93 G1 X-10.01 F20000 M63 P0
G93 G1 X-9.99 F20000 M62 P0
G93 G1 X-10.01 F20000 M63 P0
G93 G1 X-9.99 F20000 M62 P0
G93 G1 X-10.01 F20000 M63 P0
G93 G1 X-9.99 F20000 M62 P0
G93 G1 X-10.01 F20000 M63 P0
G93 G1 X-9.99 F20000 M62 P0
G93 G1 X-10.01 F20000 M63 P0
G93 G1 X-9.99 F20000 M62 P0
G93 G1 X-10.01 F20000 M63 P0
G93 G1 X-9.99 F20000 M62 P0
G93 G1 X-10.01 F20000 M63 P0
G93 G1 X-9.99 F20000 M62 P0
G93 G1 X-10.01 F20000 M63 P0
G93 G1 X-9.99 F20000 M62 P0
G93 G1 X-10.01 F20000 M63 P0
G93 G1 X-9.99 F20000 M62 P0
G93 G1 X-10.01 F20000 M63 P0
G93 G1 X-9.99 F20000 M62 P0
G93 G1 X-10.01 F20000 M63 P0
G93 G1 X-9.99 F20000 M62 P0
G93 G1 X-10.01 F20000 M63 P0
G93 G1 X-9.99 F20000 M62 P0
G93 G1 X-10.01 F20000 M63 P0
G93 G1 X-9.99 F20000 M62 P0
G93 G1 X-10.01 F20000 M63 P0
G93 G1 X-9.99 F20000 M62 P0
G93 G1 X-10.01 F20000 M63 P0
G93 G1 X-9.99 F20000 M62 P0
G93 G1 X-10.01 F20000 M63 P0
G93 G1 X-9.99 F20000 M62 P0
G93 G1 X-10.01 F20000 M63 P0
G93 G1 X-9.99 F20000 M62 P0
G93 G1 X-10.01 F20000 M63 P0
G93 G1 X-9.99 F20000 M62 P0
G93 G1 X-10.01 F20000 M63 P0
G93 G1 X-9.99 F20000 M62 P0
G93 G1 X-10.01 F20000 M63 P0
G93 G1 X-9.99 F20000 M62 P0
G93 G1 X-10.01 F20000 M63 P0
G93 G1 X-9.99 F20000 M62 P0
G93 G1 X-10.01 F20000 M63 P0
G93 G1 X-9.99 F20000 M62 P0
G93 G1 X-10.01 F20000 M63 P0
G93 G1 X-9.99 F20000 M62 P0
G93 G1 X-10.01 F20000 M63 P0
G93 G1 X-9.99 F20000 M62 P0
G93 G1 X-10.01 F20000 M63 P0
G93 G1 X-9.99 F20000 M62 P0
G93 G1 X-10.01 F20000 M63 P0
G93 G1 X-9.99 F20000 M62 P0
G93 G1 X-10.01 F20000 M63 P0
G93 G1 X-9.99 F20000 M62 P0
G93 G1 X-10.01 F20000 M63 P0
G93 G1 X-9.99 F20000 M62 P0
G93 G1 X-10.01 F20000 M63 P0
G93 G1 X-9.99 F20000 M62 P0
G93 G1 X-10.01 F20000 M63 P0
G93 G1 X-9.99 F20000 M62 P0
G93 G1 X-10.01 F20000 M63 P0
G93 G1 X-9.99 F20000 M62 P0
G93 G1 X-10.01 F20000 M63 P0
G93 G1 X-9.99 F20000 M62 P0
G93 G1 X-10.01 F20000 M63 P0
G93 G1 X-9.99 F20000 M62 P0
G93 G1 X-10.01 F20000 M63 P0
G93 G1 X-9.99 F20000 M62 P0
G93 G1 X-10.01 F20000 M63 P0
G93 G1 X-9.99 F20000 M62 P0
G93 G1 X-10.01 F20000 M63 P0
G93 G1 X-9.99 F20000 M62 P0
G93 G1 X-10.01 F20000 M63 P0
G93 G1 X-9.99 F20000 M62 P0
G93 G1 X-10.01 F20000 M63 P0
G93 G1 X-9.99 F20000 M62 P0
G93 G1 X-10.01 F20000 M63 P0
G93 G1 X-9.99 F20000 M62 P0
G93 G1 X-10.01 F20000 M63 P0
G93 G1 X-9.99 F20000 M62 P0
G93 G1 X-10.01 F20000 M63 P0
G93 G1 X-9.99 F20000 M62 P0
G93 G1 X-10.01 F20000 M63 P0
G93 G1 X-9.99 F20000 M62 P0
G93 G1 X-10.01 F20000 M63 P0
G93 G1 X-9.99 F20000 M62 P0
G93 G1 X-10.01 F20000 M63 P0
G93 G1 X-9.99 F20000 M62 P0
G93 G1 X-10.01 F20000 M63 P0
G93 G1 X-9.99 F20000 M62 P0
G93 G1 X-10.01 F20000 M63 P0
G93 G1 X-9.99 F20000 M62 P0
G93 G1 X-10.01 F20000 M63 P0
G93 G1 X-9.99 F20000 M62 P0
G93 G1 X-10.01 F20000 M63 P0
G93 G1 X-9.99 F20000 M62 P0
G93 G1 X-10.01 F20000 M63 P0
G93 G1 X-9.99 F20000 M62 P0
G93 G1 X-10.01 F20000 M63 P0
G93 G1 X-9.99 F20000 M62 P0
G93 G1 X-10.01 F20000 M63 P0
G93 G1 X-9.99 F20000 M62 P0
G93 G1 X-10.01 F20000 M63 P0
G93 G1 X-9.99 F20000 M62 P0
G93 G1 X-10.01 F20000 M63 P0
G93 G1 X-9.99 F20000 M62 P0
G93 G1 X-10.01 F20000 M63 P0
G93 G1 X-9.99 F20000 M62 P0
G93 G1 X-10.01 F20000 M63 P0
G93 G1 X-9.99 F20000 M62 P0
G93 G1 X-10.01 F20000 M63 P0
G93 G1 X-9.99 F20000 M62 P0
G93 G1 X-10.01 F20000 M63 P0
G93 G1 X-9.99 F20000 M62 P0
G93 G1 X-10.01 F20000 M63 P0
G93 G1 X-9.99 F20000 M62 P0
G93 G1 X-10.01 F20000 M63 P0
G93 G1 X-9.99 F20000 M62 P0
G93 G1 X-10.01 F20000 M63 P0
G93 G1 X-9.99 F20000 M62 P0
G93 G1 X-10.01 F20000 M63 P0
G93 G1 X-9.99 F20000 M62 P0
G93 G1 X-10.01 F20000 M63 P0
G93 G1 X-9.99 F20000 M62 P0
G93 G1 X-10.01 F20000 M63 P0
G93 G1 X-9.99 F20000 M62 P0
G93 G1 X-10.01 F20000 M63 P0
G93 G1 X-9.99 F20000 M62 P0
G93 G1 X-10.01 F20000 M63 P0
G93 G1 X-9.99 F20000 M62 P0
G93 G1 X-10.01 F20000 M63 P0
G93 G1 X-9.99 F20000 M62 P0
G93 G1 X-10.01 F20000 M63 P0
G93 G1 X-9.99 F20000 M62 P0
G93 G1 X-10.01 F20000 M63 P0
G93 G1 X-9.99 F20000 M62 P0
G93 G1 X-10.01 F20000 M63 P0
G93 G1 X-9.99 F20000 M62 P0
G93 G1 X-10.01 F20000 M63 P0
G93 G1 X-9.99 F20000 M62 P0
G93 G1 X-10.01 F20000 M63 P0
G93 G1 X-9.99 F20000 M62 P0
G93 G1 X-10.01 F20000 M63 P0
G93 G1 X-9.99 F20000 M62 P0
G93 G1 X-10.01 F20000 M63 P0
G93 G1 X-9.99 F20000 M62 P0
G93 G1 X-10.01 F20000 M63 P0
G93 G1 X-9.99 F20000 M62 P0
G93 G1 X-10.01 F20000 M63 P0
G93 G1 X-9.99 F20000 M62 P0
G93 G1 X-10.01 F20000 M63 P0
G93 G1 X-9.99 F20000 M62 P0
G93 G1 X-10.01 F20000 M63 P0
G93 G1 X-9.99 F20000 M62 P0
G93 G1 X-10.01 F20000 M63 P0
G93 G1 X-9.99 F20000 M62 P0
G93 G1 X-10.01 F20000 M63 P0
G93 G1 X-9.99 F20000 M62 P0
G93 G1 X-10.01 F20000 M63 P0
G93 G1 X-9.99 F20000 M62 P0
G93 G1 X-10.01 F20000 M63 P0
G93 G1 X-9.99 F20000 M62 P0
G93 G1 X-10.01 F20000 M63 P0
G93 G1 X-9.99 F20000 M62 P0
G93 G1 X-10.01 F20000 M63 P0
G93 G1 X-9.99 F20000 M62 P0
G93 G1 X-10.01 F20000 M63 P0
G93 G1 X-9.99 F20000 M62 P0
G93 G1 X-10.01 F20000 M63 P0
G93 G1 X-9.99 F20000 M62 P0
G93 G1 X-10.01 F20000 M63 P0
G93 G1 X-9.99 F20000 M62 P0
G93 G1 X-10.01 F20000 M63 P0
G93 G1 X-9.99 F20000 M62 P0
G93 G1 X-10.01 F20000 M63 P0
G93 G1 X-9.99 F20000 M62 P0
G93 G1 X-10.01 F20000 M63 P0
G93 G1 X-9.99 F20000 M62 P0
G93 G1 X-10.01 F20000 M63 P0
G93 G1 X-9.99 F20000 M62 P0
G93 G1 X-10.01 F20000 M63 P0
G93 G1 X-9.99 F20000 M62 P0
G93 G1 X-10.01 F20000 M63 P0
G93 G1 X-9.99 F20000 M62 P0
G93 G1 X-10.01 F20000 M63 P0
G93 G1 X-9.99 F20000 M62 P0
G93 G1 X-10.01 F20000 M63 P0
G93 G1 X-9.99 F20000 M62 P0
G93 G1 X-10.01 F20000 M63 P0
G93 G1 X-9.99 F20000 M62 P0
G93 G1 X-10.01 F20000 M63 P0
G93 G1 X-9.99 F20000 M62 P0
G93 G1 X-10.01 F20000 M63 P0
G93 G1 X-9.99 F20000 M62 P0
G93 G1 X-10.01 F20000 M63 P0
G93 G1 X-9.99 F20000 M62 P0
G93 G1 X-10.01 F20000 M63 P0
G93 G1 X-9.99 F20000 M62 P0
G93 G1 X-10.01 F20000 M63 P0
G93 G1 X-9.99 F20000 M62 P0
G93 G1 X-10.01 F20000 M63 P0
G93 G1 X-9.99 F20000 M62 P0
G93 G1 X-10.01 F20000 M63 P0
G93 G1 X-9.99 F20000 M62 P0
G93 G1 X-10.01 F20000 M63 P0
G93 G1 X-9.99 F20000 M62 P0
G93 G1 X-10.01 F20000 M63 P0
G93 G1 X-9.99 F20000 M62 P0
G93 G1 X-10.01 F20000 M63 P0
G93 G1 X-9.99 F20000 M62 P0
G93 G1 X-10.01 F20000 M63 P0
G93 G1 X-9.99 F20000 M62 P0
G93 G1 X-10.01 F20000 M63 P0
G93 G1 X-9.99 F20000 M62 P0
G93 G1 X-10.01 F20000 M63 P0
G93 G1 X-9.99 F20000 M62 P0
G93 G1 X-10.01 F20000 M63 P0
G93 G1 X-9.99 F20000 M62 P0
G93 G1 X-10.01 F20000 M63 P0
G93 G1 X-9.99 F20000 M62 P0
G93 G1 X-10.01 F20000 M63 P0
G93 G1 X-9.99 F20000 M62 P0
G93 G1 X-10.01 F20000 M63 P0
G93 G1 X-9.99 F20000 M62 P0
G93 G1 X-10.01 F20000 M63 P0
G93 G1 X-9.99 F20000 M62 P0
G93 G1 X-10.01 F20000 M63 P0
G93 G1 X-9.99 F20000 M62 P0
G93 G1 X-10.01 F20000 M63 P0
G93 G1 X-9.99 F20000 M62 P0
G93 G1 X-10.01 F20000 M63 P0
G93 G1 X-9.99 F20000 M62 P0
G93 G1 X-10.01 F20000 M63 P0
G93 G1 X-9.99 F20000 M62 P0
G93 G1 X-10.01 F20000 M63 P0
G93 G1 X-9.99 F20000 M62 P0
G93 G1 X-10.01 F20000 M63 P0
G93 G1 X-9.99 F20000 M62 P0
G93 G1 X-10.01 F20000 M63 P0
G93 G1 X-9.99 F20000 M62 P0
G93 G1 X-10.01 F20000 M63 P0
G93 G1 X-9.99 F20000 M62 P0
G93 G1 X-10.01 F20000 M63 P0
G93 G1 X-9.99 F20000 M62 P0
G93 G1 X-10.01 F20000 M63 P0
G93 G1 X-9.99 F20000 M62 P0
G93 G1 X-10.01 F20000 M63 P0
G93 G1 X-9.99 F20000 M62 P0
G93 G1 X-10.01 F20000 M63 P0
G93 G1 X-9.99 F20000 M62 P0
G93 G1 X-10.01 F20000 M63 P0
G93 G1 X-9.99 F20000 M62 P0
G93 G1 X-10.01 F20000 M63 P0
G93 G1 X-9.99 F20000 M62 P0
G93 G1 X-10.01 F20000 M63 P0
G93 G1 X-9.99 F20000 M62 P0
G93 G1 X-10.01 F20000 M63 P0
G93 G1 X-9.99 F20000 M62 P0
G93 G1 X-10.01 F20000 M63 P0
G93 G1 X-9.99 F20000 M62 P0
G93 G1 X-10.01 F20000 M63 P0
G93 G1 X-9.99 F20000 M62 P0
G93 G1 X-10.01 F20000 M63 P0
G93 G1 X-9.99 F20000 M62 P0
G93 G1 X-10.01 F20000 M63 P0
G93 G1 X-9.99 F20000 M62 P0
G93 G1 X-10.01 F20000 M63 P0
G93 G1 X-9.99 F20000 M62 P0
G93 G1 X-10.01 F20000 M63 P0
G93 G1 X-9.99 F20000 M62 P0
G93 G1 X-10.01 F20000 M63 P0
G93 G1 X-9.99 F20000 M62 P0
G93 G1 X-10.01 F20000 M63 P0
G93 G1 X-9.99 F20000 M62 P0
G93 G1 X-10.01 F20000 M63 P0
G93 G1 X-9.99 F20000 M62 P0
G93 G1 X-10.01 F20000 M63 P0
G93 G1 X-9.99 F20000 M62 P0
G93 G1 X-10.01 F20000 M63 P0
G93 G1 X-9.99 F20000 M62 P0
G93 G1 X-10.01 F20000 M63 P0
G93 G1 X-9.99 F20000 M62 P0
G93 G1 X-10.01 F20000 M63 P0
G93 G1 X-9.99 F20000 M62 P0
G93 G1 X-10.01 F20000 M63 P0
G93 G1 X-9.99 F20000 M62 P0
G93 G1 X-10.01 F20000 M63 P0
G93 G1 X-9.99 F20000 M62 P0
G93 G1 X-10.01 F20000 M63 P0
G93 G1 X-9.99 F20000 M62 P0
G93 G1 X-10.01 F20000 M63 P0
G93 G1 X-9.99 F20000 M62 P0
G93 G1 X-10.01 F20000 M63 P0
G93 G1 X-9.99 F20000 M62 P0
G93 G1 X-10.01 F20000 M63 P0
G93 G1 X-9.99 F20000 M62 P0
G93 G1 X-10.01 F20000 M63 P0
G93 G1 X-9.99 F20000 M62 P0
G93 G1 X-10.01 F20000 M63 P0
G93 G1 X-9.99 F20000 M62 P0
G93 G1 X-10.01 F20000 M63 P0
G93 G1 X-9.99 F20000 M62 P0
G93 G1 X-10.01 F20000 M63 P0
G93 G1 X-9.99 F20000 M62 P0
G93 G1 X-10.01 F20000 M63 P0
G93 G1 X-9.99 F20000 M62 P0
G93 G1 X-10.01 F20000 M63 P0
G93 G1 X-9.99 F20000 M62 P0
G93 G1 X-10.01 F20000 M63 P0
G93 G1 X-9.99 F20000 M62 P0
G93 G1 X-10.01 F20000 M63 P0
G93 G1 X-9.99 F20000 M62 P0
G93 G1 X-10.01 F20000 M63 P0
G93 G1 X-9.99 F20000 M62 P0
G93 G1 X-10.01 F20000 M63 P0
G93 G1 X-9.99 F20000 M62 P0
G93 G1 X-10.01 F20000 M63 P0
G93 G1 X-9.99 F20000 M62 P0
G93 G1 X-10.01 F20000 M63 P0
G93 G1 X-9.99 F20000 M62 P0
G93 G1 X-10.01 F20000 M63 P0
G93 G1 X-9.99 F20000 M62 P0
G93 G1 X-10.01 F20000 M63 P0
G93 G1 X-9.99 F20000 M62 P0
G93 G1 X-10.01 F20000 M63 P0
G93 G1 X-9.99 F20000 M62 P0
G93 G1 X-10.01 F20000 M63 P0
G93 G1 X-9.99 F20000 M62 P0
G93 G1 X-10.01 F20000 M63 P0
G93 G1 X-9.99 F20000 M62 P0
G93 G1 X-10.01 F20000 M63 P0
G93 G1 X-9.99 F20000 M62 P0
G93 G1 X-10.01 F20000 M63 P0
G93 G1 X-9.99 F20000 M62 P0
G93 G1 X-10.01 F20000 M63 P0
G93 G1 X-9.99 F20000 M62 P0
G93 G1 X-10.01 F20000 M63 P0
G93 G1 X-9.99 F20000 M62 P0
G93 G1 X-10.01 F20000 M63 P0
G93 G1 X-9.99 F20000 M62 P0
G93 G1 X-10.01 F20000 M63 P0
G93 G1 X-9.99 F20000 M62 P0
G93 G1 X-10.01 F20000 M63 P0
G93 G1 X-9.99 F20000 M62 P0
G93 G1 X-10.01 F20000 M63 P0
G93 G1 X-9.99 F20000 M62 P0
G93 G1 X-10.01 F20000 M63 P0
G93 G1 X-9.99 F20000 M62 P0
G93 G1 X-10.01 F20000 M63 P0
G93 G1 X-9.99 F20000 M62 P0
G93 G1 X-10.01 F20000 M63 P0
G93 G1 X-9.99 F20000 M62 P0
G93 G1 X-10.01 F20000 M63 P0
G93 G1 X-9.99 F20000 M62 P0
G93 G1 X-10.01 F20000 M63 P0
G93 G1 X-9.99 F20000 M62 P0
G93 G1 X-10.01 F20000 M63 P0
G93 G1 X-9.99 F20000 M62 P0
G93 G1 X-10.01 F20000 M63 P0
G93 G1 X-9.99 F20000 M62 P0
G93 G1 X-10.01 F20000 M63 P0
G93 G1 X-9.99 F20000 M62 P0
G93 G1 X-10.01 F20000 M63 P0
G93 G1 X-9.99 F20000 M62 P0
G93 G1 X-10.01 F20000 M63 P0
G93 G1 X-9.99 F20000 M62 P0
G93 G1 X-10.01 F20000 M63 P0
G93 G1 X-9.99 F20000 M62 P0
G93 G1 X-10.01 F20000 M63 P0
G93 G1 X-9.99 F20000 M62 P0
G93 G1 X-10.01 F20000 M63 P0
G93 G1 X-9.99 F20000 M62 P0
G93 G1 X-10.01 F20000 M63 P0
G93 G1 X-9.99 F20000 M62 P0
G93 G1 X-10.01 F20000 M63 P0
G93 G1 X-9.99 F20000 M62 P0
G93 G1 X-10.01 F20000 M63 P0
G93 G1 X-9.99 F20000 M62 P0
G93 G1 X-10.01 F20000 M63 P0
G93 G1 X-9.99 F20000 M62 P0
G93 G1 X-10.01 F20000 M63 P0
G93 G1 X-9.99 F20000 M62 P0
G93 G1 X-10.01 F20000 M63 P0
G93 G1 X-9.99 F20000 M62 P0
G93 G1 X-10.01 F20000 M63 P0
G93 G1 X-9.99 F20000 M62 P0
G93 G1 X-10.01 F20000 M63 P0
G93 G1 X-9.99 F20000 M62 P0
G93 G1 X-10.01 F20000 M63 P0
G93 G1 X-9.99 F20000 M62 P0
G93 G1 X-10.01 F20000 M63 P0
G93 G1 X-9.99 F20000 M62 P0
G93 G1 X-10.01 F20000 M63 P0
G93 G1 X-9.99 F20000 M62 P0
G93 G1 X-10.01 F20000 M63 P0
G93 G1 X-9.99 F20000 M62 P0
G93 G1 X-10.01 F20000 M63 P0
G93 G1 X-9.99 F20000 M62 P0
G93 G1 X-10.01 F20000 M63 P0
G93 G1 X-9.99 F20000 M62 P0
G93 G1 X-10.01 F20000 M63 P0
G93 G1 X-9.99 F20000 M62 P0
G93 G1 X-10.01 F20000 M63 P0
G93 G1 X-9.99 F20000 M62 P0
G93 G1 X-10.01 F20000 M63 P0
G93 G1 X-9.99 F20000 M62 P0
G93 G1 X-10.01 F20000 M63 P0
G93 G1 X-9.99 F20000 M62 P0
G93 G1 X-10.01 F20000 M63 P0
G93 G1 X-9.99 F20000 M62 P0
G93 G1 X-10.01 F20000 M63 P0
G93 G1 X-9.99 F20000 M62 P0
G93 G1 X-10.01 F20000 M63 P0
G93 G1 X-9.99 F20000 M62 P0
G93 G1 X-10.01 F20000 M63 P0
G93 G1 X-9.99 F20000 M62 P0
G93 G1 X-10.01 F20000 M63 P0
G93 G1 X-9.99 F20000 M62 P0
G93 G1 X-10.01 F20000 M63 P0
G93 G1 X-9.99 F20000 M62 P0
G93 G1 X-10.01 F20000 M63 P0
G93 G1 X-9.99 F20000 M62 P0
G93 G1 X-10.01 F20000 M63 P0
G93 G1 X-9.99 F20000 M62 P0
G93 G1 X-10.01 F20000 M63 P0
G0 X-20.0 Y350.0 C180.0
%