%
(2025-17-14, 10:17:39, Florian Amoser)
(This is machine specific gcode for SPLICER)
(250214_testing0_0-1500.ngc)
(linenumbers: 1500)
(color: a)
(exposure time: 1500μs)
G90 G17
G21
G01 F5000
M110
G0 X-26.48 Z80.0 A0.0 B0.0 C0.0 U0.0
M100
G93 G1 X-25 F20000 M63 P0
G93 G1 X-24.445 F20000 M62 P0
G93 G1 X-24.413 F20000 M63 P0
G93 G1 X-24.38 F20000 M62 P0
G93 G1 X-24.347 F20000 M63 P0
G93 G1 X-24.315 F20000 M62 P0
G93 G1 X-24.282 F20000 M63 P0
G93 G1 X-24.249 F20000 M62 P0
G93 G1 X-24.217 F20000 M63 P0
G93 G1 X-24.184 F20000 M62 P0
G93 G1 X-24.151 F20000 M63 P0
G93 G1 X-24.119 F20000 M62 P0
G93 G1 X-24.086 F20000 M63 P0
G93 G1 X-24.054 F20000 M62 P0
G93 G1 X-24.021 F20000 M63 P0
G93 G1 X-23.988 F20000 M62 P0
G93 G1 X-23.956 F20000 M63 P0
G93 G1 X-23.923 F20000 M62 P0
G93 G1 X-23.89 F20000 M63 P0
G93 G1 X-23.858 F20000 M62 P0
G93 G1 X-23.825 F20000 M63 P0
G93 G1 X-23.792 F20000 M62 P0
G93 G1 X-23.76 F20000 M63 P0
G93 G1 X-23.727 F20000 M62 P0
G93 G1 X-23.695 F20000 M63 P0
G93 G1 X-23.662 F20000 M62 P0
G93 G1 X-23.629 F20000 M63 P0
G93 G1 X-23.597 F20000 M62 P0
G93 G1 X-23.564 F20000 M63 P0
G93 G1 X-23.531 F20000 M62 P0
G93 G1 X-23.499 F20000 M63 P0
G93 G1 X-23.466 F20000 M62 P0
G93 G1 X-23.433 F20000 M63 P0
G93 G1 X-23.401 F20000 M62 P0
G93 G1 X-23.368 F20000 M63 P0
G93 G1 X-23.336 F20000 M62 P0
G93 G1 X-23.303 F20000 M63 P0
G93 G1 X-23.27 F20000 M62 P0
G93 G1 X-23.238 F20000 M63 P0
G93 G1 X-23.205 F20000 M62 P0
G93 G1 X-23.172 F20000 M63 P0
G93 G1 X-23.14 F20000 M62 P0
G93 G1 X-23.107 F20000 M63 P0
G93 G1 X-23.074 F20000 M62 P0
G93 G1 X-23.042 F20000 M63 P0
G93 G1 X-23.009 F20000 M62 P0
G93 G1 X-22.977 F20000 M63 P0
G93 G1 X-22.944 F20000 M62 P0
G93 G1 X-22.911 F20000 M63 P0
G93 G1 X-22.879 F20000 M62 P0
G93 G1 X-22.846 F20000 M63 P0
G93 G1 X-22.813 F20000 M62 P0
G93 G1 X-22.781 F20000 M63 P0
G93 G1 X-22.748 F20000 M62 P0
G93 G1 X-22.715 F20000 M63 P0
G93 G1 X-22.683 F20000 M62 P0
G93 G1 X-22.65 F20000 M63 P0
G93 G1 X-22.617 F20000 M62 P0
G93 G1 X-22.585 F20000 M63 P0
G93 G1 X-22.552 F20000 M62 P0
G93 G1 X-22.52 F20000 M63 P0
G93 G1 X-22.487 F20000 M62 P0
G93 G1 X-22.454 F20000 M63 P0
G93 G1 X-22.422 F20000 M62 P0
G93 G1 X-22.389 F20000 M63 P0
G93 G1 X-22.356 F20000 M62 P0
G93 G1 X-22.324 F20000 M63 P0
G93 G1 X-22.291 F20000 M62 P0
G93 G1 X-22.258 F20000 M63 P0
G93 G1 X-22.226 F20000 M62 P0
G93 G1 X-22.193 F20000 M63 P0
G93 G1 X-22.161 F20000 M62 P0
G93 G1 X-22.128 F20000 M63 P0
G93 G1 X-22.095 F20000 M62 P0
G93 G1 X-22.063 F20000 M63 P0
G93 G1 X-22.03 F20000 M62 P0
G93 G1 X-21.997 F20000 M63 P0
G93 G1 X-21.965 F20000 M62 P0
G93 G1 X-21.932 F20000 M63 P0
G93 G1 X-21.899 F20000 M62 P0
G93 G1 X-21.867 F20000 M63 P0
G93 G1 X-21.834 F20000 M62 P0
G93 G1 X-21.802 F20000 M63 P0
G93 G1 X-21.769 F20000 M62 P0
G93 G1 X-21.736 F20000 M63 P0
G93 G1 X-21.704 F20000 M62 P0
G93 G1 X-21.671 F20000 M63 P0
G93 G1 X-21.638 F20000 M62 P0
G93 G1 X-21.606 F20000 M63 P0
G93 G1 X-21.573 F20000 M62 P0
G93 G1 X-21.54 F20000 M63 P0
G93 G1 X-21.508 F20000 M62 P0
G93 G1 X-21.475 F20000 M63 P0
G93 G1 X-21.443 F20000 M62 P0
G93 G1 X-21.41 F20000 M63 P0
G93 G1 X-21.377 F20000 M62 P0
G93 G1 X-21.345 F20000 M63 P0
G93 G1 X-21.312 F20000 M62 P0
G93 G1 X-21.279 F20000 M63 P0
G93 G1 X-21.247 F20000 M62 P0
G93 G1 X-21.214 F20000 M63 P0
G93 G1 X-21.181 F20000 M62 P0
G93 G1 X-21.149 F20000 M63 P0
G93 G1 X-21.116 F20000 M62 P0
G93 G1 X-21.084 F20000 M63 P0
G93 G1 X-21.051 F20000 M62 P0
G93 G1 X-21.018 F20000 M63 P0
G93 G1 X-20.986 F20000 M62 P0
G93 G1 X-20.953 F20000 M63 P0
G93 G1 X-20.92 F20000 M62 P0
G93 G1 X-20.888 F20000 M63 P0
G93 G1 X-20.855 F20000 M62 P0
G93 G1 X-20.822 F20000 M63 P0
G93 G1 X-20.79 F20000 M62 P0
G93 G1 X-20.757 F20000 M63 P0
G93 G1 X-20.725 F20000 M62 P0
G93 G1 X-20.692 F20000 M63 P0
G93 G1 X-20.659 F20000 M62 P0
G93 G1 X-20.627 F20000 M63 P0
G93 G1 X-20.594 F20000 M62 P0
G93 G1 X-20.561 F20000 M63 P0
G93 G1 X-20.529 F20000 M62 P0
G93 G1 X-20.496 F20000 M63 P0
G93 G1 X-20.463 F20000 M62 P0
G93 G1 X-20.431 F20000 M63 P0
G93 G1 X-20.398 F20000 M62 P0
G93 G1 X-20.366 F20000 M63 P0
G93 G1 X-20.333 F20000 M62 P0
G93 G1 X-20.3 F20000 M63 P0
G93 G1 X-20.268 F20000 M62 P0
G93 G1 X-20.235 F20000 M63 P0
G93 G1 X-20.202 F20000 M62 P0
G93 G1 X-20.17 F20000 M63 P0
G93 G1 X-20.137 F20000 M62 P0
G93 G1 X-20.104 F20000 M63 P0
G93 G1 X-20.072 F20000 M62 P0
G93 G1 X-20.039 F20000 M63 P0
G93 G1 X-20.007 F20000 M62 P0
G93 G1 X-19.974 F20000 M63 P0
G93 G1 X-19.941 F20000 M62 P0
G93 G1 X-19.909 F20000 M63 P0
G93 G1 X-19.876 F20000 M62 P0
G93 G1 X-19.843 F20000 M63 P0
G93 G1 X-19.811 F20000 M62 P0
G93 G1 X-19.778 F20000 M63 P0
G93 G1 X-19.745 F20000 M62 P0
G93 G1 X-19.713 F20000 M63 P0
G93 G1 X-19.68 F20000 M62 P0
G93 G1 X-19.648 F20000 M63 P0
G93 G1 X-19.615 F20000 M62 P0
G93 G1 X-19.582 F20000 M63 P0
G93 G1 X-19.55 F20000 M62 P0
G93 G1 X-19.517 F20000 M63 P0
G93 G1 X-19.484 F20000 M62 P0
G93 G1 X-19.452 F20000 M63 P0
G93 G1 X-19.419 F20000 M62 P0
G93 G1 X-19.386 F20000 M63 P0
G93 G1 X-19.354 F20000 M62 P0
G93 G1 X-19.321 F20000 M63 P0
G93 G1 X-19.289 F20000 M62 P0
G93 G1 X-19.256 F20000 M63 P0
G93 G1 X-19.223 F20000 M62 P0
G93 G1 X-19.191 F20000 M63 P0
G93 G1 X-19.158 F20000 M62 P0
G93 G1 X-19.125 F20000 M63 P0
G93 G1 X-19.093 F20000 M62 P0
G93 G1 X-19.06 F20000 M63 P0
G93 G1 X-19.027 F20000 M62 P0
G93 G1 X-18.995 F20000 M63 P0
G93 G1 X-18.962 F20000 M62 P0
G93 G1 X-18.93 F20000 M63 P0
G93 G1 X-18.897 F20000 M62 P0
G93 G1 X-18.864 F20000 M63 P0
G93 G1 X-18.832 F20000 M62 P0
G93 G1 X-18.799 F20000 M63 P0
G93 G1 X-18.766 F20000 M62 P0
G93 G1 X-18.734 F20000 M63 P0
G93 G1 X-18.701 F20000 M62 P0
G93 G1 X-18.668 F20000 M63 P0
G93 G1 X-18.636 F20000 M62 P0
G93 G1 X-18.603 F20000 M63 P0
G93 G1 X-18.57 F20000 M62 P0
G93 G1 X-18.538 F20000 M63 P0
G93 G1 X-18.505 F20000 M62 P0
G93 G1 X-18.473 F20000 M63 P0
G93 G1 X-18.44 F20000 M62 P0
G93 G1 X-18.407 F20000 M63 P0
G93 G1 X-18.375 F20000 M62 P0
G93 G1 X-18.342 F20000 M63 P0
G93 G1 X-18.309 F20000 M62 P0
G93 G1 X-18.277 F20000 M63 P0
G93 G1 X-18.244 F20000 M62 P0
G93 G1 X-18.211 F20000 M63 P0
G93 G1 X-18.179 F20000 M62 P0
G93 G1 X-18.146 F20000 M63 P0
G93 G1 X-18.114 F20000 M62 P0
G93 G1 X-18.081 F20000 M63 P0
G93 G1 X-18.048 F20000 M62 P0
G93 G1 X-18.016 F20000 M63 P0
G93 G1 X-17.983 F20000 M62 P0
G93 G1 X-17.95 F20000 M63 P0
G93 G1 X-17.918 F20000 M62 P0
G93 G1 X-17.885 F20000 M63 P0
G93 G1 X-17.852 F20000 M62 P0
G93 G1 X-17.82 F20000 M63 P0
G93 G1 X-17.787 F20000 M62 P0
G93 G1 X-17.755 F20000 M63 P0
G93 G1 X-17.722 F20000 M62 P0
G93 G1 X-17.689 F20000 M63 P0
G93 G1 X-17.657 F20000 M62 P0
G93 G1 X-17.624 F20000 M63 P0
G93 G1 X-17.591 F20000 M62 P0
G93 G1 X-17.559 F20000 M63 P0
G93 G1 X-17.526 F20000 M62 P0
G93 G1 X-17.493 F20000 M63 P0
G93 G1 X-17.461 F20000 M62 P0
G93 G1 X-17.428 F20000 M63 P0
G93 G1 X-17.396 F20000 M62 P0
G93 G1 X-17.363 F20000 M63 P0
G93 G1 X-17.33 F20000 M62 P0
G93 G1 X-17.298 F20000 M63 P0
G93 G1 X-17.265 F20000 M62 P0
G93 G1 X-17.232 F20000 M63 P0
G93 G1 X-17.2 F20000 M62 P0
G93 G1 X-17.167 F20000 M63 P0
G93 G1 X-17.134 F20000 M62 P0
G93 G1 X-17.102 F20000 M63 P0
G93 G1 X-17.069 F20000 M62 P0
G93 G1 X-17.037 F20000 M63 P0
G93 G1 X-17.004 F20000 M62 P0
G93 G1 X-16.971 F20000 M63 P0
G93 G1 X-16.939 F20000 M62 P0
G93 G1 X-16.906 F20000 M63 P0
G93 G1 X-16.873 F20000 M62 P0
G93 G1 X-16.841 F20000 M63 P0
G93 G1 X-16.808 F20000 M62 P0
G93 G1 X-16.775 F20000 M63 P0
G93 G1 X-16.743 F20000 M62 P0
G93 G1 X-16.71 F20000 M63 P0
G93 G1 X-16.678 F20000 M62 P0
G93 G1 X-16.645 F20000 M63 P0
G93 G1 X-16.612 F20000 M62 P0
G93 G1 X-16.58 F20000 M63 P0
G93 G1 X-16.547 F20000 M62 P0
G93 G1 X-16.514 F20000 M63 P0
G93 G1 X-16.482 F20000 M62 P0
G93 G1 X-16.449 F20000 M63 P0
G93 G1 X-16.416 F20000 M62 P0
G93 G1 X-16.384 F20000 M63 P0
G93 G1 X-16.351 F20000 M62 P0
G93 G1 X-16.319 F20000 M63 P0
G93 G1 X-16.286 F20000 M62 P0
G93 G1 X-16.253 F20000 M63 P0
G93 G1 X-16.221 F20000 M62 P0
G93 G1 X-16.188 F20000 M63 P0
G93 G1 X-16.155 F20000 M62 P0
G93 G1 X-16.123 F20000 M63 P0
G93 G1 X-16.09 F20000 M62 P0
G93 G1 X-16.057 F20000 M63 P0
G93 G1 X-16.025 F20000 M62 P0
G93 G1 X-15.992 F20000 M63 P0
G93 G1 X-15.96 F20000 M62 P0
G93 G1 X-15.927 F20000 M63 P0
G93 G1 X-15.894 F20000 M62 P0
G93 G1 X-15.862 F20000 M63 P0
G93 G1 X-15.829 F20000 M62 P0
G93 G1 X-15.796 F20000 M63 P0
G93 G1 X-15.764 F20000 M62 P0
G93 G1 X-15.731 F20000 M63 P0
G93 G1 X-15.698 F20000 M62 P0
G93 G1 X-15.666 F20000 M63 P0
G93 G1 X-15.633 F20000 M62 P0
G93 G1 X-15.601 F20000 M63 P0
G93 G1 X-15.568 F20000 M62 P0
G93 G1 X-15.535 F20000 M63 P0
G93 G1 X-15.503 F20000 M62 P0
G93 G1 X-15.47 F20000 M63 P0
G93 G1 X-15.437 F20000 M62 P0
G93 G1 X-15.405 F20000 M63 P0
G93 G1 X-15.372 F20000 M62 P0
G93 G1 X-15.339 F20000 M63 P0
G93 G1 X-15.307 F20000 M62 P0
G93 G1 X-15.274 F20000 M63 P0
G93 G1 X-15.242 F20000 M62 P0
G93 G1 X-15.209 F20000 M63 P0
G93 G1 X-15.176 F20000 M62 P0
G93 G1 X-15.144 F20000 M63 P0
G93 G1 X-15.111 F20000 M62 P0
G93 G1 X-15.078 F20000 M63 P0
G93 G1 X-15.046 F20000 M62 P0
G93 G1 X-15.013 F20000 M63 P0
G93 G1 X-14.98 F20000 M62 P0
G93 G1 X-14.948 F20000 M63 P0
G93 G1 X-14.915 F20000 M62 P0
G93 G1 X-14.883 F20000 M63 P0
G93 G1 X-14.85 F20000 M62 P0
G93 G1 X-14.817 F20000 M63 P0
G93 G1 X-14.785 F20000 M62 P0
G93 G1 X-14.752 F20000 M63 P0
G93 G1 X-14.719 F20000 M62 P0
G93 G1 X-14.687 F20000 M63 P0
G93 G1 X-14.654 F20000 M62 P0
G93 G1 X-14.621 F20000 M63 P0
G93 G1 X-14.589 F20000 M62 P0
G93 G1 X-14.556 F20000 M63 P0
G93 G1 X-14.523 F20000 M62 P0
G93 G1 X-14.491 F20000 M63 P0
G93 G1 X-14.458 F20000 M62 P0
G93 G1 X-14.426 F20000 M63 P0
G93 G1 X-14.393 F20000 M62 P0
G93 G1 X-14.36 F20000 M63 P0
G93 G1 X-14.328 F20000 M62 P0
G93 G1 X-14.295 F20000 M63 P0
G93 G1 X-14.262 F20000 M62 P0
G93 G1 X-14.23 F20000 M63 P0
G93 G1 X-14.197 F20000 M62 P0
G93 G1 X-14.164 F20000 M63 P0
G93 G1 X-14.132 F20000 M62 P0
G93 G1 X-14.099 F20000 M63 P0
G93 G1 X-14.067 F20000 M62 P0
G93 G1 X-14.034 F20000 M63 P0
G93 G1 X-14.001 F20000 M62 P0
G93 G1 X-13.969 F20000 M63 P0
G93 G1 X-13.936 F20000 M62 P0
G93 G1 X-13.903 F20000 M63 P0
G93 G1 X-13.871 F20000 M62 P0
G93 G1 X-13.838 F20000 M63 P0
G93 G1 X-13.805 F20000 M62 P0
G93 G1 X-13.773 F20000 M63 P0
G93 G1 X-13.74 F20000 M62 P0
G93 G1 X-13.708 F20000 M63 P0
G93 G1 X-13.675 F20000 M62 P0
G93 G1 X-13.642 F20000 M63 P0
G93 G1 X-13.61 F20000 M62 P0
G93 G1 X-13.577 F20000 M63 P0
G93 G1 X-13.544 F20000 M62 P0
G93 G1 X-13.512 F20000 M63 P0
G93 G1 X-13.479 F20000 M62 P0
G93 G1 X-13.446 F20000 M63 P0
G93 G1 X-13.414 F20000 M62 P0
G93 G1 X-13.381 F20000 M63 P0
G93 G1 X-13.349 F20000 M62 P0
G93 G1 X-13.316 F20000 M63 P0
G93 G1 X-13.283 F20000 M62 P0
G93 G1 X-13.251 F20000 M63 P0
G93 G1 X-13.218 F20000 M62 P0
G93 G1 X-13.185 F20000 M63 P0
G93 G1 X-13.153 F20000 M62 P0
G93 G1 X-13.12 F20000 M63 P0
G93 G1 X-13.087 F20000 M62 P0
G93 G1 X-13.055 F20000 M63 P0
G93 G1 X-13.022 F20000 M62 P0
G93 G1 X-12.99 F20000 M63 P0
G93 G1 X-12.957 F20000 M62 P0
G93 G1 X-12.924 F20000 M63 P0
G93 G1 X-12.892 F20000 M62 P0
G93 G1 X-12.859 F20000 M63 P0
G93 G1 X-12.826 F20000 M62 P0
G93 G1 X-12.794 F20000 M63 P0
G93 G1 X-12.761 F20000 M62 P0
G93 G1 X-12.728 F20000 M63 P0
G93 G1 X-12.696 F20000 M62 P0
G93 G1 X-12.663 F20000 M63 P0
G93 G1 X-12.631 F20000 M62 P0
G93 G1 X-12.598 F20000 M63 P0
G93 G1 X-12.565 F20000 M62 P0
G93 G1 X-12.533 F20000 M63 P0
G93 G1 X-12.5 F20000 M62 P0
G93 G1 X-12.467 F20000 M63 P0
G93 G1 X-12.435 F20000 M62 P0
G93 G1 X-12.402 F20000 M63 P0
G93 G1 X-12.369 F20000 M62 P0
G93 G1 X-12.337 F20000 M63 P0
G93 G1 X-12.304 F20000 M62 P0
G93 G1 X-12.272 F20000 M63 P0
G93 G1 X-12.239 F20000 M62 P0
G93 G1 X-12.206 F20000 M63 P0
G93 G1 X-12.174 F20000 M62 P0
G93 G1 X-12.141 F20000 M63 P0
G93 G1 X-12.108 F20000 M62 P0
G93 G1 X-12.076 F20000 M63 P0
G93 G1 X-12.043 F20000 M62 P0
G93 G1 X-12.01 F20000 M63 P0
G93 G1 X-11.978 F20000 M62 P0
G93 G1 X-11.945 F20000 M63 P0
G93 G1 X-11.913 F20000 M62 P0
G93 G1 X-11.88 F20000 M63 P0
G93 G1 X-11.847 F20000 M62 P0
G93 G1 X-11.815 F20000 M63 P0
G93 G1 X-11.782 F20000 M62 P0
G93 G1 X-11.749 F20000 M63 P0
G93 G1 X-11.717 F20000 M62 P0
G93 G1 X-11.684 F20000 M63 P0
G93 G1 X-11.651 F20000 M62 P0
G93 G1 X-11.619 F20000 M63 P0
G93 G1 X-11.586 F20000 M62 P0
G93 G1 X-11.554 F20000 M63 P0
G93 G1 X-11.521 F20000 M62 P0
G93 G1 X-11.488 F20000 M63 P0
G93 G1 X-11.456 F20000 M62 P0
G93 G1 X-11.423 F20000 M63 P0
G93 G1 X-11.39 F20000 M62 P0
G93 G1 X-11.358 F20000 M63 P0
G93 G1 X-11.325 F20000 M62 P0
G93 G1 X-11.292 F20000 M63 P0
G93 G1 X-11.26 F20000 M62 P0
G93 G1 X-11.227 F20000 M63 P0
G93 G1 X-11.195 F20000 M62 P0
G93 G1 X-11.162 F20000 M63 P0
G93 G1 X-11.129 F20000 M62 P0
G93 G1 X-11.097 F20000 M63 P0
G93 G1 X-11.064 F20000 M62 P0
G93 G1 X-11.031 F20000 M63 P0
G93 G1 X-10.999 F20000 M62 P0
G93 G1 X-10.966 F20000 M63 P0
G93 G1 X-10.933 F20000 M62 P0
G93 G1 X-10.901 F20000 M63 P0
G93 G1 X-10.868 F20000 M62 P0
G93 G1 X-10.836 F20000 M63 P0
G93 G1 X-10.803 F20000 M62 P0
G93 G1 X-10.77 F20000 M63 P0
G93 G1 X-10.738 F20000 M62 P0
G93 G1 X-10.705 F20000 M63 P0
G93 G1 X-10.672 F20000 M62 P0
G93 G1 X-10.64 F20000 M63 P0
G93 G1 X-10.607 F20000 M62 P0
G93 G1 X-10.574 F20000 M63 P0
G93 G1 X-10.542 F20000 M62 P0
G93 G1 X-10.509 F20000 M63 P0
G93 G1 X-10.477 F20000 M62 P0
G93 G1 X-10.444 F20000 M63 P0
G93 G1 X-10.411 F20000 M62 P0
G93 G1 X-10.379 F20000 M63 P0
G93 G1 X-10.346 F20000 M62 P0
G93 G1 X-10.313 F20000 M63 P0
G93 G1 X-10.281 F20000 M62 P0
G93 G1 X-10.248 F20000 M63 P0
G93 G1 X-10.215 F20000 M62 P0
G93 G1 X-10.183 F20000 M63 P0
G93 G1 X-10.15 F20000 M62 P0
G93 G1 X-10.117 F20000 M63 P0
G93 G1 X-10.085 F20000 M62 P0
G93 G1 X-10.052 F20000 M63 P0
G93 G1 X-10.02 F20000 M62 P0
G93 G1 X-9.987 F20000 M63 P0
G93 G1 X-9.954 F20000 M62 P0
G93 G1 X-9.922 F20000 M63 P0
G93 G1 X-9.889 F20000 M62 P0
G93 G1 X-9.856 F20000 M63 P0
G93 G1 X-9.824 F20000 M62 P0
G93 G1 X-9.791 F20000 M63 P0
G93 G1 X-9.758 F20000 M62 P0
G93 G1 X-9.726 F20000 M63 P0
G93 G1 X-9.693 F20000 M62 P0
G93 G1 X-9.661 F20000 M63 P0
G93 G1 X-9.628 F20000 M62 P0
G93 G1 X-9.595 F20000 M63 P0
G93 G1 X-9.563 F20000 M62 P0
G93 G1 X-9.53 F20000 M63 P0
G93 G1 X-9.497 F20000 M62 P0
G93 G1 X-9.465 F20000 M63 P0
G93 G1 X-9.432 F20000 M62 P0
G93 G1 X-9.399 F20000 M63 P0
G93 G1 X-9.367 F20000 M62 P0
G93 G1 X-9.334 F20000 M63 P0
G93 G1 X-9.302 F20000 M62 P0
G93 G1 X-9.269 F20000 M63 P0
G93 G1 X-9.236 F20000 M62 P0
G93 G1 X-9.204 F20000 M63 P0
G93 G1 X-9.171 F20000 M62 P0
G93 G1 X-9.138 F20000 M63 P0
G93 G1 X-9.106 F20000 M62 P0
G93 G1 X-9.073 F20000 M63 P0
G93 G1 X-9.04 F20000 M62 P0
G93 G1 X-9.008 F20000 M63 P0
G93 G1 X-8.975 F20000 M62 P0
G93 G1 X-8.943 F20000 M63 P0
G93 G1 X-8.91 F20000 M62 P0
G93 G1 X-8.877 F20000 M63 P0
G93 G1 X-8.845 F20000 M62 P0
G93 G1 X-8.812 F20000 M63 P0
G93 G1 X-8.779 F20000 M62 P0
G93 G1 X-8.747 F20000 M63 P0
G93 G1 X-8.714 F20000 M62 P0
G93 G1 X-8.681 F20000 M63 P0
G93 G1 X-8.649 F20000 M62 P0
G93 G1 X-8.616 F20000 M63 P0
G93 G1 X-8.584 F20000 M62 P0
G93 G1 X-8.551 F20000 M63 P0
G93 G1 X-8.518 F20000 M62 P0
G93 G1 X-8.486 F20000 M63 P0
G93 G1 X-8.453 F20000 M62 P0
G93 G1 X-8.42 F20000 M63 P0
G93 G1 X-8.388 F20000 M62 P0
G93 G1 X-8.355 F20000 M63 P0
G93 G1 X-8.322 F20000 M62 P0
G93 G1 X-8.29 F20000 M63 P0
G93 G1 X-8.257 F20000 M62 P0
G93 G1 X-8.225 F20000 M63 P0
G93 G1 X-8.192 F20000 M62 P0
G93 G1 X-8.159 F20000 M63 P0
G93 G1 X-8.127 F20000 M62 P0
G93 G1 X-8.094 F20000 M63 P0
G93 G1 X-8.061 F20000 M62 P0
G93 G1 X-8.029 F20000 M63 P0
G93 G1 X-7.996 F20000 M62 P0
G93 G1 X-7.963 F20000 M63 P0
G93 G1 X-7.931 F20000 M62 P0
G93 G1 X-7.898 F20000 M63 P0
G93 G1 X-7.866 F20000 M62 P0
G93 G1 X-7.833 F20000 M63 P0
G93 G1 X-7.8 F20000 M62 P0
G93 G1 X-7.768 F20000 M63 P0
G93 G1 X-7.735 F20000 M62 P0
G93 G1 X-7.702 F20000 M63 P0
G93 G1 X-7.67 F20000 M62 P0
G93 G1 X-7.637 F20000 M63 P0
G93 G1 X-7.604 F20000 M62 P0
G93 G1 X-7.572 F20000 M63 P0
G93 G1 X-7.539 F20000 M62 P0
G93 G1 X-7.507 F20000 M63 P0
G93 G1 X-7.474 F20000 M62 P0
G93 G1 X-7.441 F20000 M63 P0
G93 G1 X-7.409 F20000 M62 P0
G93 G1 X-7.376 F20000 M63 P0
G93 G1 X-7.343 F20000 M62 P0
G93 G1 X-7.311 F20000 M63 P0
G93 G1 X-7.278 F20000 M62 P0
G93 G1 X-7.245 F20000 M63 P0
G93 G1 X-7.213 F20000 M62 P0
G93 G1 X-7.18 F20000 M63 P0
G93 G1 X-7.148 F20000 M62 P0
G93 G1 X-7.115 F20000 M63 P0
G93 G1 X-7.082 F20000 M62 P0
G93 G1 X-7.05 F20000 M63 P0
G93 G1 X-7.017 F20000 M62 P0
G93 G1 X-6.984 F20000 M63 P0
G93 G1 X-6.952 F20000 M62 P0
G93 G1 X-6.919 F20000 M63 P0
G93 G1 X-6.886 F20000 M62 P0
G93 G1 X-6.854 F20000 M63 P0
G93 G1 X-6.821 F20000 M62 P0
G93 G1 X-6.789 F20000 M63 P0
G93 G1 X-6.756 F20000 M62 P0
G93 G1 X-6.723 F20000 M63 P0
G93 G1 X-6.691 F20000 M62 P0
G93 G1 X-6.658 F20000 M63 P0
G93 G1 X-6.625 F20000 M62 P0
G93 G1 X-6.593 F20000 M63 P0
G93 G1 X-6.56 F20000 M62 P0
G93 G1 X-6.527 F20000 M63 P0
G93 G1 X-6.495 F20000 M62 P0
G93 G1 X-6.462 F20000 M63 P0
G93 G1 X-6.43 F20000 M62 P0
G93 G1 X-6.397 F20000 M63 P0
G93 G1 X-6.364 F20000 M62 P0
G93 G1 X-6.332 F20000 M63 P0
G93 G1 X-6.299 F20000 M62 P0
G93 G1 X-6.266 F20000 M63 P0
G93 G1 X-6.234 F20000 M62 P0
G93 G1 X-6.201 F20000 M63 P0
G93 G1 X-6.168 F20000 M62 P0
G93 G1 X-6.136 F20000 M63 P0
G93 G1 X-6.103 F20000 M62 P0
G93 G1 X-6.07 F20000 M63 P0
G93 G1 X-6.038 F20000 M62 P0
G93 G1 X-6.005 F20000 M63 P0
G93 G1 X-5.973 F20000 M62 P0
G93 G1 X-5.94 F20000 M63 P0
G93 G1 X-5.907 F20000 M62 P0
G93 G1 X-5.875 F20000 M63 P0
G93 G1 X-5.842 F20000 M62 P0
G93 G1 X-5.809 F20000 M63 P0
G93 G1 X-5.777 F20000 M62 P0
G93 G1 X-5.744 F20000 M63 P0
G93 G1 X-5.711 F20000 M62 P0
G93 G1 X-5.679 F20000 M63 P0
G93 G1 X-5.646 F20000 M62 P0
G93 G1 X-5.614 F20000 M63 P0
G93 G1 X-5.581 F20000 M62 P0
G93 G1 X-5.548 F20000 M63 P0
G93 G1 X-5.516 F20000 M62 P0
G93 G1 X-5.483 F20000 M63 P0
G93 G1 X-5.45 F20000 M62 P0
G93 G1 X-5.418 F20000 M63 P0
G93 G1 X-5.385 F20000 M62 P0
G93 G1 X-5.352 F20000 M63 P0
G93 G1 X-5.32 F20000 M62 P0
G93 G1 X-5.287 F20000 M63 P0
G93 G1 X-5.255 F20000 M62 P0
G93 G1 X-5.222 F20000 M63 P0
G93 G1 X-5.189 F20000 M62 P0
G93 G1 X-5.157 F20000 M63 P0
G93 G1 X-5.124 F20000 M62 P0
G93 G1 X-5.091 F20000 M63 P0
G93 G1 X-5.059 F20000 M62 P0
G93 G1 X-5.026 F20000 M63 P0
G93 G1 X-4.993 F20000 M62 P0
G93 G1 X-4.961 F20000 M63 P0
G93 G1 X-4.928 F20000 M62 P0
G93 G1 X-4.896 F20000 M63 P0
G93 G1 X-4.863 F20000 M62 P0
G93 G1 X-4.83 F20000 M63 P0
G93 G1 X-4.798 F20000 M62 P0
G93 G1 X-4.765 F20000 M63 P0
G93 G1 X-4.732 F20000 M62 P0
G93 G1 X-4.7 F20000 M63 P0
G93 G1 X-4.667 F20000 M62 P0
G93 G1 X-4.634 F20000 M63 P0
G93 G1 X-4.602 F20000 M62 P0
G93 G1 X-4.569 F20000 M63 P0
G93 G1 X-4.537 F20000 M62 P0
G93 G1 X-4.504 F20000 M63 P0
G93 G1 X-4.471 F20000 M62 P0
G93 G1 X-4.439 F20000 M63 P0
G93 G1 X-4.406 F20000 M62 P0
G93 G1 X-4.373 F20000 M63 P0
G93 G1 X-4.341 F20000 M62 P0
G93 G1 X-4.308 F20000 M63 P0
G93 G1 X-4.275 F20000 M62 P0
G93 G1 X-4.243 F20000 M63 P0
G93 G1 X-4.21 F20000 M62 P0
G93 G1 X-4.178 F20000 M63 P0
G93 G1 X-4.145 F20000 M62 P0
G93 G1 X-4.112 F20000 M63 P0
G93 G1 X-4.08 F20000 M62 P0
G93 G1 X-4.047 F20000 M63 P0
G93 G1 X-4.014 F20000 M62 P0
G93 G1 X-3.982 F20000 M63 P0
G93 G1 X-3.949 F20000 M62 P0
G93 G1 X-3.916 F20000 M63 P0
G93 G1 X-3.884 F20000 M62 P0
G93 G1 X-3.851 F20000 M63 P0
G93 G1 X-3.819 F20000 M62 P0
G93 G1 X-3.786 F20000 M63 P0
G93 G1 X-3.753 F20000 M62 P0
G93 G1 X-3.721 F20000 M63 P0
G93 G1 X-3.688 F20000 M62 P0
G93 G1 X-3.655 F20000 M63 P0
G93 G1 X-3.623 F20000 M62 P0
G93 G1 X-3.59 F20000 M63 P0
G93 G1 X-3.557 F20000 M62 P0
G93 G1 X-3.525 F20000 M63 P0
G93 G1 X-3.492 F20000 M62 P0
G93 G1 X-3.46 F20000 M63 P0
G93 G1 X-3.427 F20000 M62 P0
G93 G1 X-3.394 F20000 M63 P0
G93 G1 X-3.362 F20000 M62 P0
G93 G1 X-3.329 F20000 M63 P0
G93 G1 X-3.296 F20000 M62 P0
G93 G1 X-3.264 F20000 M63 P0
G93 G1 X-3.231 F20000 M62 P0
G93 G1 X-3.198 F20000 M63 P0
G93 G1 X-3.166 F20000 M62 P0
G93 G1 X-3.133 F20000 M63 P0
G93 G1 X-3.101 F20000 M62 P0
G93 G1 X-3.068 F20000 M63 P0
G93 G1 X-3.035 F20000 M62 P0
G93 G1 X-3.003 F20000 M63 P0
G93 G1 X-2.97 F20000 M62 P0
G93 G1 X-2.937 F20000 M63 P0
G93 G1 X-2.905 F20000 M62 P0
G93 G1 X-2.872 F20000 M63 P0
G93 G1 X-2.839 F20000 M62 P0
G93 G1 X-2.807 F20000 M63 P0
G93 G1 X-2.774 F20000 M62 P0
G93 G1 X-2.742 F20000 M63 P0
G93 G1 X-2.709 F20000 M62 P0
G93 G1 X-2.676 F20000 M63 P0
G93 G1 X-2.644 F20000 M62 P0
G93 G1 X-2.611 F20000 M63 P0
G93 G1 X-2.578 F20000 M62 P0
G93 G1 X-2.546 F20000 M63 P0
G93 G1 X-2.513 F20000 M62 P0
G93 G1 X-2.48 F20000 M63 P0
G93 G1 X-2.448 F20000 M62 P0
G93 G1 X-2.415 F20000 M63 P0
G93 G1 X-2.383 F20000 M62 P0
G93 G1 X-2.35 F20000 M63 P0
G93 G1 X-2.317 F20000 M62 P0
G93 G1 X-2.285 F20000 M63 P0
G93 G1 X-2.252 F20000 M62 P0
G93 G1 X-2.219 F20000 M63 P0
G93 G1 X-2.187 F20000 M62 P0
G93 G1 X-2.154 F20000 M63 P0
G93 G1 X-2.121 F20000 M62 P0
G93 G1 X-2.089 F20000 M63 P0
G93 G1 X-2.056 F20000 M62 P0
G93 G1 X-2.023 F20000 M63 P0
G93 G1 X-1.991 F20000 M62 P0
G93 G1 X-1.958 F20000 M63 P0
G93 G1 X-1.926 F20000 M62 P0
G93 G1 X-1.893 F20000 M63 P0
G93 G1 X-1.86 F20000 M62 P0
G93 G1 X-1.828 F20000 M63 P0
G93 G1 X-1.795 F20000 M62 P0
G93 G1 X-1.762 F20000 M63 P0
G93 G1 X-1.73 F20000 M62 P0
G93 G1 X-1.697 F20000 M63 P0
G93 G1 X-1.664 F20000 M62 P0
G93 G1 X-1.632 F20000 M63 P0
G93 G1 X-1.599 F20000 M62 P0
G93 G1 X-1.567 F20000 M63 P0
G93 G1 X-1.534 F20000 M62 P0
G93 G1 X-1.501 F20000 M63 P0
G93 G1 X-1.469 F20000 M62 P0
G93 G1 X-1.436 F20000 M63 P0
G93 G1 X-1.403 F20000 M62 P0
G93 G1 X-1.371 F20000 M63 P0
G93 G1 X-1.338 F20000 M62 P0
G93 G1 X-1.305 F20000 M63 P0
G93 G1 X-1.273 F20000 M62 P0
G93 G1 X-1.24 F20000 M63 P0
G93 G1 X-1.208 F20000 M62 P0
G93 G1 X-1.175 F20000 M63 P0
G93 G1 X-1.142 F20000 M62 P0
G93 G1 X-1.11 F20000 M63 P0
G93 G1 X-1.077 F20000 M62 P0
G93 G1 X-1.044 F20000 M63 P0
G93 G1 X-1.012 F20000 M62 P0
G93 G1 X-0.979 F20000 M63 P0
G93 G1 X-0.946 F20000 M62 P0
G93 G1 X-0.914 F20000 M63 P0
G93 G1 X-0.881 F20000 M62 P0
G93 G1 X-0.849 F20000 M63 P0
G93 G1 X-0.816 F20000 M62 P0
G93 G1 X-0.783 F20000 M63 P0
G93 G1 X-0.751 F20000 M62 P0
G93 G1 X-0.718 F20000 M63 P0
G93 G1 X-0.685 F20000 M62 P0
G93 G1 X-0.653 F20000 M63 P0
G93 G1 X-0.62 F20000 M62 P0
G93 G1 X-0.587 F20000 M63 P0
G93 G1 X-0.555 F20000 M62 P0
G93 G1 X-0.522 F20000 M63 P0
G93 G1 X-0.49 F20000 M62 P0
G93 G1 X-0.457 F20000 M63 P0
G93 G1 X-0.424 F20000 M62 P0
G93 G1 X-0.392 F20000 M63 P0
G93 G1 X-0.359 F20000 M62 P0
G93 G1 X-0.326 F20000 M63 P0
G93 G1 X-0.294 F20000 M62 P0
G93 G1 X-0.261 F20000 M63 P0
G93 G1 X-0.228 F20000 M62 P0
G93 G1 X-0.196 F20000 M63 P0
G93 G1 X-0.163 F20000 M62 P0
G93 G1 X-0.131 F20000 M63 P0
G93 G1 X-0.098 F20000 M62 P0
G93 G1 X-0.065 F20000 M63 P0
G93 G1 X-0.033 F20000 M62 P0
G93 G1 X0.0 F20000 M63 P0
G93 G1 X0.01 F20000 M62 P0
G93 G1 X-0.01 F20000 M63 P0
G93 G1 X0.01 F20000 M62 P0
G93 G1 X0.131 F20000 M63 P0
G93 G1 X0.163 F20000 M62 P0
G93 G1 X0.196 F20000 M63 P0
G93 G1 X0.228 F20000 M62 P0
G93 G1 X0.261 F20000 M63 P0
G93 G1 X0.294 F20000 M62 P0
G93 G1 X0.326 F20000 M63 P0
G93 G1 X0.359 F20000 M62 P0
G93 G1 X0.392 F20000 M63 P0
G93 G1 X0.424 F20000 M62 P0
G93 G1 X0.457 F20000 M63 P0
G93 G1 X0.49 F20000 M62 P0
G93 G1 X0.522 F20000 M63 P0
G93 G1 X0.555 F20000 M62 P0
G93 G1 X0.587 F20000 M63 P0
G93 G1 X0.62 F20000 M62 P0
G93 G1 X0.653 F20000 M63 P0
G93 G1 X0.685 F20000 M62 P0
G93 G1 X0.718 F20000 M63 P0
G93 G1 X0.751 F20000 M62 P0
G93 G1 X0.783 F20000 M63 P0
G93 G1 X0.816 F20000 M62 P0
G93 G1 X0.849 F20000 M63 P0
G93 G1 X0.881 F20000 M62 P0
G93 G1 X0.914 F20000 M63 P0
G93 G1 X0.946 F20000 M62 P0
G93 G1 X0.979 F20000 M63 P0
G93 G1 X1.012 F20000 M62 P0
G93 G1 X1.044 F20000 M63 P0
G93 G1 X1.077 F20000 M62 P0
G93 G1 X1.11 F20000 M63 P0
G93 G1 X1.142 F20000 M62 P0
G93 G1 X1.175 F20000 M63 P0
G93 G1 X1.208 F20000 M62 P0
G93 G1 X1.24 F20000 M63 P0
G93 G1 X1.273 F20000 M62 P0
G93 G1 X1.305 F20000 M63 P0
G93 G1 X1.338 F20000 M62 P0
G93 G1 X1.371 F20000 M63 P0
G93 G1 X1.403 F20000 M62 P0
G93 G1 X1.436 F20000 M63 P0
G93 G1 X1.469 F20000 M62 P0
G93 G1 X1.501 F20000 M63 P0
G93 G1 X1.534 F20000 M62 P0
G93 G1 X1.567 F20000 M63 P0
G93 G1 X1.599 F20000 M62 P0
G93 G1 X1.632 F20000 M63 P0
G93 G1 X1.664 F20000 M62 P0
G93 G1 X1.697 F20000 M63 P0
G93 G1 X1.73 F20000 M62 P0
G93 G1 X1.762 F20000 M63 P0
G93 G1 X1.795 F20000 M62 P0
G93 G1 X1.828 F20000 M63 P0
G93 G1 X1.86 F20000 M62 P0
G93 G1 X1.893 F20000 M63 P0
G93 G1 X1.926 F20000 M62 P0
G93 G1 X1.958 F20000 M63 P0
G93 G1 X1.991 F20000 M62 P0
G93 G1 X2.024 F20000 M63 P0
G93 G1 X2.056 F20000 M62 P0
G93 G1 X2.089 F20000 M63 P0
G93 G1 X2.121 F20000 M62 P0
G93 G1 X2.154 F20000 M63 P0
G93 G1 X2.187 F20000 M62 P0
G93 G1 X2.219 F20000 M63 P0
G93 G1 X2.252 F20000 M62 P0
G93 G1 X2.285 F20000 M63 P0
G93 G1 X2.317 F20000 M62 P0
G93 G1 X2.35 F20000 M63 P0
G93 G1 X2.383 F20000 M62 P0
G93 G1 X2.415 F20000 M63 P0
G93 G1 X2.448 F20000 M62 P0
G93 G1 X2.48 F20000 M63 P0
G93 G1 X2.513 F20000 M62 P0
G93 G1 X2.546 F20000 M63 P0
G93 G1 X2.578 F20000 M62 P0
G93 G1 X2.611 F20000 M63 P0
G93 G1 X2.644 F20000 M62 P0
G93 G1 X2.676 F20000 M63 P0
G93 G1 X2.709 F20000 M62 P0
G93 G1 X2.742 F20000 M63 P0
G93 G1 X2.774 F20000 M62 P0
G93 G1 X2.807 F20000 M63 P0
G93 G1 X2.839 F20000 M62 P0
G93 G1 X2.872 F20000 M63 P0
G93 G1 X2.905 F20000 M62 P0
G93 G1 X2.937 F20000 M63 P0
G93 G1 X2.97 F20000 M62 P0
G93 G1 X3.003 F20000 M63 P0
G93 G1 X3.035 F20000 M62 P0
G93 G1 X3.068 F20000 M63 P0
G93 G1 X3.101 F20000 M62 P0
G93 G1 X3.133 F20000 M63 P0
G93 G1 X3.166 F20000 M62 P0
G93 G1 X3.198 F20000 M63 P0
G93 G1 X3.231 F20000 M62 P0
G93 G1 X3.264 F20000 M63 P0
G93 G1 X3.296 F20000 M62 P0
G93 G1 X3.329 F20000 M63 P0
G93 G1 X3.362 F20000 M62 P0
G93 G1 X3.394 F20000 M63 P0
G93 G1 X3.427 F20000 M62 P0
G93 G1 X3.46 F20000 M63 P0
G93 G1 X3.492 F20000 M62 P0
G93 G1 X3.525 F20000 M63 P0
G93 G1 X3.557 F20000 M62 P0
G93 G1 X3.59 F20000 M63 P0
G93 G1 X3.623 F20000 M62 P0
G93 G1 X3.655 F20000 M63 P0
G93 G1 X3.688 F20000 M62 P0
G93 G1 X3.721 F20000 M63 P0
G93 G1 X3.753 F20000 M62 P0
G93 G1 X3.786 F20000 M63 P0
G93 G1 X3.819 F20000 M62 P0
G93 G1 X3.851 F20000 M63 P0
G93 G1 X3.884 F20000 M62 P0
G93 G1 X3.916 F20000 M63 P0
G93 G1 X3.949 F20000 M62 P0
G93 G1 X3.982 F20000 M63 P0
G93 G1 X4.014 F20000 M62 P0
G93 G1 X4.047 F20000 M63 P0
G93 G1 X4.08 F20000 M62 P0
G93 G1 X4.112 F20000 M63 P0
G93 G1 X4.145 F20000 M62 P0
G93 G1 X4.178 F20000 M63 P0
G93 G1 X4.21 F20000 M62 P0
G93 G1 X4.243 F20000 M63 P0
G93 G1 X4.275 F20000 M62 P0
G93 G1 X4.308 F20000 M63 P0
G93 G1 X4.341 F20000 M62 P0
G93 G1 X4.373 F20000 M63 P0
G93 G1 X4.406 F20000 M62 P0
G93 G1 X4.439 F20000 M63 P0
G93 G1 X4.471 F20000 M62 P0
G93 G1 X4.504 F20000 M63 P0
G93 G1 X4.537 F20000 M62 P0
G93 G1 X4.569 F20000 M63 P0
G93 G1 X4.602 F20000 M62 P0
G93 G1 X4.634 F20000 M63 P0
G93 G1 X4.667 F20000 M62 P0
G93 G1 X4.7 F20000 M63 P0
G93 G1 X4.732 F20000 M62 P0
G93 G1 X4.765 F20000 M63 P0
G93 G1 X4.798 F20000 M62 P0
G93 G1 X4.83 F20000 M63 P0
G93 G1 X4.863 F20000 M62 P0
G93 G1 X4.896 F20000 M63 P0
G93 G1 X4.928 F20000 M62 P0
G93 G1 X4.961 F20000 M63 P0
G93 G1 X4.993 F20000 M62 P0
G93 G1 X5.026 F20000 M63 P0
G93 G1 X5.059 F20000 M62 P0
G93 G1 X5.091 F20000 M63 P0
G93 G1 X5.124 F20000 M62 P0
G93 G1 X5.157 F20000 M63 P0
G93 G1 X5.189 F20000 M62 P0
G93 G1 X5.222 F20000 M63 P0
G93 G1 X5.255 F20000 M62 P0
G93 G1 X5.287 F20000 M63 P0
G93 G1 X5.32 F20000 M62 P0
G93 G1 X5.352 F20000 M63 P0
G93 G1 X5.385 F20000 M62 P0
G93 G1 X5.418 F20000 M63 P0
G93 G1 X5.45 F20000 M62 P0
G93 G1 X5.483 F20000 M63 P0
G93 G1 X5.516 F20000 M62 P0
G93 G1 X5.548 F20000 M63 P0
G93 G1 X5.581 F20000 M62 P0
G93 G1 X5.614 F20000 M63 P0
G93 G1 X5.646 F20000 M62 P0
G93 G1 X5.679 F20000 M63 P0
G93 G1 X5.711 F20000 M62 P0
G93 G1 X5.744 F20000 M63 P0
G93 G1 X5.777 F20000 M62 P0
G93 G1 X5.809 F20000 M63 P0
G93 G1 X5.842 F20000 M62 P0
G93 G1 X5.875 F20000 M63 P0
G93 G1 X5.907 F20000 M62 P0
G93 G1 X5.94 F20000 M63 P0
G93 G1 X5.973 F20000 M62 P0
G93 G1 X6.005 F20000 M63 P0
G93 G1 X6.038 F20000 M62 P0
G93 G1 X6.07 F20000 M63 P0
G93 G1 X6.103 F20000 M62 P0
G93 G1 X6.136 F20000 M63 P0
G93 G1 X6.168 F20000 M62 P0
G93 G1 X6.201 F20000 M63 P0
G93 G1 X6.234 F20000 M62 P0
G93 G1 X6.266 F20000 M63 P0
G93 G1 X6.299 F20000 M62 P0
G93 G1 X6.332 F20000 M63 P0
G93 G1 X6.364 F20000 M62 P0
G93 G1 X6.397 F20000 M63 P0
G93 G1 X6.43 F20000 M62 P0
G93 G1 X6.462 F20000 M63 P0
G93 G1 X6.495 F20000 M62 P0
G93 G1 X6.527 F20000 M63 P0
G93 G1 X6.56 F20000 M62 P0
G93 G1 X6.593 F20000 M63 P0
G93 G1 X6.625 F20000 M62 P0
G93 G1 X6.658 F20000 M63 P0
G93 G1 X6.691 F20000 M62 P0
G93 G1 X6.723 F20000 M63 P0
G93 G1 X6.756 F20000 M62 P0
G93 G1 X6.789 F20000 M63 P0
G93 G1 X6.821 F20000 M62 P0
G93 G1 X6.854 F20000 M63 P0
G93 G1 X6.886 F20000 M62 P0
G93 G1 X6.919 F20000 M63 P0
G93 G1 X6.952 F20000 M62 P0
G93 G1 X6.984 F20000 M63 P0
G93 G1 X7.017 F20000 M62 P0
G93 G1 X7.05 F20000 M63 P0
G93 G1 X7.082 F20000 M62 P0
G93 G1 X7.115 F20000 M63 P0
G93 G1 X7.148 F20000 M62 P0
G93 G1 X7.18 F20000 M63 P0
G93 G1 X7.213 F20000 M62 P0
G93 G1 X7.245 F20000 M63 P0
G93 G1 X7.278 F20000 M62 P0
G93 G1 X7.311 F20000 M63 P0
G93 G1 X7.343 F20000 M62 P0
G93 G1 X7.376 F20000 M63 P0
G93 G1 X7.409 F20000 M62 P0
G93 G1 X7.441 F20000 M63 P0
G93 G1 X7.474 F20000 M62 P0
G93 G1 X7.507 F20000 M63 P0
G93 G1 X7.539 F20000 M62 P0
G93 G1 X7.572 F20000 M63 P0
G93 G1 X7.604 F20000 M62 P0
G93 G1 X7.637 F20000 M63 P0
G93 G1 X7.67 F20000 M62 P0
G93 G1 X7.702 F20000 M63 P0
G93 G1 X7.735 F20000 M62 P0
G93 G1 X7.768 F20000 M63 P0
G93 G1 X7.8 F20000 M62 P0
G93 G1 X7.833 F20000 M63 P0
G93 G1 X7.866 F20000 M62 P0
G93 G1 X7.898 F20000 M63 P0
G93 G1 X7.931 F20000 M62 P0
G93 G1 X7.963 F20000 M63 P0
G93 G1 X7.996 F20000 M62 P0
G93 G1 X8.029 F20000 M63 P0
G93 G1 X8.061 F20000 M62 P0
G93 G1 X8.094 F20000 M63 P0
G93 G1 X8.127 F20000 M62 P0
G93 G1 X8.159 F20000 M63 P0
G93 G1 X8.192 F20000 M62 P0
G93 G1 X8.225 F20000 M63 P0
G93 G1 X8.257 F20000 M62 P0
G93 G1 X8.29 F20000 M63 P0
G93 G1 X8.322 F20000 M62 P0
G93 G1 X8.355 F20000 M63 P0
G93 G1 X8.388 F20000 M62 P0
G93 G1 X8.42 F20000 M63 P0
G93 G1 X8.453 F20000 M62 P0
G93 G1 X8.486 F20000 M63 P0
G93 G1 X8.518 F20000 M62 P0
G93 G1 X8.551 F20000 M63 P0
G93 G1 X8.584 F20000 M62 P0
G93 G1 X8.616 F20000 M63 P0
G93 G1 X8.649 F20000 M62 P0
G93 G1 X8.681 F20000 M63 P0
G93 G1 X8.714 F20000 M62 P0
G93 G1 X8.747 F20000 M63 P0
G93 G1 X8.779 F20000 M62 P0
G93 G1 X8.812 F20000 M63 P0
G93 G1 X8.845 F20000 M62 P0
G93 G1 X8.877 F20000 M63 P0
G93 G1 X8.91 F20000 M62 P0
G93 G1 X8.943 F20000 M63 P0
G93 G1 X8.975 F20000 M62 P0
G93 G1 X9.008 F20000 M63 P0
G93 G1 X9.04 F20000 M62 P0
G93 G1 X9.073 F20000 M63 P0
G93 G1 X9.106 F20000 M62 P0
G93 G1 X9.138 F20000 M63 P0
G93 G1 X9.171 F20000 M62 P0
G93 G1 X9.204 F20000 M63 P0
G93 G1 X9.236 F20000 M62 P0
G93 G1 X9.269 F20000 M63 P0
G93 G1 X9.302 F20000 M62 P0
G93 G1 X9.334 F20000 M63 P0
G93 G1 X9.367 F20000 M62 P0
G93 G1 X9.399 F20000 M63 P0
G93 G1 X9.432 F20000 M62 P0
G93 G1 X9.465 F20000 M63 P0
G93 G1 X9.497 F20000 M62 P0
G93 G1 X9.53 F20000 M63 P0
G93 G1 X9.563 F20000 M62 P0
G93 G1 X9.595 F20000 M63 P0
G93 G1 X9.628 F20000 M62 P0
G93 G1 X9.661 F20000 M63 P0
G93 G1 X9.693 F20000 M62 P0
G93 G1 X9.726 F20000 M63 P0
G93 G1 X9.758 F20000 M62 P0
G93 G1 X9.791 F20000 M63 P0
G93 G1 X9.824 F20000 M62 P0
G93 G1 X9.856 F20000 M63 P0
G93 G1 X9.889 F20000 M62 P0
G93 G1 X9.922 F20000 M63 P0
G93 G1 X9.954 F20000 M62 P0
G93 G1 X9.987 F20000 M63 P0
G93 G1 X10.02 F20000 M62 P0
G93 G1 X10.052 F20000 M63 P0
G93 G1 X10.085 F20000 M62 P0
G93 G1 X10.117 F20000 M63 P0
G93 G1 X10.15 F20000 M62 P0
G93 G1 X10.183 F20000 M63 P0
G93 G1 X10.215 F20000 M62 P0
G93 G1 X10.248 F20000 M63 P0
G93 G1 X10.281 F20000 M62 P0
G93 G1 X10.313 F20000 M63 P0
G93 G1 X10.346 F20000 M62 P0
G93 G1 X10.379 F20000 M63 P0
G93 G1 X10.411 F20000 M62 P0
G93 G1 X10.444 F20000 M63 P0
G93 G1 X10.477 F20000 M62 P0
G93 G1 X10.509 F20000 M63 P0
G93 G1 X10.542 F20000 M62 P0
G93 G1 X10.574 F20000 M63 P0
G93 G1 X10.607 F20000 M62 P0
G93 G1 X10.64 F20000 M63 P0
G93 G1 X10.672 F20000 M62 P0
G93 G1 X10.705 F20000 M63 P0
G93 G1 X10.738 F20000 M62 P0
G93 G1 X10.77 F20000 M63 P0
G93 G1 X10.803 F20000 M62 P0
G93 G1 X10.836 F20000 M63 P0
G93 G1 X10.868 F20000 M62 P0
G93 G1 X10.901 F20000 M63 P0
G93 G1 X10.933 F20000 M62 P0
G93 G1 X10.966 F20000 M63 P0
G93 G1 X10.999 F20000 M62 P0
G93 G1 X11.031 F20000 M63 P0
G93 G1 X11.064 F20000 M62 P0
G93 G1 X11.097 F20000 M63 P0
G93 G1 X11.129 F20000 M62 P0
G93 G1 X11.162 F20000 M63 P0
G93 G1 X11.195 F20000 M62 P0
G93 G1 X11.227 F20000 M63 P0
G93 G1 X11.26 F20000 M62 P0
G93 G1 X11.292 F20000 M63 P0
G93 G1 X11.325 F20000 M62 P0
G93 G1 X11.358 F20000 M63 P0
G93 G1 X11.39 F20000 M62 P0
G93 G1 X11.423 F20000 M63 P0
G93 G1 X11.456 F20000 M62 P0
G93 G1 X11.488 F20000 M63 P0
G93 G1 X11.521 F20000 M62 P0
G93 G1 X11.554 F20000 M63 P0
G93 G1 X11.586 F20000 M62 P0
G93 G1 X11.619 F20000 M63 P0
G93 G1 X11.651 F20000 M62 P0
G93 G1 X11.684 F20000 M63 P0
G93 G1 X11.717 F20000 M62 P0
G93 G1 X11.749 F20000 M63 P0
G93 G1 X11.782 F20000 M62 P0
G93 G1 X11.815 F20000 M63 P0
G93 G1 X11.847 F20000 M62 P0
G93 G1 X11.88 F20000 M63 P0
G93 G1 X11.913 F20000 M62 P0
G93 G1 X11.945 F20000 M63 P0
G93 G1 X11.978 F20000 M62 P0
G93 G1 X12.01 F20000 M63 P0
G93 G1 X12.043 F20000 M62 P0
G93 G1 X12.076 F20000 M63 P0
G93 G1 X12.108 F20000 M62 P0
G93 G1 X12.141 F20000 M63 P0
G93 G1 X12.174 F20000 M62 P0
G93 G1 X12.206 F20000 M63 P0
G93 G1 X12.239 F20000 M62 P0
G93 G1 X12.272 F20000 M63 P0
G93 G1 X12.304 F20000 M62 P0
G93 G1 X12.337 F20000 M63 P0
G93 G1 X12.369 F20000 M62 P0
G93 G1 X12.402 F20000 M63 P0
G93 G1 X12.435 F20000 M62 P0
G93 G1 X12.467 F20000 M63 P0
G93 G1 X12.5 F20000 M62 P0
G93 G1 X12.533 F20000 M63 P0
G93 G1 X12.565 F20000 M62 P0
G93 G1 X12.598 F20000 M63 P0
G93 G1 X12.631 F20000 M62 P0
G93 G1 X12.663 F20000 M63 P0
G93 G1 X12.696 F20000 M62 P0
G93 G1 X12.728 F20000 M63 P0
G93 G1 X12.761 F20000 M62 P0
G93 G1 X12.794 F20000 M63 P0
G93 G1 X12.826 F20000 M62 P0
G93 G1 X12.859 F20000 M63 P0
G93 G1 X12.892 F20000 M62 P0
G93 G1 X12.924 F20000 M63 P0
G93 G1 X12.957 F20000 M62 P0
G93 G1 X12.99 F20000 M63 P0
G93 G1 X13.022 F20000 M62 P0
G93 G1 X13.055 F20000 M63 P0
G93 G1 X13.087 F20000 M62 P0
G93 G1 X13.12 F20000 M63 P0
G93 G1 X13.153 F20000 M62 P0
G93 G1 X13.185 F20000 M63 P0
G93 G1 X13.218 F20000 M62 P0
G93 G1 X13.251 F20000 M63 P0
G93 G1 X13.283 F20000 M62 P0
G93 G1 X13.316 F20000 M63 P0
G93 G1 X13.349 F20000 M62 P0
G93 G1 X13.381 F20000 M63 P0
G93 G1 X13.414 F20000 M62 P0
G93 G1 X13.446 F20000 M63 P0
G93 G1 X13.479 F20000 M62 P0
G93 G1 X13.512 F20000 M63 P0
G93 G1 X13.544 F20000 M62 P0
G93 G1 X13.577 F20000 M63 P0
G93 G1 X13.61 F20000 M62 P0
G93 G1 X13.642 F20000 M63 P0
G93 G1 X13.675 F20000 M62 P0
G93 G1 X13.708 F20000 M63 P0
G93 G1 X13.74 F20000 M62 P0
G93 G1 X13.773 F20000 M63 P0
G93 G1 X13.805 F20000 M62 P0
G93 G1 X13.838 F20000 M63 P0
G93 G1 X13.871 F20000 M62 P0
G93 G1 X13.903 F20000 M63 P0
G93 G1 X13.936 F20000 M62 P0
G93 G1 X13.969 F20000 M63 P0
G93 G1 X14.001 F20000 M62 P0
G93 G1 X14.034 F20000 M63 P0
G93 G1 X14.067 F20000 M62 P0
G93 G1 X14.099 F20000 M63 P0
G93 G1 X14.132 F20000 M62 P0
G93 G1 X14.164 F20000 M63 P0
G93 G1 X14.197 F20000 M62 P0
G93 G1 X14.23 F20000 M63 P0
G93 G1 X14.262 F20000 M62 P0
G93 G1 X14.295 F20000 M63 P0
G93 G1 X14.328 F20000 M62 P0
G93 G1 X14.36 F20000 M63 P0
G93 G1 X14.393 F20000 M62 P0
G93 G1 X14.426 F20000 M63 P0
G93 G1 X14.458 F20000 M62 P0
G93 G1 X14.491 F20000 M63 P0
G93 G1 X14.523 F20000 M62 P0
G93 G1 X14.556 F20000 M63 P0
G93 G1 X14.589 F20000 M62 P0
G93 G1 X14.621 F20000 M63 P0
G93 G1 X14.654 F20000 M62 P0
G93 G1 X14.687 F20000 M63 P0
G93 G1 X14.719 F20000 M62 P0
G93 G1 X14.752 F20000 M63 P0
G93 G1 X14.785 F20000 M62 P0
G93 G1 X14.817 F20000 M63 P0
G93 G1 X14.85 F20000 M62 P0
G93 G1 X14.883 F20000 M63 P0
G93 G1 X14.915 F20000 M62 P0
G93 G1 X14.948 F20000 M63 P0
G93 G1 X14.98 F20000 M62 P0
G93 G1 X15.013 F20000 M63 P0
G93 G1 X15.046 F20000 M62 P0
G93 G1 X15.078 F20000 M63 P0
G93 G1 X15.111 F20000 M62 P0
G93 G1 X15.144 F20000 M63 P0
G93 G1 X15.176 F20000 M62 P0
G93 G1 X15.209 F20000 M63 P0
G93 G1 X15.242 F20000 M62 P0
G93 G1 X15.274 F20000 M63 P0
G93 G1 X15.307 F20000 M62 P0
G93 G1 X15.339 F20000 M63 P0
G93 G1 X15.372 F20000 M62 P0
G93 G1 X15.405 F20000 M63 P0
G93 G1 X15.437 F20000 M62 P0
G93 G1 X15.47 F20000 M63 P0
G93 G1 X15.503 F20000 M62 P0
G93 G1 X15.535 F20000 M63 P0
G93 G1 X15.568 F20000 M62 P0
G93 G1 X15.601 F20000 M63 P0
G93 G1 X15.633 F20000 M62 P0
G93 G1 X15.666 F20000 M63 P0
G93 G1 X15.698 F20000 M62 P0
G93 G1 X15.731 F20000 M63 P0
G93 G1 X15.764 F20000 M62 P0
G93 G1 X15.796 F20000 M63 P0
G93 G1 X15.829 F20000 M62 P0
G93 G1 X15.862 F20000 M63 P0
G93 G1 X15.894 F20000 M62 P0
G93 G1 X15.927 F20000 M63 P0
G93 G1 X15.96 F20000 M62 P0
G93 G1 X15.992 F20000 M63 P0
G93 G1 X16.025 F20000 M62 P0
G93 G1 X16.057 F20000 M63 P0
G93 G1 X16.09 F20000 M62 P0
G93 G1 X16.123 F20000 M63 P0
G93 G1 X16.155 F20000 M62 P0
G93 G1 X16.188 F20000 M63 P0
G93 G1 X16.221 F20000 M62 P0
G93 G1 X16.253 F20000 M63 P0
G93 G1 X16.286 F20000 M62 P0
G93 G1 X16.319 F20000 M63 P0
G93 G1 X16.351 F20000 M62 P0
G93 G1 X16.384 F20000 M63 P0
G93 G1 X16.416 F20000 M62 P0
G93 G1 X16.449 F20000 M63 P0
G93 G1 X16.482 F20000 M62 P0
G93 G1 X16.514 F20000 M63 P0
G93 G1 X16.547 F20000 M62 P0
G93 G1 X16.58 F20000 M63 P0
G93 G1 X16.612 F20000 M62 P0
G93 G1 X16.645 F20000 M63 P0
G93 G1 X16.678 F20000 M62 P0
G93 G1 X16.71 F20000 M63 P0
G93 G1 X16.743 F20000 M62 P0
G93 G1 X16.775 F20000 M63 P0
G93 G1 X16.808 F20000 M62 P0
G93 G1 X16.841 F20000 M63 P0
G93 G1 X16.873 F20000 M62 P0
G93 G1 X16.906 F20000 M63 P0
G93 G1 X16.939 F20000 M62 P0
G93 G1 X16.971 F20000 M63 P0
G93 G1 X17.004 F20000 M62 P0
G93 G1 X17.037 F20000 M63 P0
G93 G1 X17.069 F20000 M62 P0
G93 G1 X17.102 F20000 M63 P0
G93 G1 X17.134 F20000 M62 P0
G93 G1 X17.167 F20000 M63 P0
G93 G1 X17.2 F20000 M62 P0
G93 G1 X17.232 F20000 M63 P0
G93 G1 X17.265 F20000 M62 P0
G93 G1 X17.298 F20000 M63 P0
G93 G1 X17.33 F20000 M62 P0
G93 G1 X17.363 F20000 M63 P0
G93 G1 X17.396 F20000 M62 P0
G93 G1 X17.428 F20000 M63 P0
G93 G1 X17.461 F20000 M62 P0
G93 G1 X17.493 F20000 M63 P0
G93 G1 X17.526 F20000 M62 P0
G93 G1 X17.559 F20000 M63 P0
G93 G1 X17.591 F20000 M62 P0
G93 G1 X17.624 F20000 M63 P0
G93 G1 X17.657 F20000 M62 P0
G93 G1 X17.689 F20000 M63 P0
G93 G1 X17.722 F20000 M62 P0
G93 G1 X17.755 F20000 M63 P0
G93 G1 X17.787 F20000 M62 P0
G93 G1 X17.82 F20000 M63 P0
G93 G1 X17.852 F20000 M62 P0
G93 G1 X17.885 F20000 M63 P0
G93 G1 X17.918 F20000 M62 P0
G93 G1 X17.95 F20000 M63 P0
G93 G1 X17.983 F20000 M62 P0
G93 G1 X18.016 F20000 M63 P0
G93 G1 X18.048 F20000 M62 P0
G93 G1 X18.081 F20000 M63 P0
G93 G1 X18.114 F20000 M62 P0
G93 G1 X18.146 F20000 M63 P0
G93 G1 X18.179 F20000 M62 P0
G93 G1 X18.211 F20000 M63 P0
G93 G1 X18.244 F20000 M62 P0
G93 G1 X18.277 F20000 M63 P0
G93 G1 X18.309 F20000 M62 P0
G93 G1 X18.342 F20000 M63 P0
G93 G1 X18.375 F20000 M62 P0
G93 G1 X18.407 F20000 M63 P0
G93 G1 X18.44 F20000 M62 P0
G93 G1 X18.473 F20000 M63 P0
G93 G1 X18.505 F20000 M62 P0
G93 G1 X18.538 F20000 M63 P0
G93 G1 X18.57 F20000 M62 P0
G93 G1 X18.603 F20000 M63 P0
G93 G1 X18.636 F20000 M62 P0
G93 G1 X18.668 F20000 M63 P0
G93 G1 X18.701 F20000 M62 P0
G93 G1 X18.734 F20000 M63 P0
G93 G1 X18.766 F20000 M62 P0
G93 G1 X18.799 F20000 M63 P0
G93 G1 X18.832 F20000 M62 P0
G93 G1 X18.864 F20000 M63 P0
G93 G1 X18.897 F20000 M62 P0
G93 G1 X18.93 F20000 M63 P0
G93 G1 X18.962 F20000 M62 P0
G93 G1 X18.995 F20000 M63 P0
G93 G1 X19.027 F20000 M62 P0
G93 G1 X19.06 F20000 M63 P0
G93 G1 X19.093 F20000 M62 P0
G93 G1 X19.125 F20000 M63 P0
G93 G1 X19.158 F20000 M62 P0
G93 G1 X19.191 F20000 M63 P0
G93 G1 X19.223 F20000 M62 P0
G93 G1 X19.256 F20000 M63 P0
G93 G1 X19.289 F20000 M62 P0
G93 G1 X19.321 F20000 M63 P0
G93 G1 X19.354 F20000 M62 P0
G93 G1 X19.386 F20000 M63 P0
G93 G1 X19.419 F20000 M62 P0
G93 G1 X19.452 F20000 M63 P0
G93 G1 X19.484 F20000 M62 P0
G93 G1 X19.517 F20000 M63 P0
G93 G1 X19.55 F20000 M62 P0
G93 G1 X19.582 F20000 M63 P0
G93 G1 X19.615 F20000 M62 P0
G93 G1 X19.648 F20000 M63 P0
G93 G1 X19.68 F20000 M62 P0
G93 G1 X19.713 F20000 M63 P0
G93 G1 X19.745 F20000 M62 P0
G93 G1 X19.778 F20000 M63 P0
G93 G1 X19.811 F20000 M62 P0
G93 G1 X19.843 F20000 M63 P0
G93 G1 X19.876 F20000 M62 P0
G93 G1 X19.909 F20000 M63 P0
G93 G1 X19.941 F20000 M62 P0
G93 G1 X19.974 F20000 M63 P0
G93 G1 X20.007 F20000 M62 P0
G93 G1 X20.039 F20000 M63 P0
G93 G1 X20.072 F20000 M62 P0
G93 G1 X20.104 F20000 M63 P0
G93 G1 X20.137 F20000 M62 P0
G93 G1 X20.17 F20000 M63 P0
G93 G1 X20.202 F20000 M62 P0
G93 G1 X20.235 F20000 M63 P0
G93 G1 X20.268 F20000 M62 P0
G93 G1 X20.3 F20000 M63 P0
G93 G1 X20.333 F20000 M62 P0
G93 G1 X20.366 F20000 M63 P0
G93 G1 X20.398 F20000 M62 P0
G93 G1 X20.431 F20000 M63 P0
G93 G1 X20.463 F20000 M62 P0
G93 G1 X20.496 F20000 M63 P0
G93 G1 X20.529 F20000 M62 P0
G93 G1 X20.561 F20000 M63 P0
G93 G1 X20.594 F20000 M62 P0
G93 G1 X20.627 F20000 M63 P0
G93 G1 X20.659 F20000 M62 P0
G93 G1 X20.692 F20000 M63 P0
G93 G1 X20.725 F20000 M62 P0
G93 G1 X20.757 F20000 M63 P0
G93 G1 X20.79 F20000 M62 P0
G93 G1 X20.822 F20000 M63 P0
G93 G1 X20.855 F20000 M62 P0
G93 G1 X20.888 F20000 M63 P0
G93 G1 X20.92 F20000 M62 P0
G93 G1 X20.953 F20000 M63 P0
G93 G1 X20.986 F20000 M62 P0
G93 G1 X21.018 F20000 M63 P0
G93 G1 X21.051 F20000 M62 P0
G93 G1 X21.084 F20000 M63 P0
G93 G1 X21.116 F20000 M62 P0
G93 G1 X21.149 F20000 M63 P0
G93 G1 X21.181 F20000 M62 P0
G93 G1 X21.214 F20000 M63 P0
G93 G1 X21.247 F20000 M62 P0
G93 G1 X21.279 F20000 M63 P0
G93 G1 X21.312 F20000 M62 P0
G93 G1 X21.345 F20000 M63 P0
G93 G1 X21.377 F20000 M62 P0
G93 G1 X21.41 F20000 M63 P0
G93 G1 X21.443 F20000 M62 P0
G93 G1 X21.475 F20000 M63 P0
G93 G1 X21.508 F20000 M62 P0
G93 G1 X21.54 F20000 M63 P0
G93 G1 X21.573 F20000 M62 P0
G93 G1 X21.606 F20000 M63 P0
G93 G1 X21.638 F20000 M62 P0
G93 G1 X21.671 F20000 M63 P0
G93 G1 X21.704 F20000 M62 P0
G93 G1 X21.736 F20000 M63 P0
G93 G1 X21.769 F20000 M62 P0
G93 G1 X21.802 F20000 M63 P0
G93 G1 X21.834 F20000 M62 P0
G93 G1 X21.867 F20000 M63 P0
G93 G1 X21.899 F20000 M62 P0
G93 G1 X21.932 F20000 M63 P0
G93 G1 X21.965 F20000 M62 P0
G93 G1 X21.997 F20000 M63 P0
G93 G1 X22.03 F20000 M62 P0
G93 G1 X22.063 F20000 M63 P0
G93 G1 X22.095 F20000 M62 P0
G93 G1 X22.128 F20000 M63 P0
G93 G1 X22.161 F20000 M62 P0
G93 G1 X22.193 F20000 M63 P0
G93 G1 X22.226 F20000 M62 P0
G93 G1 X22.258 F20000 M63 P0
G93 G1 X22.291 F20000 M62 P0
G93 G1 X22.324 F20000 M63 P0
G93 G1 X22.356 F20000 M62 P0
G93 G1 X22.389 F20000 M63 P0
G93 G1 X22.422 F20000 M62 P0
G93 G1 X22.454 F20000 M63 P0
G93 G1 X22.487 F20000 M62 P0
G93 G1 X22.52 F20000 M63 P0
G93 G1 X22.552 F20000 M62 P0
G93 G1 X22.585 F20000 M63 P0
G93 G1 X22.617 F20000 M62 P0
G93 G1 X22.65 F20000 M63 P0
G93 G1 X22.683 F20000 M62 P0
G93 G1 X22.715 F20000 M63 P0
G93 G1 X22.748 F20000 M62 P0
G93 G1 X22.781 F20000 M63 P0
G93 G1 X22.813 F20000 M62 P0
G93 G1 X22.846 F20000 M63 P0
G93 G1 X22.879 F20000 M62 P0
G93 G1 X22.911 F20000 M63 P0
G93 G1 X22.944 F20000 M62 P0
G93 G1 X22.977 F20000 M63 P0
G93 G1 X23.009 F20000 M62 P0
G93 G1 X23.042 F20000 M63 P0
G93 G1 X23.074 F20000 M62 P0
G93 G1 X23.107 F20000 M63 P0
G93 G1 X23.14 F20000 M62 P0
G93 G1 X23.172 F20000 M63 P0
G93 G1 X23.205 F20000 M62 P0
G93 G1 X23.238 F20000 M63 P0
G93 G1 X23.27 F20000 M62 P0
G93 G1 X23.303 F20000 M63 P0
G93 G1 X23.336 F20000 M62 P0
G93 G1 X23.368 F20000 M63 P0
G93 G1 X23.401 F20000 M62 P0
G93 G1 X23.433 F20000 M63 P0
G93 G1 X23.466 F20000 M62 P0
G93 G1 X23.499 F20000 M63 P0
G93 G1 X23.531 F20000 M62 P0
G93 G1 X23.564 F20000 M63 P0
G93 G1 X23.597 F20000 M62 P0
G93 G1 X23.629 F20000 M63 P0
G93 G1 X23.662 F20000 M62 P0
G93 G1 X23.695 F20000 M63 P0
G93 G1 X23.727 F20000 M62 P0
G93 G1 X23.76 F20000 M63 P0
G93 G1 X23.792 F20000 M62 P0
G93 G1 X23.825 F20000 M63 P0
G93 G1 X23.858 F20000 M62 P0
G93 G1 X23.89 F20000 M63 P0
G93 G1 X23.923 F20000 M62 P0
G93 G1 X23.956 F20000 M63 P0
G93 G1 X23.988 F20000 M62 P0
G93 G1 X24.021 F20000 M63 P0
G93 G1 X24.054 F20000 M62 P0
G93 G1 X24.086 F20000 M63 P0
G93 G1 X24.119 F20000 M62 P0
G93 G1 X24.151 F20000 M63 P0
G93 G1 X24.184 F20000 M62 P0
G93 G1 X24.217 F20000 M63 P0
G93 G1 X24.249 F20000 M62 P0
G93 G1 X24.282 F20000 M63 P0
G93 G1 X24.315 F20000 M62 P0
G93 G1 X24.347 F20000 M63 P0
G93 G1 X24.38 F20000 M62 P0
G93 G1 X24.413 F20000 M63 P0
G93 G1 X24.445 F20000 M62 P0
G93 G1 X24.478 F20000 M63 P0
G93 G1 X24.51 F20000 M62 P0
G93 G1 X24.543 F20000 M63 P0
G0 X-27.48 Z80.0 A0.0 B0.0 C0.0 U0.0
%